P3
400 225
255
0 0 0
0 0 0
0 0 0
0 0 0
0 0 0
0 0 0
0 0 0
0 0 0
0 0 0
0 0 0
0 0 0
0 0 0
0 0 0
0 0 0
0 0 0
0 0 0
0 0 0
0 0 0
0 0 0
0 0 0
0 0 0
0 0 0
0 0 0
0 0 0
0 0 0
0 0 0
0 0 0
0 0 0
0 0 0
0 0 0
0 0 0
0 0 0
0 0 0
0 0 0
0 0 0
0 0 0
0 0 0
0 0 0
0 0 0
0 0 0
0 0 0
0 0 0
0 0 0
0 0 0
0 0 0
0 0 0
0 0 0
0 0 0
0 0 0
0 0 0
0 0 0
0 0 0
0 0 0
0 0 0
0 0 0
0 0 0
0 0 0
0 0 0
0 0 0
0 0 0
0 0 0
0 0 0
0 0 0
0 0 0
0 0 0
0 0 0
0 0 0
0 0 0
0 0 0
0 0 0
0 0 0
0 0 0
0 0 0
0 0 0
0 0 0
0 0 0
0 0 0
0 0 0
0 0 0
0 0 0
0 0 0
0 0 0
0 0 0
0 0 0
0 0 0
0 0 0
0 0 0
0 0 0
0 0 0
0 0 0
0 0 0
0 0 0
0 0 0
0 0 0
0 0 0
0 0 0
0 0 0
0 0 0
0 0 0
0 0 0
0 0 0
0 0 0
0 0 0
0 0 0
0 0 0
0 0 0
0 0 0
0 0 0
0 0 0
0 0 0
0 0 0
0 0 0
0 0 0
0 0 0
0 0 0
0 0 0
0 0 0
0 0 0
0 0 0
0 0 0
0 0 0
0 0 0
0 0 0
0 0 0
0 0 0
0 0 0
0 0 0
0 0 0
0 0 0
0 0 0
0 0 0
0 0 0
0 0 0
0 0 0
0 0 0
0 0 0
0 0 0
0 0 0
0 0 0
0 0 0
0 0 0
0 0 0
0 0 0
0 0 0
0 0 0
0 0 0
0 0 0
0 0 0
0 0 0
0 0 0
0 0 0
0 0 0
0 0 0
0 0 0
0 0 0
0 0 0
0 0 0
0 0 0
0 0 0
0 0 0
0 0 0
0 0 0
0 0 0
0 0 0
0 0 0
0 0 0
0 0 0
0 0 0
0 0 0
0 0 0
0 0 0
0 0 0
0 0 0
0 0 0
0 0 0
0 0 0
0 0 0
0 0 0
0 0 0
0 0 0
0 0 0
0 0 0
0 0 0
0 0 0
0 0 0
0 0 0
0 0 0
0 0 0
0 0 0
0 0 0
0 0 0
0 0 0
0 0 0
0 0 0
0 0 0
0 0 0
0 0 0
0 0 0
0 0 0
0 0 0
0 0 0
0 0 0
0 0 0
0 0 0
0 0 0
0 0 0
0 0 0
0 0 0
0 0 0
0 0 0
0 0 0
0 0 0
0 0 0
0 0 0
0 0 0
0 0 0
0 0 0
0 0 0
0 0 0
0 0 0
0 0 0
0 0 0
0 0 0
0 0 0
0 0 0
0 0 0
0 0 0
0 0 0
0 0 0
0 0 0
0 0 0
0 0 0
0 0 0
0 0 0
0 0 0
0 0 0
0 0 0
0 0 0
0 0 0
0 0 0
0 0 0
0 0 0
0 0 0
0 0 0
0 0 0
0 0 0
0 0 0
0 0 0
0 0 0
0 0 0
0 0 0
0 0 0
0 0 0
0 0 0
0 0 0
0 0 0
0 0 0
0 0 0
0 0 0
0 0 0
0 0 0
0 0 0
0 0 0
0 0 0
0 0 0
0 0 0
0 0 0
0 0 0
0 0 0
0 0 0
0 0 0
0 0 0
0 0 0
0 0 0
0 0 0
0 0 0
0 0 0
0 0 0
0 0 0
0 0 0
0 0 0
0 0 0
0 0 0
0 0 0
0 0 0
0 0 0
0 0 0
0 0 0
0 0 0
0 0 0
0 0 0
0 0 0
0 0 0
0 0 0
0 0 0
0 0 0
0 0 0
0 0 0
0 0 0
0 0 0
0 0 0
0 0 0
0 0 0
0 0 0
0 0 0
0 0 0
0 0 0
0 0 0
0 0 0
0 0 0
0 0 0
0 0 0
0 0 0
0 0 0
0 0 0
0 0 0
0 0 0
0 0 0
0 0 0
0 0 0
0 0 0
0 0 0
0 0 0
0 0 0
0 0 0
0 0 0
0 0 0
0 0 0
0 0 0
0 0 0
0 0 0
0 0 0
0 0 0
0 0 0
0 0 0
0 0 0
0 0 0
0 0 0
0 0 0
0 0 0
0 0 0
0 0 0
0 0 0
0 0 0
0 0 0
0 0 0
0 0 0
0 0 0
0 0 0
0 0 0
0 0 0
0 0 0
0 0 0
0 0 0
0 0 0
0 0 0
0 0 0
0 0 0
0 0 0
0 0 0
0 0 0
0 0 0
0 0 0
0 0 0
0 0 0
0 0 0
0 0 0
0 0 0
0 0 0
0 0 0
0 0 0
0 0 0
0 0 0
0 0 0
0 0 0
0 0 0
0 0 0
0 0 0
0 0 0
0 0 0
0 0 0
0 0 0
0 0 0
0 0 0
0 0 0
0 0 0
0 0 0
0 0 0
0 0 0
0 0 0
0 0 0
0 0 0
0 0 0
0 0 0
0 0 0
0 0 0
0 0 0
0 0 0
0 0 0
0 0 0
0 0 0
0 0 0
0 0 0
0 0 0
0 0 0
0 0 0
0 0 0
0 0 0
0 0 0
0 0 0
0 0 0
0 0 0
0 0 0
0 0 0
0 0 0
0 0 0
0 0 0
0 0 0
0 0 0
0 0 0
0 0 0
0 0 0
0 0 0
0 0 0
0 0 0
0 0 0
0 0 0
0 0 0
0 0 0
0 0 0
0 0 0
0 0 0
0 0 0
0 0 0
0 0 0
0 0 0
0 0 0
0 0 0
0 0 0
0 0 0
0 0 0
0 0 0
0 0 0
0 0 0
0 0 0
0 0 0
0 0 0
0 0 0
0 0 0
0 0 0
0 0 0
0 0 0
0 0 0
0 0 0
0 0 0
0 0 0
0 0 0
0 0 0
0 0 0
0 0 0
0 0 0
0 0 0
0 0 0
0 0 0
0 0 0
0 0 0
0 0 0
0 0 0
0 0 0
0 0 0
0 0 0
0 0 0
0 0 0
0 0 0
0 0 0
0 0 0
0 0 0
0 0 0
0 0 0
0 0 0
0 0 0
0 0 0
0 0 0
0 0 0
0 0 0
0 0 0
0 0 0
0 0 0
0 0 0
0 0 0
0 0 0
0 0 0
0 0 0
0 0 0
0 0 0
0 0 0
0 0 0
0 0 0
0 0 0
0 0 0
0 0 0
0 0 0
0 0 0
0 0 0
0 0 0
0 0 0
0 0 0
0 0 0
0 0 0
0 0 0
0 0 0
0 0 0
0 0 0
0 0 0
0 0 0
0 0 0
0 0 0
0 0 0
0 0 0
0 0 0
0 0 0
0 0 0
0 0 0
0 0 0
0 0 0
0 0 0
0 0 0
0 0 0
0 0 0
0 0 0
0 0 0
0 0 0
0 0 0
0 0 0
0 0 0
0 0 0
0 0 0
0 0 0
0 0 0
0 0 0
0 0 0
0 0 0
0 0 0
0 0 0
0 0 0
0 0 0
0 0 0
0 0 0
0 0 0
0 0 0
0 0 0
0 0 0
0 0 0
0 0 0
0 0 0
0 0 0
0 0 0
0 0 0
0 0 0
0 0 0
0 0 0
0 0 0
0 0 0
0 0 0
0 0 0
0 0 0
0 0 0
0 0 0
0 0 0
0 0 0
0 0 0
0 0 0
0 0 0
0 0 0
0 0 0
0 0 0
0 0 0
0 0 0
0 0 0
0 0 0
0 0 0
0 0 0
0 0 0
0 0 0
0 0 0
0 0 0
0 0 0
0 0 0
0 0 0
0 0 0
0 0 0
0 0 0
0 0 0
0 0 0
0 0 0
0 0 0
0 0 0
0 0 0
0 0 0
0 0 0
0 0 0
0 0 0
0 0 0
0 0 0
0 0 0
0 0 0
0 0 0
0 0 0
0 0 0
0 0 0
0 0 0
0 0 0
0 0 0
0 0 0
0 0 0
0 0 0
0 0 0
0 0 0
0 0 0
0 0 0
0 0 0
0 0 0
0 0 0
0 0 0
0 0 0
0 0 0
0 0 0
0 0 0
0 0 0
0 0 0
0 0 0
0 0 0
0 0 0
0 0 0
0 0 0
0 0 0
0 0 0
0 0 0
0 0 0
0 0 0
0 0 0
0 0 0
0 0 0
0 0 0
0 0 0
0 0 0
0 0 0
0 0 0
0 0 0
0 0 0
0 0 0
0 0 0
0 0 0
0 0 0
0 0 0
0 0 0
0 0 0
0 0 0
0 0 0
0 0 0
0 0 0
0 0 0
0 0 0
0 0 0
0 0 0
0 0 0
0 0 0
0 0 0
0 0 0
0 0 0
0 0 0
0 0 0
0 0 0
0 0 0
0 0 0
0 0 0
0 0 0
0 0 0
0 0 0
0 0 0
0 0 0
0 0 0
0 0 0
0 0 0
0 0 0
0 0 0
0 0 0
0 0 0
0 0 0
0 0 0
0 0 0
0 0 0
0 0 0
0 0 0
0 0 0
0 0 0
0 0 0
0 0 0
0 0 0
0 0 0
0 0 0
0 0 0
0 0 0
0 0 0
0 0 0
0 0 0
0 0 0
0 0 0
0 0 0
0 0 0
0 0 0
0 0 0
0 0 0
0 0 0
0 0 0
0 0 0
0 0 0
0 0 0
0 0 0
0 0 0
0 0 0
0 0 0
0 0 0
0 0 0
0 0 0
0 0 0
0 0 0
0 0 0
0 0 0
0 0 0
0 0 0
0 0 0
0 0 0
0 0 0
0 0 0
0 0 0
0 0 0
0 0 0
0 0 0
0 0 0
0 0 0
0 0 0
0 0 0
0 0 0
0 0 0
0 0 0
0 0 0
0 0 0
0 0 0
0 0 0
0 0 0
0 0 0
0 0 0
0 0 0
0 0 0
0 0 0
0 0 0
0 0 0
0 0 0
0 0 0
0 0 0
0 0 0
0 0 0
0 0 0
0 0 0
0 0 0
0 0 0
0 0 0
0 0 0
0 0 0
0 0 0
0 0 0
0 0 0
0 0 0
0 0 0
0 0 0
0 0 0
0 0 0
0 0 0
0 0 0
0 0 0
0 0 0
0 0 0
0 0 0
0 0 0
0 0 0
0 0 0
0 0 0
0 0 0
0 0 0
0 0 0
0 0 0
0 0 0
0 0 0
0 0 0
0 0 0
0 0 0
0 0 0
0 0 0
0 0 0
0 0 0
0 0 0
0 0 0
0 0 0
0 0 0
0 0 0
0 0 0
0 0 0
0 0 0
0 0 0
0 0 0
0 0 0
0 0 0
0 0 0
0 0 0
0 0 0
0 0 0
0 0 0
0 0 0
0 0 0
0 0 0
0 0 0
0 0 0
0 0 0
0 0 0
0 0 0
0 0 0
0 0 0
0 0 0
0 0 0
0 0 0
0 0 0
0 0 0
0 0 0
0 0 0
0 0 0
0 0 0
0 0 0
0 0 0
0 0 0
0 0 0
0 0 0
0 0 0
0 0 0
0 0 0
0 0 0
0 0 0
0 0 0
0 0 0
0 0 0
0 0 0
0 0 0
0 0 0
0 0 0
0 0 0
0 0 0
0 0 0
0 0 0
0 0 0
0 0 0
0 0 0
0 0 0
0 0 0
0 0 0
0 0 0
0 0 0
0 0 0
0 0 0
0 0 0
0 0 0
0 0 0
0 0 0
0 0 0
0 0 0
0 0 0
0 0 0
0 0 0
0 0 0
0 0 0
0 0 0
0 0 0
0 0 0
0 0 0
0 0 0
0 0 0
0 0 0
0 0 0
0 0 0
0 0 0
0 0 0
0 0 0
0 0 0
0 0 0
0 0 0
0 0 0
0 0 0
0 0 0
0 0 0
0 0 0
0 0 0
0 0 0
0 0 0
0 0 0
0 0 0
0 0 0
0 0 0
0 0 0
0 0 0
0 0 0
0 0 0
0 0 0
0 0 0
0 0 0
0 0 0
0 0 0
0 0 0
0 0 0
0 0 0
0 0 0
0 0 0
0 0 0
0 0 0
0 0 0
0 0 0
0 0 0
0 0 0
0 0 0
0 0 0
0 0 0
0 0 0
0 0 0
0 0 0
0 0 0
0 0 0
0 0 0
0 0 0
0 0 0
0 0 0
0 0 0
0 0 0
0 0 0
0 0 0
0 0 0
0 0 0
0 0 0
0 0 0
0 0 0
0 0 0
0 0 0
0 0 0
0 0 0
0 0 0
0 0 0
0 0 0
0 0 0
0 0 0
0 0 0
0 0 0
0 0 0
0 0 0
0 0 0
0 0 0
0 0 0
0 0 0
0 0 0
0 0 0
0 0 0
0 0 0
0 0 0
0 0 0
0 0 0
0 0 0
0 0 0
0 0 0
0 0 0
0 0 0
0 0 0
0 0 0
0 0 0
0 0 0
0 0 0
0 0 0
0 0 0
0 0 0
0 0 0
0 0 0
0 0 0
0 0 0
0 0 0
0 0 0
0 0 0
0 0 0
0 0 0
0 0 0
0 0 0
0 0 0
0 0 0
0 0 0
0 0 0
0 0 0
0 0 0
0 0 0
0 0 0
0 0 0
0 0 0
0 0 0
0 0 0
0 0 0
0 0 0
0 0 0
0 0 0
0 0 0
0 0 0
0 0 0
0 0 0
0 0 0
0 0 0
0 0 0
0 0 0
0 0 0
0 0 0
0 0 0
0 0 0
0 0 0
0 0 0
0 0 0
0 0 0
0 0 0
0 0 0
0 0 0
0 0 0
0 0 0
0 0 0
0 0 0
0 0 0
0 0 0
0 0 0
0 0 0
0 0 0
0 0 0
0 0 0
0 0 0
0 0 0
0 0 0
0 0 0
0 0 0
0 0 0
0 0 0
0 0 0
0 0 0
0 0 0
0 0 0
0 0 0
0 0 0
0 0 0
0 0 0
0 0 0
0 0 0
0 0 0
0 0 0
0 0 0
0 0 0
0 0 0
0 0 0
0 0 0
0 0 0
0 0 0
0 0 0
0 0 0
0 0 0
0 0 0
0 0 0
0 0 0
0 0 0
0 0 0
0 0 0
0 0 0
0 0 0
0 0 0
0 0 0
0 0 0
0 0 0
0 0 0
0 0 0
0 0 0
0 0 0
0 0 0
0 0 0
0 0 0
0 0 0
0 0 0
0 0 0
0 0 0
0 0 0
0 0 0
0 0 0
0 0 0
0 0 0
0 0 0
0 0 0
0 0 0
0 0 0
0 0 0
0 0 0
0 0 0
0 0 0
0 0 0
0 0 0
0 0 0
0 0 0
0 0 0
0 0 0
0 0 0
0 0 0
0 0 0
0 0 0
0 0 0
0 0 0
0 0 0
0 0 0
0 0 0
0 0 0
0 0 0
0 0 0
0 0 0
0 0 0
0 0 0
0 0 0
0 0 0
0 0 0
0 0 0
0 0 0
0 0 0
0 0 0
0 0 0
0 0 0
0 0 0
0 0 0
0 0 0
0 0 0
0 0 0
0 0 0
0 0 0
0 0 0
0 0 0
0 0 0
0 0 0
0 0 0
0 0 0
0 0 0
0 0 0
0 0 0
0 0 0
0 0 0
0 0 0
0 0 0
0 0 0
0 0 0
0 0 0
0 0 0
0 0 0
0 0 0
0 0 0
0 0 0
0 0 0
0 0 0
0 0 0
0 0 0
0 0 0
0 0 0
0 0 0
0 0 0
0 0 0
0 0 0
0 0 0
0 0 0
0 0 0
0 0 0
0 0 0
0 0 0
0 0 0
0 0 0
0 0 0
0 0 0
0 0 0
0 0 0
0 0 0
0 0 0
0 0 0
0 0 0
0 0 0
0 0 0
0 0 0
0 0 0
0 0 0
0 0 0
0 0 0
0 0 0
0 0 0
0 0 0
0 0 0
0 0 0
0 0 0
0 0 0
0 0 0
0 0 0
0 0 0
0 0 0
0 0 0
0 0 0
0 0 0
0 0 0
0 0 0
0 0 0
0 0 0
0 0 0
0 0 0
0 0 0
0 0 0
0 0 0
0 0 0
0 0 0
0 0 0
0 0 0
0 0 0
0 0 0
0 0 0
0 0 0
0 0 0
0 0 0
0 0 0
0 0 0
0 0 0
0 0 0
0 0 0
0 0 0
0 0 0
0 0 0
0 0 0
0 0 0
0 0 0
0 0 0
0 0 0
0 0 0
0 0 0
0 0 0
0 0 0
0 0 0
0 0 0
0 0 0
0 0 0
0 0 0
0 0 0
0 0 0
0 0 0
0 0 0
0 0 0
0 0 0
0 0 0
0 0 0
0 0 0
0 0 0
0 0 0
0 0 0
0 0 0
0 0 0
0 0 0
0 0 0
0 0 0
0 0 0
0 0 0
0 0 0
0 0 0
0 0 0
0 0 0
0 0 0
0 0 0
0 0 0
0 0 0
0 0 0
0 0 0
0 0 0
0 0 0
0 0 0
0 0 0
0 0 0
0 0 0
0 0 0
0 0 0
0 0 0
0 0 0
0 0 0
0 0 0
0 0 0
0 0 0
0 0 0
0 0 0
0 0 0
0 0 0
0 0 0
0 0 0
0 0 0
0 0 0
0 0 0
0 0 0
0 0 0
0 0 0
0 0 0
0 0 0
0 0 0
0 0 0
0 0 0
0 0 0
0 0 0
0 0 0
0 0 0
0 0 0
0 0 0
0 0 0
0 0 0
0 0 0
0 0 0
0 0 0
0 0 0
0 0 0
0 0 0
0 0 0
0 0 0
0 0 0
0 0 0
0 0 0
0 0 0
0 0 0
0 0 0
0 0 0
0 0 0
0 0 0
0 0 0
0 0 0
0 0 0
0 0 0
0 0 0
0 0 0
0 0 0
0 0 0
0 0 0
0 0 0
0 0 0
0 0 0
0 0 0
0 0 0
0 0 0
0 0 0
0 0 0
0 0 0
0 0 0
0 0 0
0 0 0
0 0 0
0 0 0
0 0 0
0 0 0
0 0 0
0 0 0
0 0 0
0 0 0
0 0 0
0 0 0
0 0 0
0 0 0
0 0 0
0 0 0
0 0 0
0 0 0
0 0 0
0 0 0
0 0 0
0 0 0
0 0 0
0 0 0
0 0 0
0 0 0
0 0 0
0 0 0
0 0 0
0 0 0
0 0 0
0 0 0
0 0 0
0 0 0
0 0 0
0 0 0
0 0 0
0 0 0
0 0 0
0 0 0
0 0 0
0 0 0
0 0 0
0 0 0
0 0 0
0 0 0
0 0 0
0 0 0
0 0 0
0 0 0
0 0 0
0 0 0
0 0 0
0 0 0
0 0 0
0 0 0
0 0 0
0 0 0
0 0 0
0 0 0
0 0 0
0 0 0
0 0 0
0 0 0
0 0 0
0 0 0
0 0 0
0 0 0
0 0 0
0 0 0
0 0 0
0 0 0
0 0 0
0 0 0
0 0 0
0 0 0
0 0 0
0 0 0
0 0 0
0 0 0
0 0 0
0 0 0
0 0 0
0 0 0
0 0 0
0 0 0
0 0 0
0 0 0
0 0 0
0 0 0
0 0 0
0 0 0
0 0 0
0 0 0
0 0 0
0 0 0
0 0 0
0 0 0
0 0 0
0 0 0
0 0 0
0 0 0
0 0 0
0 0 0
0 0 0
0 0 0
0 0 0
0 0 0
0 0 0
0 0 0
0 0 0
0 0 0
0 0 0
0 0 0
0 0 0
0 0 0
0 0 0
0 0 0
0 0 0
0 0 0
0 0 0
0 0 0
0 0 0
0 0 0
0 0 0
0 0 0
0 0 0
0 0 0
0 0 0
0 0 0
0 0 0
0 0 0
0 0 0
0 0 0
0 0 0
0 0 0
0 0 0
0 0 0
0 0 0
0 0 0
0 0 0
0 0 0
0 0 0
0 0 0
0 0 0
0 0 0
0 0 0
0 0 0
0 0 0
0 0 0
0 0 0
0 0 0
0 0 0
0 0 0
0 0 0
0 0 0
0 0 0
0 0 0
0 0 0
0 0 0
0 0 0
0 0 0
0 0 0
0 0 0
0 0 0
0 0 0
0 0 0
0 0 0
0 0 0
0 0 0
0 0 0
0 0 0
0 0 0
0 0 0
0 0 0
0 0 0
0 0 0
0 0 0
0 0 0
0 0 0
0 0 0
0 0 0
0 0 0
0 0 0
0 0 0
0 0 0
0 0 0
0 0 0
0 0 0
0 0 0
0 0 0
0 0 0
0 0 0
0 0 0
0 0 0
0 0 0
0 0 0
0 0 0
0 0 0
0 0 0
0 0 0
0 0 0
0 0 0
0 0 0
0 0 0
0 0 0
0 0 0
0 0 0
0 0 0
0 0 0
0 0 0
0 0 0
0 0 0
0 0 0
0 0 0
0 0 0
0 0 0
0 0 0
0 0 0
0 0 0
0 0 0
0 0 0
0 0 0
0 0 0
0 0 0
0 0 0
0 0 0
0 0 0
0 0 0
0 0 0
0 0 0
0 0 0
0 0 0
0 0 0
0 0 0
0 0 0
0 0 0
0 0 0
0 0 0
0 0 0
0 0 0
0 0 0
0 0 0
0 0 0
0 0 0
0 0 0
0 0 0
0 0 0
0 0 0
0 0 0
0 0 0
0 0 0
0 0 0
0 0 0
0 0 0
0 0 0
0 0 0
0 0 0
0 0 0
0 0 0
0 0 0
0 0 0
0 0 0
0 0 0
0 0 0
0 0 0
0 0 0
0 0 0
0 0 0
0 0 0
0 0 0
0 0 0
0 0 0
0 0 0
0 0 0
0 0 0
0 0 0
0 0 0
0 0 0
0 0 0
0 0 0
0 0 0
0 0 0
0 0 0
0 0 0
0 0 0
0 0 0
0 0 0
0 0 0
0 0 0
0 0 0
0 0 0
0 0 0
0 0 0
0 0 0
0 0 0
0 0 0
0 0 0
0 0 0
0 0 0
0 0 0
0 0 0
0 0 0
0 0 0
0 0 0
0 0 0
0 0 0
0 0 0
0 0 0
0 0 0
0 0 0
0 0 0
0 0 0
0 0 0
0 0 0
0 0 0
0 0 0
0 0 0
0 0 0
0 0 0
0 0 0
0 0 0
0 0 0
0 0 0
0 0 0
0 0 0
0 0 0
0 0 0
0 0 0
0 0 0
0 0 0
0 0 0
0 0 0
0 0 0
0 0 0
0 0 0
0 0 0
0 0 0
0 0 0
0 0 0
0 0 0
0 0 0
0 0 0
0 0 0
0 0 0
0 0 0
0 0 0
0 0 0
0 0 0
0 0 0
0 0 0
0 0 0
0 0 0
0 0 0
0 0 0
0 0 0
0 0 0
0 0 0
0 0 0
0 0 0
0 0 0
0 0 0
0 0 0
0 0 0
0 0 0
0 0 0
0 0 0
0 0 0
0 0 0
0 0 0
0 0 0
0 0 0
0 0 0
0 0 0
0 0 0
0 0 0
0 0 0
0 0 0
0 0 0
0 0 0
0 0 0
0 0 0
0 0 0
0 0 0
0 0 0
0 0 0
0 0 0
0 0 0
0 0 0
0 0 0
0 0 0
0 0 0
0 0 0
0 0 0
0 0 0
0 0 0
0 0 0
0 0 0
0 0 0
0 0 0
0 0 0
0 0 0
0 0 0
0 0 0
0 0 0
0 0 0
0 0 0
0 0 0
0 0 0
0 0 0
0 0 0
0 0 0
0 0 0
0 0 0
0 0 0
0 0 0
0 0 0
0 0 0
0 0 0
0 0 0
0 0 0
0 0 0
0 0 0
0 0 0
0 0 0
0 0 0
0 0 0
0 0 0
0 0 0
0 0 0
0 0 0
0 0 0
0 0 0
0 0 0
0 0 0
0 0 0
0 0 0
0 0 0
0 0 0
44 44 44
226 226 226
255 255 255
255 255 255
255 255 255
255 255 255
255 255 255
255 255 255
226 226 226
36 36 36
0 0 0
0 0 0
0 0 0
0 0 0
0 0 0
0 0 0
0 0 0
0 0 0
0 0 0
0 0 0
0 0 0
0 0 0
0 0 0
0 0 0
0 0 0
0 0 0
0 0 0
0 0 0
0 0 0
0 0 0
0 0 0
0 0 0
0 0 0
0 0 0
0 0 0
0 0 0
0 0 0
0 0 0
0 0 0
0 0 0
0 0 0
0 0 0
0 0 0
0 0 0
0 0 0
0 0 0
0 0 0
0 0 0
0 0 0
0 0 0
0 0 0
0 0 0
0 0 0
0 0 0
0 0 0
0 0 0
0 0 0
0 0 0
0 0 0
0 0 0
0 0 0
0 0 0
0 0 0
0 0 0
0 0 0
0 0 0
0 0 0
0 0 0
0 0 0
0 0 0
0 0 0
0 0 0
0 0 0
0 0 0
0 0 0
0 0 0
0 0 0
0 0 0
0 0 0
0 0 0
0 0 0
0 0 0
0 0 0
0 0 0
0 0 0
0 0 0
0 0 0
0 0 0
0 0 0
0 0 0
0 0 0
0 0 0
0 0 0
0 0 0
0 0 0
0 0 0
0 0 0
0 0 0
0 0 0
0 0 0
0 0 0
0 0 0
0 0 0
0 0 0
0 0 0
0 0 0
0 0 0
0 0 0
0 0 0
0 0 0
0 0 0
0 0 0
0 0 0
0 0 0
0 0 0
0 0 0
0 0 0
0 0 0
0 0 0
0 0 0
0 0 0
0 0 0
0 0 0
0 0 0
0 0 0
0 0 0
0 0 0
0 0 0
0 0 0
0 0 0
0 0 0
0 0 0
0 0 0
0 0 0
0 0 0
0 0 0
0 0 0
0 0 0
0 0 0
0 0 0
0 0 0
0 0 0
0 0 0
0 0 0
0 0 0
0 0 0
0 0 0
0 0 0
0 0 0
0 0 0
0 0 0
0 0 0
0 0 0
0 0 0
0 0 0
0 0 0
0 0 0
0 0 0
0 0 0
0 0 0
0 0 0
0 0 0
0 0 0
0 0 0
0 0 0
0 0 0
0 0 0
0 0 0
0 0 0
0 0 0
0 0 0
0 0 0
0 0 0
0 0 0
0 0 0
0 0 0
0 0 0
0 0 0
0 0 0
0 0 0
0 0 0
0 0 0
0 0 0
0 0 0
0 0 0
0 0 0
0 0 0
0 0 0
0 0 0
0 0 0
0 0 0
0 0 0
0 0 0
0 0 0
0 0 0
0 0 0
0 0 0
0 0 0
0 0 0
0 0 0
0 0 0
0 0 0
0 0 0
0 0 0
0 0 0
0 0 0
0 0 0
0 0 0
0 0 0
0 0 0
0 0 0
0 0 0
0 0 0
0 0 0
0 0 0
0 0 0
0 0 0
0 0 0
0 0 0
0 0 0
0 0 0
0 0 0
0 0 0
0 0 0
0 0 0
0 0 0
0 0 0
0 0 0
0 0 0
0 0 0
0 0 0
0 0 0
0 0 0
0 0 0
0 0 0
0 0 0
0 0 0
0 0 0
0 0 0
0 0 0
0 0 0
0 0 0
0 0 0
0 0 0
0 0 0
0 0 0
0 0 0
0 0 0
0 0 0
0 0 0
0 0 0
0 0 0
0 0 0
0 0 0
0 0 0
0 0 0
0 0 0
0 0 0
0 0 0
0 0 0
0 0 0
0 0 0
0 0 0
0 0 0
0 0 0
0 0 0
0 0 0
0 0 0
0 0 0
0 0 0
0 0 0
0 0 0
0 0 0
0 0 0
0 0 0
0 0 0
0 0 0
0 0 0
0 0 0
0 0 0
0 0 0
0 0 0
0 0 0
0 0 0
0 0 0
0 0 0
0 0 0
0 0 0
0 0 0
0 0 0
0 0 0
0 0 0
0 0 0
0 0 0
0 0 0
0 0 0
0 0 0
0 0 0
0 0 0
0 0 0
0 0 0
0 0 0
0 0 0
0 0 0
0 0 0
0 0 0
0 0 0
0 0 0
0 0 0
0 0 0
0 0 0
0 0 0
0 0 0
0 0 0
0 0 0
0 0 0
0 0 0
0 0 0
0 0 0
0 0 0
0 0 0
0 0 0
0 0 0
0 0 0
0 0 0
0 0 0
0 0 0
0 0 0
0 0 0
0 0 0
0 0 0
0 0 0
0 0 0
0 0 0
0 0 0
0 0 0
0 0 0
0 0 0
0 0 0
0 0 0
0 0 0
0 0 0
0 0 0
0 0 0
0 0 0
0 0 0
0 0 0
0 0 0
0 0 0
0 0 0
0 0 0
0 0 0
0 0 0
0 0 0
0 0 0
0 0 0
0 0 0
0 0 0
0 0 0
0 0 0
0 0 0
0 0 0
0 0 0
0 0 0
0 0 0
0 0 0
0 0 0
0 0 0
0 0 0
0 0 0
0 0 0
0 0 0
0 0 0
0 0 0
0 0 0
0 0 0
0 0 0
0 0 0
0 0 0
0 0 0
0 0 0
0 0 0
0 0 0
0 0 0
0 0 0
0 0 0
0 0 0
0 0 0
0 0 0
0 0 0
0 0 0
0 0 0
0 0 0
0 0 0
0 0 0
0 0 0
221 221 221
255 255 255
255 255 255
255 255 255
255 255 255
255 255 255
255 255 255
255 255 255
255 255 255
255 255 255
255 255 255
255 255 255
255 255 255
255 255 255
255 255 255
255 255 255
255 255 255
238 238 238
0 0 0
0 0 0
0 0 0
0 0 0
0 0 0
0 0 0
0 0 0
0 0 0
0 0 0
0 0 0
0 0 0
0 0 0
0 0 0
0 0 0
0 0 0
0 0 0
0 0 0
0 0 0
0 0 0
0 0 0
0 0 0
0 0 0
0 0 0
0 0 0
0 0 0
0 0 0
0 0 0
0 0 0
0 0 0
0 0 0
0 0 0
0 0 0
0 0 0
0 0 0
0 0 0
0 0 0
0 0 0
0 0 0
0 0 0
0 0 0
0 0 0
0 0 0
0 0 0
0 0 0
0 0 0
0 0 0
0 0 0
0 0 0
0 0 0
0 0 0
0 0 0
0 0 0
0 0 0
0 0 0
0 0 0
0 0 0
0 0 0
0 0 0
0 0 0
0 0 0
0 0 0
0 0 0
0 0 0
0 0 0
0 0 0
0 0 0
0 0 0
0 0 0
0 0 0
0 0 0
0 0 0
0 0 0
0 0 0
0 0 0
0 0 0
0 0 0
0 0 0
0 0 0
0 0 0
0 0 0
0 0 0
0 0 0
0 0 0
0 0 0
0 0 0
0 0 0
0 0 0
0 0 0
0 0 0
0 0 0
0 0 0
0 0 0
0 0 0
0 0 0
0 0 0
0 0 0
0 0 0
0 0 0
0 0 0
0 0 0
0 0 0
0 0 0
0 0 0
0 0 0
0 0 0
0 0 0
0 0 0
0 0 0
0 0 0
0 0 0
0 0 0
0 0 0
0 0 0
0 0 0
0 0 0
0 0 0
0 0 0
0 0 0
0 0 0
0 0 0
0 0 0
0 0 0
0 0 0
0 0 0
0 0 0
0 0 0
0 0 0
0 0 0
0 0 0
0 0 0
0 0 0
0 0 0
0 0 0
0 0 0
0 0 0
0 0 0
0 0 0
0 0 0
0 0 0
0 0 0
0 0 0
0 0 0
0 0 0
0 0 0
0 0 0
0 0 0
0 0 0
0 0 0
0 0 0
0 0 0
0 0 0
0 0 0
0 0 0
0 0 0
0 0 0
0 0 0
0 0 0
0 0 0
0 0 0
0 0 0
0 0 0
0 0 0
0 0 0
0 0 0
0 0 0
0 0 0
0 0 0
0 0 0
0 0 0
0 0 0
0 0 0
0 0 0
0 0 0
0 0 0
0 0 0
0 0 0
0 0 0
0 0 0
0 0 0
0 0 0
0 0 0
0 0 0
0 0 0
0 0 0
0 0 0
0 0 0
0 0 0
0 0 0
0 0 0
0 0 0
0 0 0
0 0 0
0 0 0
0 0 0
0 0 0
0 0 0
0 0 0
0 0 0
0 0 0
0 0 0
0 0 0
0 0 0
0 0 0
0 0 0
0 0 0
0 0 0
0 0 0
0 0 0
0 0 0
0 0 0
0 0 0
0 0 0
0 0 0
0 0 0
0 0 0
0 0 0
0 0 0
0 0 0
0 0 0
0 0 0
0 0 0
0 0 0
0 0 0
0 0 0
0 0 0
0 0 0
0 0 0
0 0 0
0 0 0
0 0 0
0 0 0
0 0 0
0 0 0
0 0 0
0 0 0
0 0 0
0 0 0
0 0 0
0 0 0
0 0 0
0 0 0
0 0 0
0 0 0
0 0 0
0 0 0
0 0 0
0 0 0
0 0 0
0 0 0
0 0 0
0 0 0
0 0 0
0 0 0
0 0 0
0 0 0
0 0 0
0 0 0
0 0 0
0 0 0
0 0 0
0 0 0
0 0 0
0 0 0
0 0 0
0 0 0
0 0 0
0 0 0
0 0 0
0 0 0
0 0 0
0 0 0
0 0 0
0 0 0
0 0 0
0 0 0
0 0 0
0 0 0
0 0 0
0 0 0
0 0 0
0 0 0
0 0 0
0 0 0
0 0 0
0 0 0
0 0 0
0 0 0
0 0 0
0 0 0
0 0 0
0 0 0
0 0 0
0 0 0
0 0 0
0 0 0
0 0 0
0 0 0
0 0 0
0 0 0
0 0 0
0 0 0
0 0 0
0 0 0
0 0 0
0 0 0
0 0 0
0 0 0
0 0 0
0 0 0
0 0 0
0 0 0
0 0 0
0 0 0
0 0 0
0 0 0
0 0 0
0 0 0
0 0 0
0 0 0
0 0 0
0 0 0
0 0 0
0 0 0
0 0 0
0 0 0
0 0 0
0 0 0
0 0 0
0 0 0
0 0 0
0 0 0
0 0 0
0 0 0
0 0 0
0 0 0
0 0 0
0 0 0
0 0 0
0 0 0
0 0 0
0 0 0
0 0 0
0 0 0
0 0 0
0 0 0
0 0 0
0 0 0
0 0 0
0 0 0
0 0 0
0 0 0
0 0 0
0 0 0
0 0 0
0 0 0
0 0 0
0 0 0
0 0 0
0 0 0
0 0 0
0 0 0
0 0 0
0 0 0
0 0 0
0 0 0
0 0 0
0 0 0
0 0 0
0 0 0
0 0 0
0 0 0
0 0 0
0 0 0
0 0 0
0 0 0
0 0 0
0 0 0
0 0 0
0 0 0
199 199 199
255 255 255
255 255 255
255 255 255
255 255 255
255 255 255
255 255 255
255 255 255
255 255 255
255 255 255
255 255 255
255 255 255
255 255 255
255 255 255
255 255 255
255 255 255
255 255 255
255 255 255
255 255 255
255 255 255
255 255 255
255 255 255
255 255 255
221 221 221
0 0 0
0 0 0
0 0 0
0 0 0
0 0 0
0 0 0
0 0 0
0 0 0
0 0 0
0 0 0
0 0 0
0 0 0
0 0 0
0 0 0
0 0 0
0 0 0
0 0 0
0 0 0
0 0 0
0 0 0
0 0 0
0 0 0
0 0 0
0 0 0
0 0 0
0 0 0
0 0 0
0 0 0
0 0 0
0 0 0
0 0 0
0 0 0
0 0 0
0 0 0
0 0 0
0 0 0
0 0 0
0 0 0
0 0 0
0 0 0
0 0 0
0 0 0
0 0 0
0 0 0
0 0 0
0 0 0
0 0 0
0 0 0
0 0 0
0 0 0
0 0 0
0 0 0
0 0 0
0 0 0
0 0 0
0 0 0
0 0 0
0 0 0
0 0 0
0 0 0
0 0 0
0 0 0
0 0 0
0 0 0
0 0 0
0 0 0
0 0 0
0 0 0
0 0 0
0 0 0
0 0 0
0 0 0
0 0 0
0 0 0
0 0 0
0 0 0
0 0 0
0 0 0
0 0 0
0 0 0
0 0 0
0 0 0
0 0 0
0 0 0
0 0 0
0 0 0
0 0 0
0 0 0
0 0 0
0 0 0
0 0 0
0 0 0
0 0 0
0 0 0
0 0 0
0 0 0
0 0 0
0 0 0
0 0 0
0 0 0
0 0 0
0 0 0
0 0 0
0 0 0
0 0 0
0 0 0
0 0 0
0 0 0
0 0 0
0 0 0
0 0 0
0 0 0
0 0 0
0 0 0
0 0 0
0 0 0
0 0 0
0 0 0
0 0 0
0 0 0
0 0 0
0 0 0
0 0 0
0 0 0
0 0 0
0 0 0
0 0 0
0 0 0
0 0 0
0 0 0
0 0 0
0 0 0
0 0 0
0 0 0
0 0 0
0 0 0
0 0 0
0 0 0
0 0 0
0 0 0
0 0 0
0 0 0
0 0 0
0 0 0
0 0 0
0 0 0
0 0 0
0 0 0
0 0 0
0 0 0
0 0 0
0 0 0
0 0 0
0 0 0
0 0 0
0 0 0
0 0 0
0 0 0
0 0 0
0 0 0
0 0 0
0 0 0
0 0 0
0 0 0
0 0 0
0 0 0
0 0 0
0 0 0
0 0 0
0 0 0
0 0 0
0 0 0
0 0 0
0 0 0
0 0 0
0 0 0
0 0 0
0 0 0
0 0 0
0 0 0
0 0 0
0 0 0
0 0 0
0 0 0
0 0 0
0 0 0
0 0 0
0 0 0
0 0 0
0 0 0
0 0 0
0 0 0
0 0 0
0 0 0
0 0 0
0 0 0
0 0 0
0 0 0
0 0 0
0 0 0
0 0 0
0 0 0
0 0 0
0 0 0
0 0 0
0 0 0
0 0 0
0 0 0
0 0 0
0 0 0
0 0 0
0 0 0
0 0 0
0 0 0
0 0 0
0 0 0
0 0 0
0 0 0
0 0 0
0 0 0
0 0 0
0 0 0
0 0 0
0 0 0
0 0 0
0 0 0
0 0 0
0 0 0
0 0 0
0 0 0
0 0 0
0 0 0
0 0 0
0 0 0
0 0 0
0 0 0
0 0 0
0 0 0
0 0 0
0 0 0
0 0 0
0 0 0
0 0 0
0 0 0
0 0 0
0 0 0
0 0 0
0 0 0
0 0 0
0 0 0
0 0 0
0 0 0
0 0 0
0 0 0
0 0 0
0 0 0
0 0 0
0 0 0
0 0 0
0 0 0
0 0 0
0 0 0
0 0 0
0 0 0
0 0 0
0 0 0
0 0 0
0 0 0
0 0 0
0 0 0
0 0 0
0 0 0
0 0 0
0 0 0
0 0 0
0 0 0
0 0 0
0 0 0
0 0 0
0 0 0
0 0 0
0 0 0
0 0 0
0 0 0
0 0 0
0 0 0
0 0 0
0 0 0
0 0 0
0 0 0
0 0 0
0 0 0
0 0 0
0 0 0
0 0 0
0 0 0
0 0 0
0 0 0
0 0 0
0 0 0
0 0 0
0 0 0
0 0 0
0 0 0
0 0 0
0 0 0
0 0 0
0 0 0
0 0 0
0 0 0
0 0 0
0 0 0
0 0 0
0 0 0
0 0 0
0 0 0
0 0 0
0 0 0
0 0 0
0 0 0
0 0 0
0 0 0
0 0 0
0 0 0
0 0 0
0 0 0
0 0 0
0 0 0
0 0 0
0 0 0
0 0 0
0 0 0
0 0 0
0 0 0
0 0 0
0 0 0
0 0 0
0 0 0
0 0 0
0 0 0
0 0 0
0 0 0
0 0 0
0 0 0
0 0 0
0 0 0
0 0 0
0 0 0
0 0 0
0 0 0
0 0 0
0 0 0
0 0 0
0 0 0
0 0 0
0 0 0
0 0 0
0 0 0
0 0 0
0 0 0
0 0 0
0 0 0
0 0 0
0 0 0
0 0 0
0 0 0
0 0 0
0 0 0
0 0 0
0 0 0
0 0 0
0 0 0
0 0 0
0 0 0
255 255 255
255 255 255
255 255 255
255 255 255
255 255 255
255 255 255
255 255 255
255 255 255
255 255 255
255 255 255
255 255 255
255 255 255
255 255 255
255 255 255
255 255 255
255 255 255
255 255 255
255 255 255
255 255 255
255 255 255
255 255 255
255 255 255
255 255 255
255 255 255
255 255 255
255 255 255
255 255 255
255 255 255
0 0 0
0 0 0
0 0 0
0 0 0
0 0 0
0 0 0
0 0 0
0 0 0
0 0 0
0 0 0
0 0 0
0 0 0
0 0 0
0 0 0
0 0 0
0 0 0
0 0 0
0 0 0
0 0 0
0 0 0
0 0 0
0 0 0
0 0 0
0 0 0
0 0 0
0 0 0
0 0 0
0 0 0
0 0 0
0 0 0
0 0 0
0 0 0
0 0 0
0 0 0
0 0 0
0 0 0
0 0 0
0 0 0
0 0 0
0 0 0
0 0 0
0 0 0
0 0 0
0 0 0
0 0 0
0 0 0
0 0 0
0 0 0
0 0 0
0 0 0
0 0 0
0 0 0
0 0 0
0 0 0
0 0 0
0 0 0
0 0 0
0 0 0
0 0 0
0 0 0
0 0 0
0 0 0
0 0 0
0 0 0
0 0 0
0 0 0
0 0 0
0 0 0
0 0 0
0 0 0
0 0 0
0 0 0
0 0 0
0 0 0
0 0 0
0 0 0
0 0 0
0 0 0
0 0 0
0 0 0
0 0 0
0 0 0
0 0 0
0 0 0
0 0 0
0 0 0
0 0 0
0 0 0
0 0 0
0 0 0
0 0 0
0 0 0
0 0 0
0 0 0
0 0 0
0 0 0
0 0 0
0 0 0
0 0 0
0 0 0
0 0 0
0 0 0
0 0 0
0 0 0
0 0 0
0 0 0
0 0 0
0 0 0
0 0 0
0 0 0
0 0 0
0 0 0
0 0 0
0 0 0
0 0 0
0 0 0
0 0 0
0 0 0
0 0 0
0 0 0
0 0 0
0 0 0
0 0 0
0 0 0
0 0 0
0 0 0
0 0 0
0 0 0
0 0 0
0 0 0
0 0 0
0 0 0
0 0 0
0 0 0
0 0 0
0 0 0
0 0 0
0 0 0
0 0 0
0 0 0
0 0 0
0 0 0
0 0 0
0 0 0
0 0 0
0 0 0
0 0 0
0 0 0
0 0 0
0 0 0
0 0 0
0 0 0
0 0 0
0 0 0
0 0 0
0 0 0
0 0 0
0 0 0
0 0 0
0 0 0
0 0 0
0 0 0
0 0 0
0 0 0
0 0 0
0 0 0
0 0 0
0 0 0
0 0 0
0 0 0
0 0 0
0 0 0
0 0 0
0 0 0
0 0 0
0 0 0
0 0 0
0 0 0
0 0 0
0 0 0
0 0 0
0 0 0
0 0 0
0 0 0
0 0 0
0 0 0
0 0 0
0 0 0
0 0 0
0 0 0
0 0 0
0 0 0
0 0 0
0 0 0
0 0 0
0 0 0
0 0 0
0 0 0
0 0 0
0 0 0
0 0 0
0 0 0
0 0 0
0 0 0
0 0 0
0 0 0
0 0 0
0 0 0
0 0 0
0 0 0
0 0 0
0 0 0
0 0 0
0 0 0
0 0 0
0 0 0
0 0 0
0 0 0
0 0 0
0 0 0
0 0 0
0 0 0
0 0 0
0 0 0
0 0 0
0 0 0
0 0 0
0 0 0
0 0 0
0 0 0
0 0 0
0 0 0
0 0 0
0 0 0
0 0 0
0 0 0
0 0 0
0 0 0
0 0 0
0 0 0
0 0 0
0 0 0
0 0 0
0 0 0
0 0 0
0 0 0
0 0 0
0 0 0
0 0 0
0 0 0
0 0 0
0 0 0
0 0 0
0 0 0
0 0 0
0 0 0
0 0 0
0 0 0
0 0 0
0 0 0
0 0 0
0 0 0
0 0 0
0 0 0
0 0 0
0 0 0
0 0 0
0 0 0
0 0 0
0 0 0
0 0 0
0 0 0
0 0 0
0 0 0
0 0 0
0 0 0
0 0 0
0 0 0
0 0 0
0 0 0
0 0 0
0 0 0
0 0 0
0 0 0
0 0 0
0 0 0
0 0 0
0 0 0
0 0 0
0 0 0
0 0 0
0 0 0
0 0 0
0 0 0
0 0 0
0 0 0
0 0 0
0 0 0
0 0 0
0 0 0
0 0 0
0 0 0
0 0 0
0 0 0
0 0 0
0 0 0
0 0 0
0 0 0
0 0 0
0 0 0
0 0 0
0 0 0
0 0 0
0 0 0
0 0 0
0 0 0
0 0 0
0 0 0
0 0 0
0 0 0
0 0 0
0 0 0
0 0 0
0 0 0
0 0 0
0 0 0
0 0 0
0 0 0
0 0 0
0 0 0
0 0 0
0 0 0
0 0 0
0 0 0
0 0 0
0 0 0
0 0 0
0 0 0
0 0 0
0 0 0
0 0 0
0 0 0
0 0 0
0 0 0
0 0 0
0 0 0
0 0 0
0 0 0
0 0 0
0 0 0
0 0 0
0 0 0
0 0 0
0 0 0
0 0 0
0 0 0
0 0 0
0 0 0
0 0 0
0 0 0
0 0 0
0 0 0
0 0 0
0 0 0
0 0 0
0 0 0
0 0 0
0 0 0
0 0 0
0 0 0
255 255 255
255 255 255
255 255 255
255 255 255
255 255 255
255 255 255
255 255 255
255 255 255
255 255 255
255 255 255
255 255 255
255 255 255
255 255 255
255 255 255
255 255 255
255 255 255
255 255 255
255 255 255
255 255 255
255 255 255
255 255 255
255 255 255
255 255 255
255 255 255
255 255 255
255 255 255
255 255 255
255 255 255
255 255 255
255 255 255
255 255 255
255 255 255
0 0 0
0 0 0
0 0 0
0 0 0
0 0 0
0 0 0
0 0 0
0 0 0
0 0 0
0 0 0
0 0 0
0 0 0
0 0 0
0 0 0
0 0 0
0 0 0
0 0 0
0 0 0
0 0 0
0 0 0
0 0 0
0 0 0
0 0 0
0 0 0
0 0 0
0 0 0
0 0 0
0 0 0
0 0 0
0 0 0
0 0 0
0 0 0
0 0 0
0 0 0
0 0 0
0 0 0
0 0 0
0 0 0
0 0 0
0 0 0
0 0 0
0 0 0
0 0 0
0 0 0
0 0 0
0 0 0
0 0 0
0 0 0
0 0 0
0 0 0
0 0 0
0 0 0
0 0 0
0 0 0
0 0 0
0 0 0
0 0 0
0 0 0
0 0 0
0 0 0
0 0 0
0 0 0
0 0 0
0 0 0
0 0 0
0 0 0
0 0 0
0 0 0
0 0 0
0 0 0
0 0 0
0 0 0
0 0 0
0 0 0
0 0 0
0 0 0
0 0 0
0 0 0
0 0 0
0 0 0
0 0 0
0 0 0
0 0 0
0 0 0
0 0 0
0 0 0
0 0 0
0 0 0
0 0 0
0 0 0
0 0 0
0 0 0
0 0 0
0 0 0
0 0 0
0 0 0
0 0 0
0 0 0
0 0 0
0 0 0
0 0 0
0 0 0
0 0 0
0 0 0
0 0 0
0 0 0
0 0 0
0 0 0
0 0 0
0 0 0
0 0 0
0 0 0
0 0 0
0 0 0
0 0 0
0 0 0
0 0 0
0 0 0
0 0 0
0 0 0
0 0 0
0 0 0
0 0 0
0 0 0
0 0 0
0 0 0
0 0 0
0 0 0
0 0 0
0 0 0
0 0 0
0 0 0
0 0 0
0 0 0
0 0 0
0 0 0
0 0 0
0 0 0
0 0 0
0 0 0
0 0 0
0 0 0
0 0 0
0 0 0
0 0 0
0 0 0
0 0 0
0 0 0
0 0 0
0 0 0
0 0 0
0 0 0
0 0 0
0 0 0
0 0 0
0 0 0
0 0 0
0 0 0
0 0 0
0 0 0
0 0 0
0 0 0
0 0 0
0 0 0
0 0 0
0 0 0
0 0 0
0 0 0
0 0 0
0 0 0
0 0 0
0 0 0
0 0 0
0 0 0
0 0 0
0 0 0
0 0 0
0 0 0
0 0 0
0 0 0
0 0 0
0 0 0
0 0 0
0 0 0
0 0 0
0 0 0
0 0 0
0 0 0
0 0 0
0 0 0
0 0 0
0 0 0
0 0 0
0 0 0
0 0 0
0 0 0
0 0 0
0 0 0
0 0 0
0 0 0
0 0 0
0 0 0
0 0 0
0 0 0
0 0 0
0 0 0
0 0 0
0 0 0
0 0 0
0 0 0
0 0 0
0 0 0
0 0 0
0 0 0
0 0 0
0 0 0
0 0 0
0 0 0
0 0 0
0 0 0
0 0 0
0 0 0
0 0 0
0 0 0
0 0 0
0 0 0
0 0 0
0 0 0
0 0 0
0 0 0
0 0 0
0 0 0
0 0 0
0 0 0
0 0 0
0 0 0
0 0 0
0 0 0
0 0 0
0 0 0
0 0 0
0 0 0
0 0 0
0 0 0
0 0 0
0 0 0
0 0 0
0 0 0
0 0 0
0 0 0
0 0 0
0 0 0
0 0 0
0 0 0
0 0 0
0 0 0
0 0 0
0 0 0
0 0 0
0 0 0
0 0 0
0 0 0
0 0 0
0 0 0
0 0 0
0 0 0
0 0 0
0 0 0
0 0 0
0 0 0
0 0 0
0 0 0
0 0 0
0 0 0
0 0 0
0 0 0
0 0 0
0 0 0
0 0 0
0 0 0
0 0 0
0 0 0
0 0 0
0 0 0
0 0 0
0 0 0
0 0 0
0 0 0
0 0 0
0 0 0
0 0 0
0 0 0
0 0 0
0 0 0
0 0 0
0 0 0
0 0 0
0 0 0
0 0 0
0 0 0
0 0 0
0 0 0
0 0 0
0 0 0
0 0 0
0 0 0
0 0 0
0 0 0
0 0 0
0 0 0
0 0 0
0 0 0
0 0 0
0 0 0
0 0 0
0 0 0
0 0 0
0 0 0
0 0 0
0 0 0
0 0 0
0 0 0
0 0 0
0 0 0
0 0 0
0 0 0
0 0 0
0 0 0
0 0 0
0 0 0
0 0 0
0 0 0
0 0 0
0 0 0
0 0 0
0 0 0
0 0 0
0 0 0
0 0 0
0 0 0
0 0 0
0 0 0
0 0 0
0 0 0
0 0 0
0 0 0
0 0 0
0 0 0
0 0 0
0 0 0
0 0 0
0 0 0
0 0 0
0 0 0
0 0 0
0 0 0
0 0 0
0 0 0
0 0 0
0 0 0
0 0 0
0 0 0
0 0 0
0 0 0
0 0 0
0 0 0
72 72 72
255 255 255
255 255 255
255 255 255
255 255 255
255 255 255
255 255 255
255 255 255
255 255 255
255 255 255
255 255 255
255 255 255
255 255 255
255 255 255
255 255 255
255 255 255
255 255 255
255 255 255
255 255 255
255 255 255
255 255 255
255 255 255
255 255 255
255 255 255
255 255 255
255 255 255
255 255 255
255 255 255
255 255 255
255 255 255
255 255 255
255 255 255
255 255 255
255 255 255
255 255 255
76 76 76
0 0 0
0 0 0
0 0 0
0 0 0
0 0 0
0 0 0
0 0 0
0 0 0
0 0 0
0 0 0
0 0 0
0 0 0
0 0 0
0 0 0
0 0 0
0 0 0
0 0 0
0 0 0
0 0 0
0 0 0
0 0 0
0 0 0
0 0 0
0 0 0
0 0 0
0 0 0
0 0 0
0 0 0
0 0 0
0 0 0
0 0 0
0 0 0
0 0 0
0 0 0
0 0 0
0 0 0
0 0 0
0 0 0
0 0 0
0 0 0
0 0 0
0 0 0
0 0 0
0 0 0
0 0 0
0 0 0
0 0 0
0 0 0
0 0 0
0 0 0
0 0 0
0 0 0
0 0 0
0 0 0
0 0 0
0 0 0
0 0 0
0 0 0
0 0 0
0 0 0
0 0 0
0 0 0
0 0 0
0 0 0
0 0 0
0 0 0
0 0 0
0 0 0
0 0 0
0 0 0
0 0 0
0 0 0
0 0 0
0 0 0
0 0 0
0 0 0
0 0 0
0 0 0
0 0 0
0 0 0
0 0 0
0 0 0
0 0 0
0 0 0
0 0 0
0 0 0
0 0 0
0 0 0
0 0 0
0 0 0
0 0 0
0 0 0
0 0 0
0 0 0
0 0 0
0 0 0
0 0 0
0 0 0
0 0 0
0 0 0
0 0 0
0 0 0
0 0 0
0 0 0
0 0 0
0 0 0
0 0 0
0 0 0
0 0 0
0 0 0
0 0 0
0 0 0
0 0 0
0 0 0
0 0 0
0 0 0
0 0 0
0 0 0
0 0 0
0 0 0
0 0 0
0 0 0
0 0 0
0 0 0
0 0 0
0 0 0
0 0 0
0 0 0
0 0 0
0 0 0
0 0 0
0 0 0
0 0 0
0 0 0
0 0 0
0 0 0
0 0 0
0 0 0
0 0 0
0 0 0
0 0 0
0 0 0
0 0 0
0 0 0
0 0 0
0 0 0
0 0 0
0 0 0
0 0 0
0 0 0
0 0 0
0 0 0
0 0 0
0 0 0
0 0 0
0 0 0
0 0 0
0 0 0
0 0 0
0 0 0
0 0 0
0 0 0
0 0 0
0 0 0
0 0 0
0 0 0
0 0 0
0 0 0
0 0 0
0 0 0
0 0 0
0 0 0
0 0 0
0 0 0
0 0 0
0 0 0
0 0 0
0 0 0
0 0 0
0 0 0
0 0 0
0 0 0
0 0 0
0 0 0
0 0 0
0 0 0
0 0 0
0 0 0
0 0 0
0 0 0
0 0 0
0 0 0
0 0 0
0 0 0
0 0 0
0 0 0
0 0 0
0 0 0
0 0 0
0 0 0
0 0 0
0 0 0
0 0 0
0 0 0
0 0 0
0 0 0
0 0 0
0 0 0
0 0 0
0 0 0
0 0 0
0 0 0
0 0 0
0 0 0
0 0 0
0 0 0
0 0 0
0 0 0
0 0 0
0 0 0
0 0 0
0 0 0
0 0 0
0 0 0
0 0 0
0 0 0
0 0 0
0 0 0
0 0 0
0 0 0
0 0 0
0 0 0
0 0 0
0 0 0
0 0 0
0 0 0
0 0 0
0 0 0
0 0 0
0 0 0
0 0 0
0 0 0
0 0 0
0 0 0
0 0 0
0 0 0
0 0 0
0 0 0
0 0 0
0 0 0
0 0 0
0 0 0
0 0 0
0 0 0
0 0 0
0 0 0
0 0 0
0 0 0
0 0 0
0 0 0
0 0 0
0 0 0
0 0 0
0 0 0
0 0 0
0 0 0
0 0 0
0 0 0
0 0 0
0 0 0
0 0 0
0 0 0
0 0 0
0 0 0
0 0 0
0 0 0
0 0 0
0 0 0
0 0 0
0 0 0
0 0 0
0 0 0
0 0 0
0 0 0
0 0 0
0 0 0
0 0 0
0 0 0
0 0 0
0 0 0
0 0 0
0 0 0
0 0 0
0 0 0
0 0 0
0 0 0
0 0 0
0 0 0
0 0 0
0 0 0
0 0 0
0 0 0
0 0 0
0 0 0
0 0 0
0 0 0
0 0 0
0 0 0
0 0 0
0 0 0
0 0 0
0 0 0
0 0 0
0 0 0
0 0 0
0 0 0
0 0 0
0 0 0
0 0 0
0 0 0
0 0 0
0 0 0
0 0 0
0 0 0
0 0 0
0 0 0
0 0 0
0 0 0
0 0 0
0 0 0
0 0 0
0 0 0
0 0 0
0 0 0
0 0 0
0 0 0
0 0 0
0 0 0
0 0 0
0 0 0
0 0 0
0 0 0
0 0 0
0 0 0
0 0 0
0 0 0
0 0 0
0 0 0
0 0 0
0 0 0
0 0 0
0 0 0
0 0 0
0 0 0
0 0 0
0 0 0
0 0 0
0 0 0
0 0 0
0 0 0
0 0 0
0 0 0
0 0 0
255 255 255
255 255 255
255 255 255
255 255 255
255 255 255
255 255 255
255 255 255
255 255 255
255 255 255
255 255 255
255 255 255
255 255 255
255 255 255
255 255 255
255 255 255
255 255 255
255 255 255
255 255 255
255 255 255
255 255 255
255 255 255
255 255 255
255 255 255
255 255 255
255 255 255
255 255 255
255 255 255
255 255 255
255 255 255
255 255 255
255 255 255
255 255 255
255 255 255
255 255 255
255 255 255
255 255 255
255 255 255
255 255 255
0 0 0
0 0 0
0 0 0
0 0 0
0 0 0
0 0 0
0 0 0
0 0 0
0 0 0
0 0 0
0 0 0
0 0 0
0 0 0
0 0 0
0 0 0
0 0 0
0 0 0
0 0 0
0 0 0
0 0 0
0 0 0
0 0 0
0 0 0
0 0 0
0 0 0
0 0 0
0 0 0
0 0 0
0 0 0
0 0 0
0 0 0
0 0 0
0 0 0
0 0 0
0 0 0
0 0 0
0 0 0
0 0 0
0 0 0
0 0 0
0 0 0
0 0 0
0 0 0
0 0 0
0 0 0
0 0 0
0 0 0
0 0 0
0 0 0
0 0 0
0 0 0
0 0 0
0 0 0
0 0 0
0 0 0
0 0 0
0 0 0
0 0 0
0 0 0
0 0 0
0 0 0
0 0 0
0 0 0
0 0 0
0 0 0
0 0 0
0 0 0
0 0 0
0 0 0
0 0 0
0 0 0
0 0 0
0 0 0
0 0 0
0 0 0
0 0 0
0 0 0
0 0 0
0 0 0
0 0 0
0 0 0
0 0 0
0 0 0
0 0 0
0 0 0
0 0 0
0 0 0
0 0 0
0 0 0
0 0 0
0 0 0
0 0 0
0 0 0
0 0 0
0 0 0
0 0 0
0 0 0
0 0 0
0 0 0
0 0 0
0 0 0
0 0 0
0 0 0
0 0 0
0 0 0
0 0 0
0 0 0
0 0 0
0 0 0
0 0 0
0 0 0
0 0 0
0 0 0
0 0 0
0 0 0
0 0 0
0 0 0
0 0 0
0 0 0
0 0 0
0 0 0
0 0 0
0 0 0
0 0 0
0 0 0
0 0 0
0 0 0
0 0 0
0 0 0
0 0 0
0 0 0
0 0 0
0 0 0
0 0 0
0 0 0
0 0 0
0 0 0
0 0 0
0 0 0
0 0 0
0 0 0
0 0 0
0 0 0
0 0 0
0 0 0
0 0 0
0 0 0
0 0 0
0 0 0
0 0 0
0 0 0
0 0 0
0 0 0
0 0 0
0 0 0
0 0 0
0 0 0
0 0 0
0 0 0
0 0 0
0 0 0
0 0 0
0 0 0
0 0 0
0 0 0
0 0 0
0 0 0
0 0 0
0 0 0
0 0 0
0 0 0
0 0 0
0 0 0
0 0 0
0 0 0
0 0 0
0 0 0
0 0 0
0 0 0
0 0 0
0 0 0
0 0 0
0 0 0
0 0 0
0 0 0
0 0 0
0 0 0
0 0 0
0 0 0
0 0 0
0 0 0
0 0 0
0 0 0
0 0 0
0 0 0
0 0 0
0 0 0
0 0 0
0 0 0
0 0 0
0 0 0
0 0 0
0 0 0
0 0 0
0 0 0
0 0 0
0 0 0
0 0 0
0 0 0
0 0 0
0 0 0
0 0 0
0 0 0
0 0 0
0 0 0
0 0 0
0 0 0
0 0 0
0 0 0
0 0 0
0 0 0
0 0 0
0 0 0
0 0 0
0 0 0
0 0 0
0 0 0
0 0 0
0 0 0
0 0 0
0 0 0
0 0 0
0 0 0
0 0 0
0 0 0
0 0 0
0 0 0
0 0 0
0 0 0
0 0 0
0 0 0
0 0 0
0 0 0
0 0 0
0 0 0
0 0 0
0 0 0
0 0 0
0 0 0
0 0 0
0 0 0
0 0 0
0 0 0
0 0 0
0 0 0
0 0 0
0 0 0
0 0 0
0 0 0
0 0 0
0 0 0
0 0 0
0 0 0
0 0 0
0 0 0
0 0 0
0 0 0
0 0 0
0 0 0
0 0 0
0 0 0
0 0 0
0 0 0
0 0 0
0 0 0
0 0 0
0 0 0
0 0 0
0 0 0
0 0 0
0 0 0
0 0 0
0 0 0
0 0 0
0 0 0
0 0 0
0 0 0
0 0 0
0 0 0
0 0 0
0 0 0
0 0 0
0 0 0
0 0 0
0 0 0
0 0 0
0 0 0
0 0 0
0 0 0
0 0 0
0 0 0
0 0 0
0 0 0
0 0 0
0 0 0
0 0 0
0 0 0
0 0 0
0 0 0
0 0 0
0 0 0
0 0 0
0 0 0
0 0 0
0 0 0
0 0 0
0 0 0
0 0 0
0 0 0
0 0 0
0 0 0
0 0 0
0 0 0
0 0 0
0 0 0
0 0 0
0 0 0
0 0 0
0 0 0
0 0 0
0 0 0
0 0 0
0 0 0
0 0 0
0 0 0
0 0 0
0 0 0
0 0 0
0 0 0
0 0 0
0 0 0
0 0 0
0 0 0
0 0 0
0 0 0
0 0 0
0 0 0
0 0 0
0 0 0
0 0 0
0 0 0
0 0 0
0 0 0
0 0 0
0 0 0
0 0 0
0 0 0
0 0 0
0 0 0
0 0 0
0 0 0
255 255 255
255 255 255
255 255 255
255 255 255
255 255 255
255 255 255
255 255 255
255 255 255
255 255 255
255 255 255
255 255 255
255 255 255
255 255 255
255 255 255
255 255 255
255 255 255
255 255 255
255 255 255
255 255 255
255 255 255
255 255 255
255 255 255
255 255 255
255 255 255
255 255 255
255 255 255
255 255 255
255 255 255
255 255 255
255 255 255
255 255 255
255 255 255
255 255 255
255 255 255
255 255 255
255 255 255
255 255 255
255 255 255
255 255 255
255 255 255
0 0 0
0 0 0
0 0 0
0 0 0
0 0 0
0 0 0
0 0 0
0 0 0
0 0 0
0 0 0
0 0 0
0 0 0
0 0 0
0 0 0
0 0 0
0 0 0
0 0 0
0 0 0
0 0 0
0 0 0
0 0 0
0 0 0
0 0 0
0 0 0
0 0 0
0 0 0
0 0 0
0 0 0
0 0 0
0 0 0
0 0 0
0 0 0
0 0 0
0 0 0
0 0 0
0 0 0
0 0 0
0 0 0
0 0 0
0 0 0
0 0 0
0 0 0
0 0 0
0 0 0
0 0 0
0 0 0
0 0 0
0 0 0
0 0 0
0 0 0
0 0 0
0 0 0
0 0 0
0 0 0
0 0 0
0 0 0
0 0 0
0 0 0
0 0 0
0 0 0
0 0 0
0 0 0
0 0 0
0 0 0
0 0 0
0 0 0
0 0 0
0 0 0
0 0 0
0 0 0
0 0 0
0 0 0
0 0 0
0 0 0
0 0 0
0 0 0
0 0 0
0 0 0
0 0 0
0 0 0
0 0 0
0 0 0
0 0 0
0 0 0
0 0 0
0 0 0
0 0 0
0 0 0
0 0 0
0 0 0
0 0 0
0 0 0
0 0 0
0 0 0
0 0 0
0 0 0
0 0 0
0 0 0
0 0 0
0 0 0
0 0 0
0 0 0
0 0 0
0 0 0
0 0 0
0 0 0
0 0 0
0 0 0
0 0 0
0 0 0
0 0 0
0 0 0
0 0 0
0 0 0
0 0 0
0 0 0
0 0 0
0 0 0
0 0 0
0 0 0
0 0 0
0 0 0
0 0 0
0 0 0
0 0 0
0 0 0
0 0 0
0 0 0
0 0 0
0 0 0
0 0 0
0 0 0
0 0 0
0 0 0
0 0 0
0 0 0
0 0 0
0 0 0
0 0 0
0 0 0
0 0 0
0 0 0
0 0 0
0 0 0
0 0 0
0 0 0
0 0 0
0 0 0
0 0 0
0 0 0
0 0 0
0 0 0
0 0 0
0 0 0
0 0 0
0 0 0
0 0 0
0 0 0
0 0 0
0 0 0
0 0 0
0 0 0
0 0 0
0 0 0
0 0 0
0 0 0
0 0 0
0 0 0
0 0 0
0 0 0
0 0 0
0 0 0
0 0 0
0 0 0
0 0 0
0 0 0
0 0 0
0 0 0
0 0 0
0 0 0
0 0 0
0 0 0
0 0 0
0 0 0
0 0 0
0 0 0
0 0 0
0 0 0
0 0 0
0 0 0
0 0 0
0 0 0
0 0 0
0 0 0
0 0 0
0 0 0
0 0 0
0 0 0
0 0 0
0 0 0
0 0 0
0 0 0
0 0 0
0 0 0
0 0 0
0 0 0
0 0 0
0 0 0
0 0 0
0 0 0
0 0 0
0 0 0
0 0 0
0 0 0
0 0 0
0 0 0
0 0 0
0 0 0
0 0 0
0 0 0
0 0 0
0 0 0
0 0 0
0 0 0
0 0 0
0 0 0
0 0 0
0 0 0
0 0 0
0 0 0
0 0 0
0 0 0
0 0 0
0 0 0
0 0 0
0 0 0
0 0 0
0 0 0
0 0 0
0 0 0
0 0 0
0 0 0
0 0 0
0 0 0
0 0 0
0 0 0
0 0 0
0 0 0
0 0 0
0 0 0
0 0 0
0 0 0
0 0 0
0 0 0
0 0 0
0 0 0
0 0 0
0 0 0
0 0 0
0 0 0
0 0 0
0 0 0
0 0 0
0 0 0
0 0 0
0 0 0
0 0 0
0 0 0
0 0 0
0 0 0
0 0 0
0 0 0
0 0 0
0 0 0
0 0 0
0 0 0
0 0 0
0 0 0
0 0 0
0 0 0
0 0 0
0 0 0
0 0 0
0 0 0
0 0 0
0 0 0
0 0 0
0 0 0
0 0 0
0 0 0
0 0 0
0 0 0
0 0 0
0 0 0
0 0 0
0 0 0
0 0 0
0 0 0
0 0 0
0 0 0
0 0 0
0 0 0
0 0 0
0 0 0
0 0 0
0 0 0
0 0 0
0 0 0
0 0 0
0 0 0
0 0 0
0 0 0
0 0 0
0 0 0
0 0 0
0 0 0
0 0 0
0 0 0
0 0 0
0 0 0
0 0 0
0 0 0
0 0 0
0 0 0
0 0 0
0 0 0
0 0 0
0 0 0
0 0 0
0 0 0
0 0 0
0 0 0
0 0 0
0 0 0
0 0 0
0 0 0
0 0 0
0 0 0
0 0 0
0 0 0
0 0 0
0 0 0
0 0 0
0 0 0
0 0 0
0 0 0
0 0 0
0 0 0
0 0 0
0 0 0
0 0 0
0 0 0
0 0 0
0 0 0
0 0 0
0 0 0
0 0 0
0 0 0
0 0 0
255 255 255
255 255 255
255 255 255
255 255 255
255 255 255
255 255 255
255 255 255
255 255 255
255 255 255
255 255 255
255 255 255
255 255 255
255 255 255
255 255 255
255 255 255
255 255 255
255 255 255
255 255 255
255 255 255
255 255 255
255 255 255
255 255 255
255 255 255
255 255 255
255 255 255
255 255 255
255 255 255
255 255 255
255 255 255
255 255 255
255 255 255
255 255 255
255 255 255
255 255 255
255 255 255
255 255 255
255 255 255
255 255 255
255 255 255
255 255 255
255 255 255
255 255 255
0 0 0
0 0 0
0 0 0
0 0 0
0 0 0
0 0 0
0 0 0
0 0 0
0 0 0
0 0 0
0 0 0
0 0 0
0 0 0
0 0 0
0 0 0
0 0 0
0 0 0
0 0 0
0 0 0
0 0 0
0 0 0
0 0 0
0 0 0
0 0 0
0 0 0
0 0 0
0 0 0
0 0 0
0 0 0
0 0 0
0 0 0
0 0 0
0 0 0
0 0 0
0 0 0
0 0 0
0 0 0
0 0 0
0 0 0
0 0 0
0 0 0
0 0 0
0 0 0
0 0 0
0 0 0
0 0 0
0 0 0
0 0 0
0 0 0
0 0 0
0 0 0
0 0 0
0 0 0
0 0 0
0 0 0
0 0 0
0 0 0
0 0 0
0 0 0
0 0 0
0 0 0
0 0 0
0 0 0
0 0 0
0 0 0
0 0 0
0 0 0
0 0 0
0 0 0
0 0 0
0 0 0
0 0 0
0 0 0
0 0 0
0 0 0
0 0 0
0 0 0
0 0 0
0 0 0
0 0 0
0 0 0
0 0 0
0 0 0
0 0 0
0 0 0
0 0 0
0 0 0
0 0 0
0 0 0
0 0 0
0 0 0
0 0 0
0 0 0
0 0 0
0 0 0
0 0 0
0 0 0
0 0 0
0 0 0
0 0 0
0 0 0
0 0 0
0 0 0
0 0 0
0 0 0
0 0 0
0 0 0
0 0 0
0 0 0
0 0 0
0 0 0
0 0 0
0 0 0
0 0 0
0 0 0
0 0 0
0 0 0
0 0 0
0 0 0
0 0 0
0 0 0
0 0 0
0 0 0
0 0 0
0 0 0
0 0 0
0 0 0
0 0 0
0 0 0
0 0 0
0 0 0
0 0 0
0 0 0
0 0 0
0 0 0
0 0 0
0 0 0
0 0 0
0 0 0
0 0 0
0 0 0
0 0 0
0 0 0
0 0 0
0 0 0
0 0 0
0 0 0
0 0 0
0 0 0
0 0 0
0 0 0
0 0 0
0 0 0
0 0 0
0 0 0
0 0 0
0 0 0
0 0 0
0 0 0
0 0 0
0 0 0
0 0 0
0 0 0
0 0 0
0 0 0
0 0 0
0 0 0
0 0 0
0 0 0
0 0 0
0 0 0
0 0 0
0 0 0
0 0 0
0 0 0
0 0 0
0 0 0
0 0 0
0 0 0
0 0 0
0 0 0
0 0 0
0 0 0
0 0 0
0 0 0
0 0 0
0 0 0
0 0 0
0 0 0
0 0 0
0 0 0
0 0 0
0 0 0
0 0 0
0 0 0
0 0 0
0 0 0
0 0 0
0 0 0
0 0 0
0 0 0
0 0 0
0 0 0
0 0 0
0 0 0
0 0 0
0 0 0
0 0 0
0 0 0
0 0 0
0 0 0
0 0 0
0 0 0
0 0 0
0 0 0
0 0 0
0 0 0
0 0 0
0 0 0
0 0 0
0 0 0
0 0 0
0 0 0
0 0 0
0 0 0
0 0 0
0 0 0
0 0 0
0 0 0
0 0 0
0 0 0
0 0 0
0 0 0
0 0 0
0 0 0
0 0 0
0 0 0
0 0 0
0 0 0
0 0 0
0 0 0
0 0 0
0 0 0
0 0 0
0 0 0
0 0 0
0 0 0
0 0 0
0 0 0
0 0 0
0 0 0
0 0 0
0 0 0
0 0 0
0 0 0
0 0 0
0 0 0
0 0 0
0 0 0
0 0 0
0 0 0
0 0 0
0 0 0
0 0 0
0 0 0
0 0 0
0 0 0
0 0 0
0 0 0
0 0 0
0 0 0
0 0 0
0 0 0
0 0 0
0 0 0
0 0 0
0 0 0
0 0 0
0 0 0
0 0 0
0 0 0
0 0 0
0 0 0
0 0 0
0 0 0
0 0 0
0 0 0
0 0 0
0 0 0
0 0 0
0 0 0
0 0 0
0 0 0
0 0 0
0 0 0
0 0 0
0 0 0
0 0 0
0 0 0
0 0 0
0 0 0
0 0 0
0 0 0
0 0 0
0 0 0
0 0 0
0 0 0
0 0 0
0 0 0
0 0 0
0 0 0
0 0 0
0 0 0
0 0 0
0 0 0
0 0 0
0 0 0
0 0 0
0 0 0
0 0 0
0 0 0
0 0 0
0 0 0
0 0 0
0 0 0
0 0 0
0 0 0
0 0 0
0 0 0
0 0 0
0 0 0
0 0 0
0 0 0
0 0 0
0 0 0
0 0 0
0 0 0
0 0 0
0 0 0
0 0 0
0 0 0
0 0 0
0 0 0
0 0 0
0 0 0
0 0 0
0 0 0
0 0 0
0 0 0
0 0 0
0 0 0
0 0 0
0 0 0
0 0 0
0 0 0
0 0 0
0 0 0
255 255 255
255 255 255
255 255 255
255 255 255
255 255 255
255 255 255
255 255 255
255 255 255
255 255 255
255 255 255
255 255 255
255 255 255
255 255 255
255 255 255
255 255 255
255 255 255
255 255 255
255 255 255
255 255 255
255 255 255
255 255 255
255 255 255
255 255 255
255 255 255
255 255 255
255 255 255
255 255 255
255 255 255
255 255 255
255 255 255
255 255 255
255 255 255
255 255 255
255 255 255
255 255 255
255 255 255
255 255 255
255 255 255
255 255 255
255 255 255
255 255 255
255 255 255
255 255 255
255 255 255
0 0 0
0 0 0
0 0 0
0 0 0
0 0 0
0 0 0
0 0 0
0 0 0
0 0 0
0 0 0
0 0 0
0 0 0
0 0 0
0 0 0
0 0 0
0 0 0
0 0 0
0 0 0
0 0 0
0 0 0
0 0 0
0 0 0
0 0 0
0 0 0
0 0 0
0 0 0
0 0 0
0 0 0
0 0 0
0 0 0
0 0 0
0 0 0
0 0 0
0 0 0
0 0 0
0 0 0
0 0 0
0 0 0
0 0 0
0 0 0
0 0 0
0 0 0
0 0 0
0 0 0
0 0 0
0 0 0
0 0 0
0 0 0
0 0 0
0 0 0
0 0 0
0 0 0
0 0 0
0 0 0
0 0 0
0 0 0
0 0 0
0 0 0
0 0 0
0 0 0
0 0 0
0 0 0
0 0 0
0 0 0
0 0 0
0 0 0
0 0 0
0 0 0
0 0 0
0 0 0
0 0 0
0 0 0
0 0 0
0 0 0
0 0 0
0 0 0
0 0 0
0 0 0
0 0 0
0 0 0
0 0 0
0 0 0
0 0 0
0 0 0
0 0 0
0 0 0
0 0 0
0 0 0
0 0 0
0 0 0
0 0 0
0 0 0
0 0 0
0 0 0
0 0 0
0 0 0
0 0 0
0 0 0
0 0 0
0 0 0
0 0 0
0 0 0
0 0 0
0 0 0
0 0 0
0 0 0
0 0 0
0 0 0
0 0 0
0 0 0
0 0 0
0 0 0
0 0 0
0 0 0
0 0 0
0 0 0
0 0 0
0 0 0
0 0 0
0 0 0
0 0 0
0 0 0
0 0 0
0 0 0
0 0 0
0 0 0
0 0 0
0 0 0
0 0 0
0 0 0
0 0 0
0 0 0
0 0 0
0 0 0
0 0 0
0 0 0
0 0 0
0 0 0
0 0 0
0 0 0
0 0 0
0 0 0
0 0 0
0 0 0
0 0 0
0 0 0
0 0 0
0 0 0
0 0 0
0 0 0
0 0 0
0 0 0
0 0 0
0 0 0
0 0 0
0 0 0
0 0 0
0 0 0
0 0 0
0 0 0
0 0 0
0 0 0
0 0 0
0 0 0
0 0 0
0 0 0
0 0 0
0 0 0
0 0 0
0 0 0
0 0 0
0 0 0
0 0 0
0 0 0
0 0 0
0 0 0
0 0 0
0 0 0
0 0 0
0 0 0
0 0 0
0 0 0
0 0 0
0 0 0
0 0 0
0 0 0
0 0 0
0 0 0
0 0 0
0 0 0
0 0 0
0 0 0
0 0 0
0 0 0
0 0 0
0 0 0
0 0 0
0 0 0
0 0 0
0 0 0
0 0 0
0 0 0
0 0 0
0 0 0
0 0 0
0 0 0
0 0 0
0 0 0
0 0 0
0 0 0
0 0 0
0 0 0
0 0 0
0 0 0
0 0 0
0 0 0
0 0 0
0 0 0
0 0 0
0 0 0
0 0 0
0 0 0
0 0 0
0 0 0
0 0 0
0 0 0
0 0 0
0 0 0
0 0 0
0 0 0
0 0 0
0 0 0
0 0 0
0 0 0
0 0 0
0 0 0
0 0 0
0 0 0
0 0 0
0 0 0
0 0 0
0 0 0
0 0 0
0 0 0
0 0 0
0 0 0
0 0 0
0 0 0
0 0 0
0 0 0
0 0 0
0 0 0
0 0 0
0 0 0
0 0 0
0 0 0
0 0 0
0 0 0
0 0 0
0 0 0
0 0 0
0 0 0
0 0 0
0 0 0
0 0 0
0 0 0
0 0 0
0 0 0
0 0 0
0 0 0
0 0 0
0 0 0
0 0 0
0 0 0
0 0 0
0 0 0
0 0 0
0 0 0
0 0 0
0 0 0
0 0 0
0 0 0
0 0 0
0 0 0
0 0 0
0 0 0
0 0 0
0 0 0
0 0 0
0 0 0
0 0 0
0 0 0
0 0 0
0 0 0
0 0 0
0 0 0
0 0 0
0 0 0
0 0 0
0 0 0
0 0 0
0 0 0
0 0 0
0 0 0
0 0 0
0 0 0
0 0 0
0 0 0
0 0 0
0 0 0
0 0 0
0 0 0
0 0 0
0 0 0
0 0 0
0 0 0
0 0 0
0 0 0
0 0 0
0 0 0
0 0 0
0 0 0
0 0 0
0 0 0
0 0 0
0 0 0
0 0 0
0 0 0
0 0 0
0 0 0
0 0 0
0 0 0
0 0 0
0 0 0
0 0 0
0 0 0
0 0 0
0 0 0
0 0 0
0 0 0
0 0 0
0 0 0
0 0 0
0 0 0
0 0 0
0 0 0
0 0 0
0 0 0
0 0 0
0 0 0
0 0 0
0 0 0
0 0 0
0 0 0
0 0 0
255 255 255
255 255 255
255 255 255
255 255 255
255 255 255
255 255 255
255 255 255
255 255 255
255 255 255
255 255 255
255 255 255
255 255 255
255 255 255
255 255 255
255 255 255
255 255 255
255 255 255
255 255 255
255 255 255
255 255 255
255 255 255
255 255 255
255 255 255
255 255 255
255 255 255
255 255 255
255 255 255
255 255 255
255 255 255
255 255 255
255 255 255
255 255 255
255 255 255
255 255 255
255 255 255
255 255 255
255 255 255
255 255 255
255 255 255
255 255 255
255 255 255
255 255 255
255 255 255
255 255 255
255 255 255
255 255 255
0 0 0
0 0 0
0 0 0
0 0 0
0 0 0
0 0 0
0 0 0
0 0 0
0 0 0
0 0 0
0 0 0
0 0 0
0 0 0
0 0 0
0 0 0
0 0 0
0 0 0
0 0 0
0 0 0
0 0 0
0 0 0
0 0 0
0 0 0
0 0 0
0 0 0
0 0 0
0 0 0
0 0 0
0 0 0
0 0 0
0 0 0
0 0 0
0 0 0
0 0 0
0 0 0
0 0 0
0 0 0
0 0 0
0 0 0
0 0 0
0 0 0
0 0 0
0 0 0
0 0 0
0 0 0
0 0 0
0 0 0
0 0 0
0 0 0
0 0 0
0 0 0
0 0 0
0 0 0
0 0 0
0 0 0
0 0 0
0 0 0
0 0 0
0 0 0
0 0 0
0 0 0
0 0 0
0 0 0
0 0 0
0 0 0
0 0 0
0 0 0
0 0 0
0 0 0
0 0 0
0 0 0
0 0 0
0 0 0
0 0 0
0 0 0
0 0 0
0 0 0
0 0 0
0 0 0
0 0 0
0 0 0
0 0 0
0 0 0
0 0 0
0 0 0
0 0 0
0 0 0
0 0 0
0 0 0
0 0 0
0 0 0
0 0 0
0 0 0
0 0 0
0 0 0
0 0 0
0 0 0
0 0 0
0 0 0
0 0 0
0 0 0
0 0 0
0 0 0
0 0 0
0 0 0
0 0 0
0 0 0
0 0 0
0 0 0
0 0 0
0 0 0
0 0 0
0 0 0
0 0 0
0 0 0
0 0 0
0 0 0
0 0 0
0 0 0
0 0 0
0 0 0
0 0 0
0 0 0
0 0 0
0 0 0
0 0 0
0 0 0
0 0 0
0 0 0
0 0 0
0 0 0
0 0 0
0 0 0
0 0 0
0 0 0
0 0 0
0 0 0
0 0 0
0 0 0
0 0 0
0 0 0
0 0 0
0 0 0
0 0 0
0 0 0
0 0 0
0 0 0
0 0 0
0 0 0
0 0 0
0 0 0
0 0 0
0 0 0
0 0 0
0 0 0
0 0 0
0 0 0
0 0 0
0 0 0
0 0 0
0 0 0
0 0 0
0 0 0
0 0 0
0 0 0
0 0 0
0 0 0
0 0 0
0 0 0
0 0 0
0 0 0
0 0 0
0 0 0
0 0 0
0 0 0
0 0 0
0 0 0
0 0 0
0 0 0
0 0 0
0 0 0
0 0 0
0 0 0
0 0 0
0 0 0
0 0 0
0 0 0
0 0 0
0 0 0
0 0 0
0 0 0
0 0 0
0 0 0
0 0 0
0 0 0
0 0 0
0 0 0
0 0 0
0 0 0
0 0 0
0 0 0
0 0 0
0 0 0
0 0 0
0 0 0
0 0 0
0 0 0
0 0 0
0 0 0
0 0 0
0 0 0
0 0 0
0 0 0
0 0 0
0 0 0
0 0 0
0 0 0
0 0 0
0 0 0
0 0 0
0 0 0
0 0 0
0 0 0
0 0 0
0 0 0
0 0 0
0 0 0
0 0 0
0 0 0
0 0 0
0 0 0
0 0 0
0 0 0
0 0 0
0 0 0
0 0 0
0 0 0
0 0 0
0 0 0
0 0 0
0 0 0
0 0 0
0 0 0
0 0 0
0 0 0
0 0 0
0 0 0
0 0 0
0 0 0
0 0 0
0 0 0
0 0 0
0 0 0
0 0 0
0 0 0
0 0 0
0 0 0
0 0 0
0 0 0
0 0 0
0 0 0
0 0 0
0 0 0
0 0 0
0 0 0
0 0 0
0 0 0
0 0 0
0 0 0
0 0 0
0 0 0
0 0 0
0 0 0
0 0 0
0 0 0
0 0 0
0 0 0
0 0 0
0 0 0
0 0 0
0 0 0
0 0 0
0 0 0
0 0 0
0 0 0
0 0 0
0 0 0
0 0 0
0 0 0
0 0 0
0 0 0
0 0 0
0 0 0
0 0 0
0 0 0
0 0 0
0 0 0
0 0 0
0 0 0
0 0 0
0 0 0
0 0 0
0 0 0
0 0 0
0 0 0
0 0 0
0 0 0
0 0 0
0 0 0
0 0 0
0 0 0
0 0 0
0 0 0
0 0 0
0 0 0
0 0 0
0 0 0
0 0 0
0 0 0
0 0 0
0 0 0
0 0 0
0 0 0
0 0 0
0 0 0
0 0 0
0 0 0
0 0 0
0 0 0
0 0 0
0 0 0
0 0 0
0 0 0
0 0 0
0 0 0
0 0 0
0 0 0
0 0 0
0 0 0
0 0 0
0 0 0
0 0 0
0 0 0
0 0 0
0 0 0
0 0 0
0 0 0
0 0 0
0 0 0
0 0 0
0 0 0
0 0 0
0 0 0
255 255 255
255 255 255
255 255 255
255 255 255
255 255 255
255 255 255
255 255 255
255 255 255
255 255 255
255 255 255
255 255 255
255 255 255
255 255 255
255 255 255
255 255 255
255 255 255
255 255 255
255 255 255
255 255 255
255 255 255
255 255 255
255 255 255
255 255 255
255 255 255
255 255 255
255 255 255
255 255 255
255 255 255
255 255 255
255 255 255
255 255 255
255 255 255
255 255 255
255 255 255
255 255 255
255 255 255
255 255 255
255 255 255
255 255 255
255 255 255
255 255 255
255 255 255
255 255 255
255 255 255
255 255 255
255 255 255
255 255 255
255 255 255
0 0 0
0 0 0
0 0 0
0 0 0
0 0 0
0 0 0
0 0 0
0 0 0
0 0 0
0 0 0
0 0 0
0 0 0
0 0 0
0 0 0
0 0 0
0 0 0
0 0 0
0 0 0
0 0 0
0 0 0
0 0 0
0 0 0
0 0 0
0 0 0
0 0 0
0 0 0
0 0 0
0 0 0
0 0 0
0 0 0
0 0 0
0 0 0
0 0 0
0 0 0
0 0 0
0 0 0
0 0 0
0 0 0
0 0 0
0 0 0
0 0 0
0 0 0
0 0 0
0 0 0
0 0 0
0 0 0
0 0 0
0 0 0
0 0 0
0 0 0
0 0 0
0 0 0
0 0 0
0 0 0
0 0 0
0 0 0
0 0 0
0 0 0
0 0 0
0 0 0
0 0 0
0 0 0
0 0 0
0 0 0
0 0 0
0 0 0
0 0 0
0 0 0
0 0 0
0 0 0
0 0 0
0 0 0
0 0 0
0 0 0
0 0 0
0 0 0
0 0 0
0 0 0
0 0 0
0 0 0
0 0 0
0 0 0
0 0 0
0 0 0
0 0 0
0 0 0
0 0 0
0 0 0
0 0 0
0 0 0
0 0 0
0 0 0
0 0 0
0 0 0
0 0 0
0 0 0
0 0 0
0 0 0
0 0 0
0 0 0
0 0 0
0 0 0
0 0 0
0 0 0
0 0 0
0 0 0
0 0 0
0 0 0
0 0 0
0 0 0
0 0 0
0 0 0
0 0 0
0 0 0
0 0 0
0 0 0
0 0 0
0 0 0
0 0 0
0 0 0
0 0 0
0 0 0
0 0 0
0 0 0
0 0 0
0 0 0
0 0 0
0 0 0
0 0 0
0 0 0
0 0 0
0 0 0
0 0 0
0 0 0
0 0 0
0 0 0
0 0 0
0 0 0
0 0 0
0 0 0
0 0 0
0 0 0
0 0 0
0 0 0
0 0 0
0 0 0
0 0 0
0 0 0
0 0 0
0 0 0
0 0 0
0 0 0
0 0 0
0 0 0
0 0 0
0 0 0
0 0 0
0 0 0
0 0 0
0 0 0
0 0 0
0 0 0
0 0 0
0 0 0
0 0 0
0 0 0
0 0 0
0 0 0
0 0 0
0 0 0
0 0 0
0 0 0
0 0 0
0 0 0
0 0 0
0 0 0
0 0 0
0 0 0
0 0 0
0 0 0
0 0 0
0 0 0
0 0 0
0 0 0
0 0 0
0 0 0
0 0 0
0 0 0
0 0 0
0 0 0
0 0 0
0 0 0
0 0 0
0 0 0
0 0 0
0 0 0
0 0 0
0 0 0
0 0 0
0 0 0
0 0 0
0 0 0
0 0 0
0 0 0
0 0 0
0 0 0
0 0 0
0 0 0
0 0 0
0 0 0
0 0 0
0 0 0
0 0 0
0 0 0
0 0 0
0 0 0
0 0 0
0 0 0
0 0 0
0 0 0
0 0 0
0 0 0
0 0 0
0 0 0
0 0 0
0 0 0
0 0 0
0 0 0
0 0 0
0 0 0
0 0 0
0 0 0
0 0 0
0 0 0
0 0 0
0 0 0
0 0 0
0 0 0
0 0 0
0 0 0
0 0 0
0 0 0
0 0 0
0 0 0
0 0 0
0 0 0
0 0 0
0 0 0
0 0 0
0 0 0
0 0 0
0 0 0
0 0 0
0 0 0
0 0 0
0 0 0
0 0 0
0 0 0
0 0 0
0 0 0
0 0 0
0 0 0
0 0 0
0 0 0
0 0 0
0 0 0
0 0 0
0 0 0
0 0 0
0 0 0
0 0 0
0 0 0
0 0 0
0 0 0
0 0 0
0 0 0
0 0 0
0 0 0
0 0 0
0 0 0
0 0 0
0 0 0
0 0 0
0 0 0
0 0 0
0 0 0
0 0 0
0 0 0
0 0 0
0 0 0
0 0 0
0 0 0
0 0 0
0 0 0
0 0 0
0 0 0
0 0 0
0 0 0
0 0 0
0 0 0
0 0 0
0 0 0
0 0 0
0 0 0
0 0 0
0 0 0
0 0 0
0 0 0
0 0 0
0 0 0
0 0 0
0 0 0
0 0 0
0 0 0
0 0 0
0 0 0
0 0 0
0 0 0
0 0 0
0 0 0
0 0 0
0 0 0
0 0 0
0 0 0
0 0 0
0 0 0
0 0 0
0 0 0
0 0 0
0 0 0
0 0 0
0 0 0
0 0 0
0 0 0
0 0 0
0 0 0
0 0 0
0 0 0
0 0 0
0 0 0
0 0 0
0 0 0
0 0 0
0 0 0
0 0 0
0 0 0
0 0 0
0 0 0
0 0 0
0 0 0
0 0 0
255 255 255
255 255 255
255 255 255
255 255 255
255 255 255
255 255 255
255 255 255
255 255 255
255 255 255
255 255 255
255 255 255
255 255 255
255 255 255
255 255 255
255 255 255
255 255 255
255 255 255
255 255 255
255 255 255
255 255 255
255 255 255
255 255 255
255 255 255
255 255 255
255 255 255
255 255 255
255 255 255
255 255 255
255 255 255
255 255 255
255 255 255
255 255 255
255 255 255
255 255 255
255 255 255
255 255 255
255 255 255
255 255 255
255 255 255
255 255 255
255 255 255
255 255 255
255 255 255
255 255 255
255 255 255
255 255 255
255 255 255
255 255 255
255 255 255
255 255 255
0 0 0
0 0 0
0 0 0
0 0 0
0 0 0
0 0 0
0 0 0
0 0 0
0 0 0
0 0 0
0 0 0
0 0 0
0 0 0
0 0 0
0 0 0
0 0 0
0 0 0
0 0 0
0 0 0
0 0 0
0 0 0
0 0 0
0 0 0
0 0 0
0 0 0
0 0 0
0 0 0
0 0 0
0 0 0
0 0 0
0 0 0
0 0 0
0 0 0
0 0 0
0 0 0
0 0 0
0 0 0
0 0 0
0 0 0
0 0 0
0 0 0
0 0 0
0 0 0
0 0 0
0 0 0
0 0 0
0 0 0
0 0 0
0 0 0
0 0 0
0 0 0
0 0 0
0 0 0
0 0 0
0 0 0
0 0 0
0 0 0
0 0 0
0 0 0
0 0 0
0 0 0
0 0 0
0 0 0
0 0 0
0 0 0
0 0 0
0 0 0
0 0 0
0 0 0
0 0 0
0 0 0
0 0 0
0 0 0
0 0 0
0 0 0
0 0 0
0 0 0
0 0 0
0 0 0
0 0 0
0 0 0
0 0 0
0 0 0
0 0 0
0 0 0
0 0 0
0 0 0
0 0 0
0 0 0
0 0 0
0 0 0
0 0 0
0 0 0
0 0 0
0 0 0
0 0 0
0 0 0
0 0 0
0 0 0
0 0 0
0 0 0
0 0 0
0 0 0
0 0 0
0 0 0
0 0 0
0 0 0
0 0 0
0 0 0
0 0 0
0 0 0
0 0 0
0 0 0
0 0 0
0 0 0
0 0 0
0 0 0
0 0 0
0 0 0
0 0 0
0 0 0
0 0 0
0 0 0
0 0 0
0 0 0
0 0 0
0 0 0
0 0 0
0 0 0
0 0 0
0 0 0
0 0 0
0 0 0
0 0 0
0 0 0
0 0 0
0 0 0
0 0 0
0 0 0
0 0 0
0 0 0
0 0 0
0 0 0
0 0 0
0 0 0
0 0 0
0 0 0
0 0 0
0 0 0
0 0 0
0 0 0
0 0 0
0 0 0
0 0 0
0 0 0
0 0 0
0 0 0
0 0 0
0 0 0
0 0 0
0 0 0
0 0 0
0 0 0
0 0 0
0 0 0
0 0 0
0 0 0
0 0 0
0 0 0
0 0 0
0 0 0
0 0 0
0 0 0
0 0 0
0 0 0
0 0 0
0 0 0
0 0 0
0 0 0
0 0 0
0 0 0
0 0 0
0 0 0
0 0 0
0 0 0
0 0 0
0 0 0
0 0 0
0 0 0
0 0 0
0 0 0
0 0 0
0 0 0
0 0 0
0 0 0
0 0 0
0 0 0
0 0 0
0 0 0
0 0 0
0 0 0
0 0 0
0 0 0
0 0 0
0 0 0
0 0 0
0 0 0
0 0 0
0 0 0
0 0 0
0 0 0
0 0 0
0 0 0
0 0 0
0 0 0
0 0 0
0 0 0
0 0 0
0 0 0
0 0 0
0 0 0
0 0 0
0 0 0
0 0 0
0 0 0
0 0 0
0 0 0
0 0 0
0 0 0
0 0 0
0 0 0
0 0 0
0 0 0
0 0 0
0 0 0
0 0 0
0 0 0
0 0 0
0 0 0
0 0 0
0 0 0
0 0 0
0 0 0
0 0 0
0 0 0
0 0 0
0 0 0
0 0 0
0 0 0
0 0 0
0 0 0
0 0 0
0 0 0
0 0 0
0 0 0
0 0 0
0 0 0
0 0 0
0 0 0
0 0 0
0 0 0
0 0 0
0 0 0
0 0 0
0 0 0
0 0 0
0 0 0
0 0 0
0 0 0
0 0 0
0 0 0
0 0 0
0 0 0
0 0 0
0 0 0
0 0 0
0 0 0
0 0 0
0 0 0
0 0 0
0 0 0
0 0 0
0 0 0
0 0 0
0 0 0
0 0 0
0 0 0
0 0 0
0 0 0
0 0 0
0 0 0
0 0 0
0 0 0
0 0 0
0 0 0
0 0 0
0 0 0
0 0 0
0 0 0
0 0 0
0 0 0
0 0 0
0 0 0
0 0 0
0 0 0
0 0 0
0 0 0
0 0 0
0 0 0
0 0 0
0 0 0
0 0 0
0 0 0
0 0 0
0 0 0
0 0 0
0 0 0
0 0 0
0 0 0
0 0 0
0 0 0
0 0 0
0 0 0
0 0 0
0 0 0
0 0 0
0 0 0
0 0 0
0 0 0
0 0 0
0 0 0
0 0 0
0 0 0
0 0 0
0 0 0
0 0 0
0 0 0
0 0 0
0 0 0
0 0 0
0 0 0
0 0 0
0 0 0
0 0 0
0 0 0
0 0 0
0 0 0
0 0 0
0 0 0
155 155 155
255 255 255
255 255 255
255 255 255
255 255 255
255 255 255
255 255 255
255 255 255
255 255 255
255 255 255
255 255 255
255 255 255
255 255 255
255 255 255
255 255 255
255 255 255
255 255 255
255 255 255
255 255 255
255 255 255
255 255 255
255 255 255
255 255 255
255 255 255
255 255 255
255 255 255
255 255 255
255 255 255
255 255 255
255 255 255
255 255 255
255 255 255
255 255 255
255 255 255
255 255 255
255 255 255
255 255 255
255 255 255
255 255 255
255 255 255
255 255 255
255 255 255
255 255 255
255 255 255
255 255 255
255 255 255
255 255 255
255 255 255
255 255 255
255 255 255
255 255 255
142 142 142
0 0 0
0 0 0
0 0 0
0 0 0
0 0 0
0 0 0
0 0 0
0 0 0
0 0 0
0 0 0
0 0 0
0 0 0
0 0 0
0 0 0
0 0 0
0 0 0
0 0 0
0 0 0
0 0 0
0 0 0
0 0 0
0 0 0
0 0 0
0 0 0
0 0 0
0 0 0
0 0 0
0 0 0
0 0 0
0 0 0
0 0 0
0 0 0
0 0 0
0 0 0
0 0 0
0 0 0
0 0 0
0 0 0
0 0 0
0 0 0
0 0 0
0 0 0
0 0 0
0 0 0
0 0 0
0 0 0
0 0 0
0 0 0
0 0 0
0 0 0
0 0 0
0 0 0
0 0 0
0 0 0
0 0 0
0 0 0
0 0 0
0 0 0
0 0 0
0 0 0
0 0 0
0 0 0
0 0 0
0 0 0
0 0 0
0 0 0
0 0 0
0 0 0
0 0 0
0 0 0
0 0 0
0 0 0
0 0 0
0 0 0
0 0 0
0 0 0
0 0 0
0 0 0
0 0 0
0 0 0
0 0 0
0 0 0
0 0 0
0 0 0
0 0 0
0 0 0
0 0 0
0 0 0
0 0 0
0 0 0
0 0 0
0 0 0
0 0 0
0 0 0
0 0 0
0 0 0
0 0 0
0 0 0
0 0 0
0 0 0
0 0 0
0 0 0
0 0 0
0 0 0
0 0 0
0 0 0
0 0 0
0 0 0
0 0 0
0 0 0
0 0 0
0 0 0
0 0 0
0 0 0
0 0 0
0 0 0
0 0 0
0 0 0
0 0 0
0 0 0
0 0 0
0 0 0
0 0 0
0 0 0
0 0 0
0 0 0
0 0 0
0 0 0
0 0 0
0 0 0
0 0 0
0 0 0
0 0 0
0 0 0
0 0 0
0 0 0
0 0 0
0 0 0
0 0 0
0 0 0
0 0 0
0 0 0
0 0 0
0 0 0
0 0 0
0 0 0
0 0 0
0 0 0
0 0 0
0 0 0
0 0 0
0 0 0
0 0 0
0 0 0
0 0 0
0 0 0
0 0 0
0 0 0
0 0 0
0 0 0
0 0 0
0 0 0
0 0 0
0 0 0
0 0 0
0 0 0
0 0 0
0 0 0
0 0 0
0 0 0
0 0 0
0 0 0
0 0 0
0 0 0
0 0 0
0 0 0
0 0 0
0 0 0
0 0 0
0 0 0
0 0 0
0 0 0
0 0 0
0 0 0
0 0 0
0 0 0
0 0 0
0 0 0
0 0 0
0 0 0
0 0 0
0 0 0
0 0 0
0 0 0
0 0 0
0 0 0
0 0 0
0 0 0
0 0 0
0 0 0
0 0 0
0 0 0
0 0 0
0 0 0
0 0 0
0 0 0
0 0 0
0 0 0
0 0 0
0 0 0
0 0 0
0 0 0
0 0 0
0 0 0
0 0 0
0 0 0
0 0 0
0 0 0
0 0 0
0 0 0
0 0 0
0 0 0
0 0 0
0 0 0
0 0 0
0 0 0
0 0 0
0 0 0
0 0 0
0 0 0
0 0 0
0 0 0
0 0 0
0 0 0
0 0 0
0 0 0
0 0 0
0 0 0
0 0 0
0 0 0
0 0 0
0 0 0
0 0 0
0 0 0
0 0 0
0 0 0
0 0 0
0 0 0
0 0 0
0 0 0
0 0 0
0 0 0
0 0 0
0 0 0
0 0 0
0 0 0
0 0 0
0 0 0
0 0 0
0 0 0
0 0 0
0 0 0
0 0 0
0 0 0
0 0 0
0 0 0
0 0 0
0 0 0
0 0 0
0 0 0
0 0 0
0 0 0
0 0 0
0 0 0
0 0 0
0 0 0
0 0 0
0 0 0
0 0 0
0 0 0
0 0 0
0 0 0
0 0 0
0 0 0
0 0 0
0 0 0
0 0 0
0 0 0
0 0 0
0 0 0
0 0 0
0 0 0
0 0 0
0 0 0
0 0 0
0 0 0
0 0 0
0 0 0
0 0 0
0 0 0
0 0 0
0 0 0
0 0 0
0 0 0
0 0 0
0 0 0
0 0 0
0 0 0
0 0 0
0 0 0
0 0 0
0 0 0
0 0 0
0 0 0
0 0 0
0 0 0
0 0 0
0 0 0
0 0 0
0 0 0
0 0 0
0 0 0
0 0 0
0 0 0
0 0 0
0 0 0
0 0 0
0 0 0
0 0 0
0 0 0
0 0 0
0 0 0
0 0 0
0 0 0
0 0 0
0 0 0
0 0 0
0 0 0
0 0 0
0 0 0
0 0 0
0 0 0
0 0 0
0 0 0
0 0 0
0 0 0
0 0 0
0 0 0
255 255 255
255 255 255
255 255 255
255 255 255
255 255 255
255 255 255
255 255 255
255 255 255
255 255 255
255 255 255
255 255 255
255 255 255
255 255 255
255 255 255
255 255 255
255 255 255
255 255 255
255 255 255
255 255 255
255 255 255
255 255 255
255 255 255
255 255 255
255 255 255
255 255 255
255 255 255
255 255 255
255 255 255
255 255 255
255 255 255
255 255 255
255 255 255
255 255 255
255 255 255
255 255 255
255 255 255
255 255 255
255 255 255
255 255 255
255 255 255
255 255 255
255 255 255
255 255 255
255 255 255
255 255 255
255 255 255
255 255 255
255 255 255
255 255 255
255 255 255
255 255 255
255 255 255
0 0 0
0 0 0
0 0 0
0 0 0
0 0 0
0 0 0
0 0 0
0 0 0
0 0 0
0 0 0
0 0 0
0 0 0
0 0 0
0 0 0
0 0 0
0 0 0
0 0 0
0 0 0
0 0 0
0 0 0
0 0 0
0 0 0
0 0 0
0 0 0
0 0 0
0 0 0
0 0 0
0 0 0
0 0 0
0 0 0
0 0 0
0 0 0
0 0 0
0 0 0
0 0 0
0 0 0
0 0 0
0 0 0
0 0 0
0 0 0
0 0 0
0 0 0
0 0 0
0 0 0
0 0 0
0 0 0
0 0 0
0 0 0
0 0 0
0 0 0
0 0 0
0 0 0
0 0 0
0 0 0
0 0 0
0 0 0
0 0 0
0 0 0
0 0 0
0 0 0
0 0 0
0 0 0
0 0 0
0 0 0
0 0 0
0 0 0
0 0 0
0 0 0
0 0 0
0 0 0
0 0 0
0 0 0
0 0 0
0 0 0
0 0 0
0 0 0
0 0 0
0 0 0
0 0 0
0 0 0
0 0 0
0 0 0
0 0 0
0 0 0
0 0 0
0 0 0
0 0 0
0 0 0
0 0 0
0 0 0
0 0 0
0 0 0
0 0 0
0 0 0
0 0 0
0 0 0
0 0 0
0 0 0
0 0 0
0 0 0
0 0 0
0 0 0
0 0 0
0 0 0
0 0 0
0 0 0
0 0 0
0 0 0
0 0 0
0 0 0
0 0 0
0 0 0
0 0 0
0 0 0
0 0 0
0 0 0
0 0 0
0 0 0
0 0 0
0 0 0
0 0 0
0 0 0
0 0 0
0 0 0
0 0 0
0 0 0
0 0 0
0 0 0
0 0 0
0 0 0
0 0 0
0 0 0
0 0 0
0 0 0
0 0 0
0 0 0
0 0 0
0 0 0
0 0 0
0 0 0
0 0 0
0 0 0
0 0 0
0 0 0
0 0 0
0 0 0
0 0 0
0 0 0
0 0 0
0 0 0
0 0 0
0 0 0
0 0 0
0 0 0
0 0 0
0 0 0
0 0 0
0 0 0
0 0 0
0 0 0
0 0 0
0 0 0
0 0 0
0 0 0
0 0 0
0 0 0
0 0 0
0 0 0
0 0 0
0 0 0
0 0 0
0 0 0
0 0 0
0 0 0
0 0 0
0 0 0
0 0 0
0 0 0
0 0 0
0 0 0
0 0 0
0 0 0
0 0 0
0 0 0
0 0 0
0 0 0
0 0 0
0 0 0
0 0 0
0 0 0
0 0 0
0 0 0
0 0 0
0 0 0
0 0 0
0 0 0
0 0 0
0 0 0
0 0 0
0 0 0
0 0 0
0 0 0
0 0 0
0 0 0
0 0 0
0 0 0
0 0 0
0 0 0
0 0 0
0 0 0
0 0 0
0 0 0
0 0 0
0 0 0
0 0 0
0 0 0
0 0 0
0 0 0
0 0 0
0 0 0
0 0 0
0 0 0
0 0 0
0 0 0
0 0 0
0 0 0
0 0 0
0 0 0
0 0 0
0 0 0
0 0 0
0 0 0
0 0 0
0 0 0
0 0 0
0 0 0
0 0 0
0 0 0
0 0 0
0 0 0
0 0 0
0 0 0
0 0 0
0 0 0
0 0 0
0 0 0
0 0 0
0 0 0
0 0 0
0 0 0
0 0 0
0 0 0
0 0 0
0 0 0
0 0 0
0 0 0
0 0 0
0 0 0
0 0 0
0 0 0
0 0 0
0 0 0
0 0 0
0 0 0
0 0 0
0 0 0
0 0 0
0 0 0
0 0 0
0 0 0
0 0 0
0 0 0
0 0 0
0 0 0
0 0 0
0 0 0
0 0 0
0 0 0
0 0 0
0 0 0
0 0 0
0 0 0
0 0 0
0 0 0
0 0 0
0 0 0
0 0 0
0 0 0
0 0 0
0 0 0
0 0 0
0 0 0
0 0 0
0 0 0
0 0 0
0 0 0
0 0 0
0 0 0
0 0 0
0 0 0
0 0 0
0 0 0
0 0 0
0 0 0
0 0 0
0 0 0
0 0 0
0 0 0
0 0 0
0 0 0
0 0 0
0 0 0
0 0 0
0 0 0
0 0 0
0 0 0
0 0 0
0 0 0
0 0 0
0 0 0
0 0 0
0 0 0
0 0 0
0 0 0
0 0 0
0 0 0
0 0 0
0 0 0
0 0 0
0 0 0
0 0 0
0 0 0
0 0 0
0 0 0
0 0 0
0 0 0
0 0 0
0 0 0
0 0 0
0 0 0
0 0 0
0 0 0
0 0 0
0 0 0
0 0 0
0 0 0
0 0 0
255 255 255
255 255 255
255 255 255
255 255 255
255 255 255
255 255 255
255 255 255
255 255 255
255 255 255
255 255 255
255 255 255
255 255 255
255 255 255
255 255 255
255 255 255
255 255 255
255 255 255
255 255 255
255 255 255
255 255 255
255 255 255
255 255 255
255 255 255
255 255 255
255 255 255
255 255 255
255 255 255
255 255 255
255 255 255
255 255 255
255 255 255
255 255 255
255 255 255
255 255 255
255 255 255
255 255 255
255 255 255
255 255 255
255 255 255
255 255 255
255 255 255
255 255 255
255 255 255
255 255 255
255 255 255
255 255 255
255 255 255
255 255 255
255 255 255
255 255 255
255 255 255
255 255 255
255 255 255
255 255 255
0 0 0
0 0 0
0 0 0
0 0 0
0 0 0
0 0 0
0 0 0
0 0 0
0 0 0
0 0 0
0 0 0
0 0 0
0 0 0
0 0 0
0 0 0
0 0 0
0 0 0
0 0 0
0 0 0
0 0 0
0 0 0
0 0 0
0 0 0
0 0 0
0 0 0
0 0 0
0 0 0
0 0 0
0 0 0
0 0 0
0 0 0
0 0 0
0 0 0
0 0 0
0 0 0
0 0 0
0 0 0
0 0 0
0 0 0
0 0 0
0 0 0
0 0 0
0 0 0
0 0 0
0 0 0
0 0 0
0 0 0
0 0 0
0 0 0
0 0 0
0 0 0
0 0 0
0 0 0
0 0 0
0 0 0
0 0 0
0 0 0
0 0 0
0 0 0
0 0 0
0 0 0
0 0 0
0 0 0
0 0 0
0 0 0
0 0 0
0 0 0
0 0 0
0 0 0
0 0 0
0 0 0
0 0 0
0 0 0
0 0 0
0 0 0
0 0 0
0 0 0
0 0 0
0 0 0
0 0 0
0 0 0
0 0 0
0 0 0
0 0 0
0 0 0
0 0 0
0 0 0
0 0 0
0 0 0
0 0 0
0 0 0
0 0 0
0 0 0
0 0 0
0 0 0
0 0 0
0 0 0
0 0 0
0 0 0
0 0 0
0 0 0
0 0 0
0 0 0
0 0 0
0 0 0
0 0 0
0 0 0
0 0 0
0 0 0
0 0 0
0 0 0
0 0 0
0 0 0
0 0 0
0 0 0
0 0 0
0 0 0
0 0 0
0 0 0
0 0 0
0 0 0
0 0 0
0 0 0
0 0 0
0 0 0
0 0 0
0 0 0
0 0 0
0 0 0
0 0 0
0 0 0
0 0 0
0 0 0
0 0 0
0 0 0
0 0 0
0 0 0
0 0 0
0 0 0
0 0 0
0 0 0
0 0 0
0 0 0
0 0 0
0 0 0
0 0 0
0 0 0
0 0 0
0 0 0
0 0 0
0 0 0
0 0 0
0 0 0
0 0 0
0 0 0
0 0 0
0 0 0
0 0 0
0 0 0
0 0 0
0 0 0
0 0 0
0 0 0
0 0 0
0 0 0
0 0 0
0 0 0
0 0 0
0 0 0
0 0 0
0 0 0
0 0 0
0 0 0
0 0 0
0 0 0
0 0 0
0 0 0
0 0 0
0 0 0
0 0 0
0 0 0
0 0 0
0 0 0
0 0 0
0 0 0
0 0 0
0 0 0
0 0 0
0 0 0
0 0 0
0 0 0
0 0 0
0 0 0
0 0 0
0 0 0
0 0 0
0 0 0
0 0 0
0 0 0
0 0 0
0 0 0
0 0 0
0 0 0
0 0 0
0 0 0
0 0 0
0 0 0
0 0 0
0 0 0
0 0 0
0 0 0
0 0 0
0 0 0
0 0 0
0 0 0
0 0 0
0 0 0
0 0 0
0 0 0
0 0 0
0 0 0
0 0 0
0 0 0
0 0 0
0 0 0
0 0 0
0 0 0
0 0 0
0 0 0
0 0 0
0 0 0
0 0 0
0 0 0
0 0 0
0 0 0
0 0 0
0 0 0
0 0 0
0 0 0
0 0 0
0 0 0
0 0 0
0 0 0
0 0 0
0 0 0
0 0 0
0 0 0
0 0 0
0 0 0
0 0 0
0 0 0
0 0 0
0 0 0
0 0 0
0 0 0
0 0 0
0 0 0
0 0 0
0 0 0
0 0 0
0 0 0
0 0 0
0 0 0
0 0 0
0 0 0
0 0 0
0 0 0
0 0 0
0 0 0
0 0 0
0 0 0
0 0 0
0 0 0
0 0 0
0 0 0
0 0 0
0 0 0
0 0 0
0 0 0
0 0 0
0 0 0
0 0 0
0 0 0
0 0 0
0 0 0
0 0 0
0 0 0
0 0 0
0 0 0
0 0 0
0 0 0
0 0 0
0 0 0
0 0 0
0 0 0
0 0 0
0 0 0
0 0 0
0 0 0
0 0 0
0 0 0
0 0 0
0 0 0
0 0 0
0 0 0
0 0 0
0 0 0
0 0 0
0 0 0
0 0 0
0 0 0
0 0 0
0 0 0
0 0 0
0 0 0
0 0 0
0 0 0
0 0 0
0 0 0
0 0 0
0 0 0
0 0 0
0 0 0
0 0 0
0 0 0
0 0 0
0 0 0
0 0 0
0 0 0
0 0 0
0 0 0
0 0 0
0 0 0
0 0 0
0 0 0
0 0 0
0 0 0
0 0 0
0 0 0
0 0 0
0 0 0
0 0 0
0 0 0
0 0 0
0 0 0
44 44 44
255 255 255
255 255 255
255 255 255
255 255 255
255 255 255
255 255 255
255 255 255
255 255 255
255 255 255
255 255 255
255 255 255
255 255 255
255 255 255
255 255 255
255 255 255
255 255 255
255 255 255
255 255 255
255 255 255
255 255 255
255 255 255
255 255 255
255 255 255
255 255 255
255 255 255
255 255 255
255 255 255
255 255 255
255 255 255
255 255 255
255 255 255
255 255 255
255 255 255
255 255 255
255 255 255
255 255 255
255 255 255
255 255 255
255 255 255
255 255 255
255 255 255
255 255 255
255 255 255
255 255 255
255 255 255
255 255 255
255 255 255
255 255 255
255 255 255
255 255 255
255 255 255
255 255 255
255 255 255
255 255 255
44 44 44
0 0 0
0 0 0
0 0 0
0 0 0
0 0 0
0 0 0
0 0 0
0 0 0
0 0 0
0 0 0
0 0 0
0 0 0
0 0 0
0 0 0
0 0 0
0 0 0
0 0 0
0 0 0
0 0 0
0 0 0
0 0 0
0 0 0
0 0 0
0 0 0
0 0 0
0 0 0
0 0 0
0 0 0
0 0 0
0 0 0
0 0 0
0 0 0
0 0 0
0 0 0
0 0 0
0 0 0
0 0 0
0 0 0
0 0 0
0 0 0
0 0 0
0 0 0
0 0 0
0 0 0
0 0 0
0 0 0
0 0 0
0 0 0
0 0 0
0 0 0
0 0 0
0 0 0
0 0 0
0 0 0
0 0 0
0 0 0
0 0 0
0 0 0
0 0 0
0 0 0
0 0 0
0 0 0
0 0 0
0 0 0
0 0 0
0 0 0
0 0 0
0 0 0
0 0 0
0 0 0
0 0 0
0 0 0
0 0 0
0 0 0
0 0 0
0 0 0
0 0 0
0 0 0
0 0 0
0 0 0
0 0 0
0 0 0
0 0 0
0 0 0
0 0 0
0 0 0
0 0 0
0 0 0
0 0 0
0 0 0
0 0 0
0 0 0
0 0 0
0 0 0
0 0 0
0 0 0
0 0 0
0 0 0
0 0 0
0 0 0
0 0 0
0 0 0
0 0 0
0 0 0
0 0 0
0 0 0
0 0 0
0 0 0
0 0 0
0 0 0
0 0 0
0 0 0
0 0 0
0 0 0
0 0 0
0 0 0
0 0 0
0 0 0
0 0 0
0 0 0
0 0 0
0 0 0
0 0 0
0 0 0
0 0 0
0 0 0
0 0 0
0 0 0
0 0 0
0 0 0
0 0 0
0 0 0
0 0 0
0 0 0
0 0 0
0 0 0
0 0 0
0 0 0
0 0 0
0 0 0
0 0 0
0 0 0
0 0 0
0 0 0
0 0 0
0 0 0
0 0 0
0 0 0
0 0 0
0 0 0
0 0 0
0 0 0
0 0 0
0 0 0
0 0 0
0 0 0
0 0 0
0 0 0
0 0 0
0 0 0
0 0 0
0 0 0
0 0 0
0 0 0
0 0 0
0 0 0
0 0 0
0 0 0
0 0 0
0 0 0
0 0 0
0 0 0
0 0 0
0 0 0
0 0 0
0 0 0
0 0 0
0 0 0
0 0 0
0 0 0
0 0 0
0 0 0
0 0 0
0 0 0
0 0 0
0 0 0
0 0 0
0 0 0
0 0 0
0 0 0
0 0 0
0 0 0
0 0 0
0 0 0
0 0 0
0 0 0
0 0 0
0 0 0
0 0 0
0 0 0
0 0 0
0 0 0
0 0 0
0 0 0
0 0 0
0 0 0
0 0 0
0 0 0
0 0 0
0 0 0
0 0 0
0 0 0
0 0 0
0 0 0
0 0 0
0 0 0
0 0 0
0 0 0
0 0 0
0 0 0
0 0 0
0 0 0
0 0 0
0 0 0
0 0 0
0 0 0
0 0 0
0 0 0
0 0 0
0 0 0
0 0 0
0 0 0
0 0 0
0 0 0
0 0 0
0 0 0
0 0 0
0 0 0
0 0 0
0 0 0
0 0 0
0 0 0
0 0 0
0 0 0
0 0 0
0 0 0
0 0 0
0 0 0
0 0 0
0 0 0
0 0 0
0 0 0
0 0 0
0 0 0
0 0 0
0 0 0
0 0 0
0 0 0
0 0 0
0 0 0
0 0 0
0 0 0
0 0 0
0 0 0
0 0 0
0 0 0
0 0 0
0 0 0
0 0 0
0 0 0
0 0 0
0 0 0
0 0 0
0 0 0
0 0 0
0 0 0
0 0 0
0 0 0
0 0 0
0 0 0
0 0 0
0 0 0
0 0 0
0 0 0
0 0 0
0 0 0
0 0 0
0 0 0
0 0 0
0 0 0
0 0 0
0 0 0
0 0 0
0 0 0
0 0 0
0 0 0
0 0 0
0 0 0
0 0 0
0 0 0
0 0 0
0 0 0
0 0 0
0 0 0
0 0 0
0 0 0
0 0 0
0 0 0
0 0 0
0 0 0
0 0 0
0 0 0
0 0 0
0 0 0
0 0 0
0 0 0
0 0 0
0 0 0
0 0 0
0 0 0
0 0 0
0 0 0
0 0 0
0 0 0
0 0 0
0 0 0
0 0 0
0 0 0
0 0 0
0 0 0
0 0 0
0 0 0
0 0 0
0 0 0
0 0 0
0 0 0
0 0 0
0 0 0
0 0 0
0 0 0
0 0 0
0 0 0
0 0 0
0 0 0
255 255 255
255 255 255
255 255 255
255 255 255
255 255 255
255 255 255
255 255 255
255 255 255
255 255 255
255 255 255
255 255 255
255 255 255
255 255 255
255 255 255
255 255 255
255 255 255
255 255 255
255 255 255
255 255 255
255 255 255
255 255 255
255 255 255
255 255 255
255 255 255
255 255 255
255 255 255
255 255 255
255 255 255
255 255 255
255 255 255
255 255 255
255 255 255
255 255 255
255 255 255
255 255 255
255 255 255
255 255 255
255 255 255
255 255 255
255 255 255
255 255 255
255 255 255
255 255 255
255 255 255
255 255 255
255 255 255
255 255 255
255 255 255
255 255 255
255 255 255
255 255 255
255 255 255
255 255 255
255 255 255
255 255 255
255 255 255
0 0 0
0 0 0
0 0 0
0 0 0
0 0 0
0 0 0
0 0 0
0 0 0
0 0 0
0 0 0
0 0 0
0 0 0
0 0 0
0 0 0
0 0 0
0 0 0
0 0 0
0 0 0
0 0 0
0 0 0
0 0 0
0 0 0
0 0 0
0 0 0
0 0 0
0 0 0
0 0 0
0 0 0
0 0 0
0 0 0
0 0 0
0 0 0
0 0 0
0 0 0
0 0 0
0 0 0
0 0 0
0 0 0
0 0 0
0 0 0
0 0 0
0 0 0
0 0 0
0 0 0
0 0 0
0 0 0
0 0 0
0 0 0
0 0 0
0 0 0
0 0 0
0 0 0
0 0 0
0 0 0
0 0 0
0 0 0
0 0 0
0 0 0
0 0 0
0 0 0
0 0 0
0 0 0
0 0 0
0 0 0
0 0 0
0 0 0
0 0 0
0 0 0
0 0 0
0 0 0
0 0 0
0 0 0
0 0 0
0 0 0
0 0 0
0 0 0
0 0 0
0 0 0
0 0 0
0 0 0
0 0 0
0 0 0
0 0 0
0 0 0
0 0 0
0 0 0
0 0 0
0 0 0
0 0 0
0 0 0
0 0 0
0 0 0
0 0 0
0 0 0
0 0 0
0 0 0
0 0 0
0 0 0
0 0 0
0 0 0
0 0 0
0 0 0
0 0 0
0 0 0
0 0 0
0 0 0
0 0 0
0 0 0
0 0 0
0 0 0
0 0 0
0 0 0
0 0 0
0 0 0
0 0 0
0 0 0
0 0 0
0 0 0
0 0 0
0 0 0
0 0 0
0 0 0
0 0 0
0 0 0
0 0 0
0 0 0
0 0 0
0 0 0
0 0 0
0 0 0
0 0 0
0 0 0
0 0 0
0 0 0
0 0 0
0 0 0
0 0 0
0 0 0
0 0 0
0 0 0
0 0 0
0 0 0
0 0 0
0 0 0
0 0 0
0 0 0
0 0 0
0 0 0
0 0 0
0 0 0
0 0 0
0 0 0
0 0 0
0 0 0
0 0 0
0 0 0
0 0 0
0 0 0
0 0 0
0 0 0
0 0 0
0 0 0
0 0 0
0 0 0
0 0 0
0 0 0
0 0 0
0 0 0
0 0 0
0 0 0
0 0 0
0 0 0
0 0 0
0 0 0
0 0 0
0 0 0
0 0 0
0 0 0
0 0 0
0 0 0
0 0 0
0 0 0
0 0 0
0 0 0
0 0 0
0 0 0
0 0 0
0 0 0
0 0 0
0 0 0
0 0 0
0 0 0
0 0 0
0 0 0
0 0 0
0 0 0
0 0 0
0 0 0
0 0 0
0 0 0
0 0 0
0 0 0
0 0 0
0 0 0
0 0 0
0 0 0
0 0 0
0 0 0
0 0 0
0 0 0
0 0 0
0 0 0
0 0 0
0 0 0
0 0 0
0 0 0
0 0 0
0 0 0
0 0 0
0 0 0
0 0 0
0 0 0
0 0 0
0 0 0
0 0 0
0 0 0
0 0 0
0 0 0
0 0 0
0 0 0
0 0 0
0 0 0
0 0 0
0 0 0
0 0 0
0 0 0
0 0 0
0 0 0
0 0 0
0 0 0
0 0 0
0 0 0
0 0 0
0 0 0
0 0 0
0 0 0
0 0 0
0 0 0
0 0 0
0 0 0
0 0 0
0 0 0
0 0 0
0 0 0
0 0 0
0 0 0
0 0 0
0 0 0
0 0 0
0 0 0
0 0 0
0 0 0
0 0 0
0 0 0
0 0 0
0 0 0
0 0 0
0 0 0
0 0 0
0 0 0
0 0 0
0 0 0
0 0 0
0 0 0
0 0 0
0 0 0
0 0 0
0 0 0
0 0 0
0 0 0
0 0 0
0 0 0
0 0 0
0 0 0
0 0 0
0 0 0
0 0 0
0 0 0
0 0 0
0 0 0
0 0 0
0 0 0
0 0 0
0 0 0
0 0 0
0 0 0
0 0 0
0 0 0
0 0 0
0 0 0
0 0 0
0 0 0
0 0 0
0 0 0
0 0 0
0 0 0
0 0 0
0 0 0
0 0 0
0 0 0
0 0 0
0 0 0
0 0 0
0 0 0
0 0 0
0 0 0
0 0 0
0 0 0
0 0 0
0 0 0
0 0 0
0 0 0
0 0 0
0 0 0
0 0 0
0 0 0
0 0 0
0 0 0
0 0 0
0 0 0
0 0 0
0 0 0
0 0 0
0 0 0
0 0 0
0 0 0
0 0 0
0 0 0
0 0 0
0 0 0
0 0 0
0 0 0
0 0 0
0 0 0
255 255 255
255 255 255
255 255 255
255 255 255
255 255 255
255 255 255
255 255 255
255 255 255
255 255 255
255 255 255
255 255 255
255 255 255
255 255 255
255 255 255
255 255 255
255 255 255
255 255 255
255 255 255
255 255 255
255 255 255
255 255 255
255 255 255
255 255 255
255 255 255
255 255 255
255 255 255
255 255 255
255 255 255
255 255 255
255 255 255
255 255 255
255 255 255
255 255 255
255 255 255
255 255 255
255 255 255
255 255 255
255 255 255
255 255 255
255 255 255
255 255 255
255 255 255
255 255 255
255 255 255
255 255 255
255 255 255
255 255 255
255 255 255
255 255 255
255 255 255
255 255 255
255 255 255
255 255 255
255 255 255
255 255 255
255 255 255
25 25 25
0 0 0
0 0 0
0 0 0
0 0 0
0 0 0
0 0 0
0 0 0
0 0 0
0 0 0
0 0 0
0 0 0
0 0 0
0 0 0
0 0 0
0 0 0
0 0 0
0 0 0
0 0 0
0 0 0
0 0 0
0 0 0
0 0 0
0 0 0
0 0 0
0 0 0
0 0 0
0 0 0
0 0 0
0 0 0
0 0 0
0 0 0
0 0 0
0 0 0
0 0 0
0 0 0
0 0 0
0 0 0
0 0 0
0 0 0
0 0 0
0 0 0
0 0 0
0 0 0
0 0 0
0 0 0
0 0 0
0 0 0
0 0 0
0 0 0
0 0 0
0 0 0
0 0 0
0 0 0
0 0 0
0 0 0
0 0 0
0 0 0
0 0 0
0 0 0
0 0 0
0 0 0
0 0 0
0 0 0
0 0 0
0 0 0
0 0 0
0 0 0
0 0 0
0 0 0
0 0 0
0 0 0
0 0 0
0 0 0
0 0 0
0 0 0
0 0 0
0 0 0
0 0 0
0 0 0
0 0 0
0 0 0
0 0 0
0 0 0
0 0 0
0 0 0
0 0 0
0 0 0
0 0 0
0 0 0
0 0 0
0 0 0
0 0 0
0 0 0
0 0 0
0 0 0
0 0 0
0 0 0
0 0 0
0 0 0
0 0 0
0 0 0
0 0 0
0 0 0
0 0 0
0 0 0
0 0 0
0 0 0
0 0 0
0 0 0
0 0 0
0 0 0
0 0 0
0 0 0
0 0 0
0 0 0
0 0 0
0 0 0
0 0 0
0 0 0
0 0 0
0 0 0
0 0 0
0 0 0
0 0 0
0 0 0
0 0 0
0 0 0
0 0 0
0 0 0
0 0 0
0 0 0
0 0 0
0 0 0
0 0 0
0 0 0
0 0 0
0 0 0
0 0 0
0 0 0
0 0 0
0 0 0
0 0 0
0 0 0
0 0 0
0 0 0
0 0 0
0 0 0
0 0 0
0 0 0
0 0 0
0 0 0
0 0 0
0 0 0
0 0 0
0 0 0
0 0 0
0 0 0
0 0 0
0 0 0
0 0 0
0 0 0
0 0 0
0 0 0
0 0 0
0 0 0
0 0 0
0 0 0
0 0 0
0 0 0
0 0 0
0 0 0
0 0 0
0 0 0
0 0 0
0 0 0
0 0 0
0 0 0
0 0 0
0 0 0
0 0 0
0 0 0
0 0 0
0 0 0
0 0 0
0 0 0
0 0 0
0 0 0
0 0 0
0 0 0
0 0 0
0 0 0
0 0 0
0 0 0
0 0 0
0 0 0
0 0 0
0 0 0
0 0 0
0 0 0
0 0 0
0 0 0
0 0 0
0 0 0
0 0 0
0 0 0
0 0 0
0 0 0
0 0 0
0 0 0
0 0 0
0 0 0
0 0 0
0 0 0
0 0 0
0 0 0
0 0 0
0 0 0
0 0 0
0 0 0
0 0 0
0 0 0
0 0 0
0 0 0
0 0 0
0 0 0
0 0 0
0 0 0
0 0 0
0 0 0
0 0 0
0 0 0
0 0 0
0 0 0
0 0 0
0 0 0
0 0 0
0 0 0
0 0 0
0 0 0
0 0 0
0 0 0
0 0 0
0 0 0
0 0 0
0 0 0
0 0 0
0 0 0
0 0 0
0 0 0
0 0 0
0 0 0
0 0 0
0 0 0
0 0 0
0 0 0
0 0 0
0 0 0
0 0 0
0 0 0
0 0 0
0 0 0
0 0 0
0 0 0
0 0 0
0 0 0
0 0 0
0 0 0
0 0 0
0 0 0
0 0 0
0 0 0
0 0 0
0 0 0
0 0 0
0 0 0
0 0 0
0 0 0
0 0 0
0 0 0
0 0 0
0 0 0
0 0 0
0 0 0
0 0 0
0 0 0
0 0 0
0 0 0
0 0 0
0 0 0
0 0 0
0 0 0
0 0 0
0 0 0
0 0 0
0 0 0
0 0 0
0 0 0
0 0 0
0 0 0
0 0 0
0 0 0
0 0 0
0 0 0
0 0 0
0 0 0
0 0 0
0 0 0
0 0 0
0 0 0
0 0 0
0 0 0
0 0 0
0 0 0
0 0 0
0 0 0
0 0 0
0 0 0
0 0 0
0 0 0
0 0 0
0 0 0
0 0 0
0 0 0
0 0 0
0 0 0
0 0 0
0 0 0
0 0 0
0 0 0
0 0 0
0 0 0
0 0 0
0 0 0
0 0 0
0 0 0
0 0 0
0 0 0
0 0 0
0 0 0
0 0 0
0 0 0
0 0 0
255 255 255
255 255 255
255 255 255
255 255 255
255 255 255
255 255 255
255 255 255
255 255 255
255 255 255
255 255 255
255 255 255
255 255 255
255 255 255
255 255 255
255 255 255
255 255 255
255 255 255
255 255 255
255 255 255
255 255 255
255 255 255
255 255 255
255 255 255
255 255 255
255 255 255
255 255 255
255 255 255
255 255 255
255 255 255
255 255 255
255 255 255
255 255 255
255 255 255
255 255 255
255 255 255
255 255 255
255 255 255
255 255 255
255 255 255
255 255 255
255 255 255
255 255 255
255 255 255
255 255 255
255 255 255
255 255 255
255 255 255
255 255 255
255 255 255
255 255 255
255 255 255
255 255 255
255 255 255
255 255 255
255 255 255
255 255 255
255 255 255
255 255 255
0 0 0
0 0 0
0 0 0
0 0 0
0 0 0
0 0 0
0 0 0
0 0 0
0 0 0
0 0 0
0 0 0
0 0 0
0 0 0
0 0 0
0 0 0
0 0 0
0 0 0
0 0 0
0 0 0
0 0 0
0 0 0
0 0 0
0 0 0
0 0 0
0 0 0
0 0 0
0 0 0
0 0 0
0 0 0
0 0 0
0 0 0
0 0 0
0 0 0
0 0 0
0 0 0
0 0 0
0 0 0
0 0 0
0 0 0
0 0 0
0 0 0
0 0 0
0 0 0
0 0 0
0 0 0
0 0 0
0 0 0
0 0 0
0 0 0
0 0 0
0 0 0
0 0 0
0 0 0
0 0 0
0 0 0
0 0 0
0 0 0
0 0 0
0 0 0
0 0 0
0 0 0
0 0 0
0 0 0
0 0 0
0 0 0
0 0 0
0 0 0
0 0 0
0 0 0
0 0 0
0 0 0
0 0 0
0 0 0
0 0 0
0 0 0
0 0 0
0 0 0
0 0 0
0 0 0
0 0 0
0 0 0
0 0 0
0 0 0
0 0 0
0 0 0
0 0 0
0 0 0
0 0 0
0 0 0
0 0 0
0 0 0
0 0 0
0 0 0
0 0 0
0 0 0
0 0 0
0 0 0
0 0 0
0 0 0
0 0 0
0 0 0
0 0 0
0 0 0
0 0 0
0 0 0
0 0 0
0 0 0
0 0 0
0 0 0
0 0 0
0 0 0
0 0 0
0 0 0
0 0 0
0 0 0
0 0 0
0 0 0
0 0 0
0 0 0
0 0 0
0 0 0
0 0 0
0 0 0
0 0 0
0 0 0
0 0 0
0 0 0
0 0 0
0 0 0
0 0 0
0 0 0
0 0 0
0 0 0
0 0 0
0 0 0
0 0 0
0 0 0
0 0 0
0 0 0
0 0 0
0 0 0
0 0 0
0 0 0
0 0 0
0 0 0
0 0 0
0 0 0
0 0 0
0 0 0
0 0 0
0 0 0
0 0 0
0 0 0
0 0 0
0 0 0
0 0 0
0 0 0
0 0 0
0 0 0
0 0 0
0 0 0
0 0 0
0 0 0
0 0 0
0 0 0
0 0 0
0 0 0
0 0 0
0 0 0
0 0 0
0 0 0
0 0 0
0 0 0
0 0 0
0 0 0
0 0 0
0 0 0
0 0 0
0 0 0
0 0 0
0 0 0
0 0 0
0 0 0
0 0 0
0 0 0
0 0 0
0 0 0
0 0 0
0 0 0
0 0 0
0 0 0
0 0 0
0 0 0
0 0 0
0 0 0
0 0 0
0 0 0
0 0 0
0 0 0
0 0 0
0 0 0
0 0 0
0 0 0
0 0 0
0 0 0
0 0 0
0 0 0
0 0 0
0 0 0
0 0 0
0 0 0
0 0 0
0 0 0
0 0 0
0 0 0
0 0 0
0 0 0
0 0 0
0 0 0
0 0 0
0 0 0
0 0 0
0 0 0
0 0 0
0 0 0
0 0 0
0 0 0
0 0 0
0 0 0
0 0 0
0 0 0
0 0 0
0 0 0
0 0 0
0 0 0
0 0 0
0 0 0
0 0 0
0 0 0
0 0 0
0 0 0
0 0 0
0 0 0
0 0 0
0 0 0
0 0 0
0 0 0
0 0 0
0 0 0
0 0 0
0 0 0
0 0 0
0 0 0
0 0 0
0 0 0
0 0 0
0 0 0
0 0 0
0 0 0
0 0 0
0 0 0
0 0 0
0 0 0
0 0 0
0 0 0
0 0 0
0 0 0
0 0 0
0 0 0
0 0 0
0 0 0
0 0 0
0 0 0
0 0 0
0 0 0
0 0 0
0 0 0
0 0 0
0 0 0
0 0 0
0 0 0
0 0 0
0 0 0
0 0 0
0 0 0
0 0 0
0 0 0
0 0 0
0 0 0
0 0 0
0 0 0
0 0 0
0 0 0
0 0 0
0 0 0
0 0 0
0 0 0
0 0 0
0 0 0
0 0 0
0 0 0
0 0 0
0 0 0
0 0 0
0 0 0
0 0 0
0 0 0
0 0 0
0 0 0
0 0 0
0 0 0
0 0 0
0 0 0
0 0 0
0 0 0
0 0 0
0 0 0
0 0 0
0 0 0
0 0 0
0 0 0
0 0 0
0 0 0
0 0 0
0 0 0
0 0 0
0 0 0
0 0 0
0 0 0
0 0 0
0 0 0
0 0 0
0 0 0
0 0 0
0 0 0
0 0 0
0 0 0
0 0 0
0 0 0
0 0 0
0 0 0
0 0 0
255 255 255
255 255 255
255 255 255
255 255 255
255 255 255
255 255 255
255 255 255
255 255 255
255 255 255
255 255 255
255 255 255
255 255 255
255 255 255
255 255 255
255 255 255
255 255 255
255 255 255
255 255 255
255 255 255
255 255 255
255 255 255
255 255 255
255 255 255
255 255 255
255 255 255
255 255 255
255 255 255
255 255 255
255 255 255
255 255 255
255 255 255
255 255 255
255 255 255
255 255 255
255 255 255
255 255 255
255 255 255
255 255 255
255 255 255
255 255 255
255 255 255
255 255 255
255 255 255
255 255 255
255 255 255
255 255 255
255 255 255
255 255 255
255 255 255
255 255 255
255 255 255
255 255 255
255 255 255
255 255 255
255 255 255
255 255 255
255 255 255
255 255 255
0 0 0
0 0 0
0 0 0
0 0 0
0 0 0
0 0 0
0 0 0
0 0 0
0 0 0
0 0 0
0 0 0
0 0 0
0 0 0
0 0 0
0 0 0
0 0 0
0 0 0
0 0 0
0 0 0
0 0 0
0 0 0
0 0 0
0 0 0
0 0 0
0 0 0
0 0 0
0 0 0
0 0 0
0 0 0
0 0 0
0 0 0
0 0 0
0 0 0
0 0 0
0 0 0
0 0 0
0 0 0
0 0 0
0 0 0
0 0 0
0 0 0
0 0 0
0 0 0
0 0 0
0 0 0
0 0 0
0 0 0
0 0 0
0 0 0
0 0 0
0 0 0
0 0 0
0 0 0
0 0 0
0 0 0
0 0 0
0 0 0
0 0 0
0 0 0
0 0 0
0 0 0
0 0 0
0 0 0
0 0 0
0 0 0
0 0 0
0 0 0
0 0 0
0 0 0
0 0 0
0 0 0
0 0 0
0 0 0
0 0 0
0 0 0
0 0 0
0 0 0
0 0 0
0 0 0
0 0 0
0 0 0
0 0 0
0 0 0
0 0 0
0 0 0
0 0 0
0 0 0
0 0 0
0 0 0
0 0 0
0 0 0
0 0 0
0 0 0
0 0 0
0 0 0
0 0 0
0 0 0
0 0 0
0 0 0
0 0 0
0 0 0
0 0 0
0 0 0
0 0 0
0 0 0
0 0 0
0 0 0
0 0 0
0 0 0
0 0 0
0 0 0
0 0 0
0 0 0
0 0 0
0 0 0
0 0 0
0 0 0
0 0 0
0 0 0
0 0 0
0 0 0
0 0 0
0 0 0
0 0 0
0 0 0
0 0 0
0 0 0
0 0 0
0 0 0
0 0 0
0 0 0
0 0 0
0 0 0
0 0 0
0 0 0
0 0 0
0 0 0
0 0 0
0 0 0
0 0 0
0 0 0
0 0 0
0 0 0
0 0 0
0 0 0
0 0 0
0 0 0
0 0 0
0 0 0
0 0 0
0 0 0
0 0 0
0 0 0
0 0 0
0 0 0
0 0 0
0 0 0
0 0 0
0 0 0
0 0 0
0 0 0
0 0 0
0 0 0
0 0 0
0 0 0
0 0 0
0 0 0
0 0 0
0 0 0
0 0 0
0 0 0
0 0 0
0 0 0
0 0 0
0 0 0
0 0 0
0 0 0
0 0 0
0 0 0
0 0 0
0 0 0
0 0 0
0 0 0
0 0 0
0 0 0
0 0 0
0 0 0
0 0 0
0 0 0
0 0 0
0 0 0
0 0 0
0 0 0
0 0 0
0 0 0
0 0 0
0 0 0
0 0 0
0 0 0
0 0 0
0 0 0
0 0 0
0 0 0
0 0 0
0 0 0
0 0 0
0 0 0
0 0 0
0 0 0
0 0 0
0 0 0
0 0 0
0 0 0
0 0 0
0 0 0
0 0 0
0 0 0
0 0 0
0 0 0
0 0 0
0 0 0
0 0 0
0 0 0
0 0 0
0 0 0
0 0 0
0 0 0
0 0 0
0 0 0
0 0 0
0 0 0
0 0 0
0 0 0
0 0 0
0 0 0
0 0 0
0 0 0
0 0 0
0 0 0
0 0 0
0 0 0
0 0 0
0 0 0
0 0 0
0 0 0
0 0 0
0 0 0
0 0 0
0 0 0
0 0 0
0 0 0
0 0 0
0 0 0
0 0 0
0 0 0
0 0 0
0 0 0
0 0 0
0 0 0
0 0 0
0 0 0
0 0 0
0 0 0
0 0 0
0 0 0
0 0 0
0 0 0
0 0 0
0 0 0
0 0 0
0 0 0
0 0 0
0 0 0
0 0 0
0 0 0
0 0 0
0 0 0
0 0 0
0 0 0
0 0 0
0 0 0
0 0 0
0 0 0
0 0 0
0 0 0
0 0 0
0 0 0
0 0 0
0 0 0
0 0 0
0 0 0
0 0 0
0 0 0
0 0 0
0 0 0
0 0 0
0 0 0
0 0 0
0 0 0
0 0 0
0 0 0
0 0 0
0 0 0
0 0 0
0 0 0
0 0 0
0 0 0
0 0 0
0 0 0
0 0 0
0 0 0
0 0 0
0 0 0
0 0 0
0 0 0
0 0 0
0 0 0
0 0 0
0 0 0
0 0 0
0 0 0
0 0 0
0 0 0
0 0 0
0 0 0
0 0 0
0 0 0
0 0 0
0 0 0
0 0 0
0 0 0
0 0 0
0 0 0
0 0 0
0 0 0
0 0 0
0 0 0
0 0 0
0 0 0
0 0 0
0 0 0
191 191 191
255 255 255
255 255 255
255 255 255
255 255 255
255 255 255
255 255 255
255 255 255
255 255 255
255 255 255
255 255 255
255 255 255
255 255 255
255 255 255
255 255 255
255 255 255
255 255 255
255 255 255
255 255 255
255 255 255
255 255 255
255 255 255
255 255 255
255 255 255
255 255 255
255 255 255
255 255 255
255 255 255
255 255 255
255 255 255
255 255 255
255 255 255
255 255 255
255 255 255
255 255 255
255 255 255
255 255 255
255 255 255
255 255 255
255 255 255
255 255 255
255 255 255
255 255 255
255 255 255
255 255 255
255 255 255
255 255 255
255 255 255
255 255 255
255 255 255
255 255 255
255 255 255
255 255 255
255 255 255
255 255 255
255 255 255
255 255 255
255 255 255
255 255 255
188 188 188
0 0 0
0 0 0
0 0 0
0 0 0
0 0 0
0 0 0
0 0 0
0 0 0
0 0 0
0 0 0
0 0 0
0 0 0
0 0 0
0 0 0
0 0 0
0 0 0
0 0 0
0 0 0
0 0 0
0 0 0
0 0 0
0 0 0
0 0 0
0 0 0
0 0 0
0 0 0
0 0 0
0 0 0
0 0 0
0 0 0
0 0 0
0 0 0
0 0 0
0 0 0
0 0 0
0 0 0
0 0 0
0 0 0
0 0 0
0 0 0
0 0 0
0 0 0
0 0 0
0 0 0
0 0 0
0 0 0
0 0 0
0 0 0
0 0 0
0 0 0
0 0 0
0 0 0
0 0 0
0 0 0
0 0 0
0 0 0
0 0 0
0 0 0
0 0 0
0 0 0
0 0 0
0 0 0
0 0 0
0 0 0
0 0 0
0 0 0
0 0 0
0 0 0
0 0 0
0 0 0
0 0 0
0 0 0
0 0 0
0 0 0
0 0 0
0 0 0
0 0 0
0 0 0
0 0 0
0 0 0
0 0 0
0 0 0
0 0 0
0 0 0
0 0 0
0 0 0
0 0 0
0 0 0
0 0 0
0 0 0
0 0 0
0 0 0
0 0 0
0 0 0
0 0 0
0 0 0
0 0 0
0 0 0
0 0 0
0 0 0
0 0 0
0 0 0
0 0 0
0 0 0
0 0 0
0 0 0
0 0 0
0 0 0
0 0 0
0 0 0
0 0 0
0 0 0
0 0 0
0 0 0
0 0 0
0 0 0
0 0 0
0 0 0
0 0 0
0 0 0
0 0 0
0 0 0
0 0 0
0 0 0
0 0 0
0 0 0
0 0 0
0 0 0
0 0 0
0 0 0
0 0 0
0 0 0
0 0 0
0 0 0
0 0 0
0 0 0
0 0 0
0 0 0
0 0 0
0 0 0
0 0 0
0 0 0
0 0 0
0 0 0
0 0 0
0 0 0
0 0 0
0 0 0
0 0 0
0 0 0
0 0 0
0 0 0
0 0 0
0 0 0
0 0 0
0 0 0
0 0 0
0 0 0
0 0 0
0 0 0
0 0 0
0 0 0
0 0 0
0 0 0
0 0 0
0 0 0
0 0 0
0 0 0
0 0 0
0 0 0
0 0 0
0 0 0
0 0 0
0 0 0
0 0 0
0 0 0
0 0 0
0 0 0
0 0 0
0 0 0
0 0 0
0 0 0
0 0 0
0 0 0
0 0 0
0 0 0
0 0 0
0 0 0
0 0 0
0 0 0
0 0 0
0 0 0
0 0 0
0 0 0
0 0 0
0 0 0
0 0 0
0 0 0
0 0 0
0 0 0
0 0 0
0 0 0
0 0 0
0 0 0
0 0 0
0 0 0
0 0 0
0 0 0
0 0 0
0 0 0
0 0 0
0 0 0
0 0 0
0 0 0
0 0 0
0 0 0
0 0 0
0 0 0
0 0 0
0 0 0
0 0 0
0 0 0
0 0 0
0 0 0
0 0 0
0 0 0
0 0 0
0 0 0
0 0 0
0 0 0
0 0 0
0 0 0
0 0 0
0 0 0
0 0 0
0 0 0
0 0 0
0 0 0
0 0 0
0 0 0
0 0 0
0 0 0
0 0 0
0 0 0
0 0 0
0 0 0
0 0 0
0 0 0
0 0 0
0 0 0
0 0 0
0 0 0
0 0 0
0 0 0
0 0 0
0 0 0
0 0 0
0 0 0
0 0 0
0 0 0
0 0 0
0 0 0
0 0 0
0 0 0
0 0 0
0 0 0
0 0 0
0 0 0
0 0 0
0 0 0
0 0 0
0 0 0
0 0 0
0 0 0
0 0 0
0 0 0
0 0 0
0 0 0
0 0 0
0 0 0
0 0 0
0 0 0
0 0 0
0 0 0
0 0 0
0 0 0
0 0 0
0 0 0
0 0 0
0 0 0
0 0 0
0 0 0
0 0 0
0 0 0
0 0 0
0 0 0
0 0 0
0 0 0
0 0 0
0 0 0
0 0 0
0 0 0
0 0 0
0 0 0
0 0 0
0 0 0
0 0 0
0 0 0
0 0 0
0 0 0
0 0 0
0 0 0
0 0 0
0 0 0
0 0 0
0 0 0
0 0 0
0 0 0
0 0 0
0 0 0
0 0 0
0 0 0
0 0 0
0 0 0
0 0 0
0 0 0
0 0 0
0 0 0
0 0 0
0 0 0
0 0 0
0 0 0
0 0 0
0 0 0
0 0 0
0 0 0
0 0 0
0 0 0
0 0 0
0 0 0
255 255 255
255 255 255
255 255 255
255 255 255
255 255 255
255 255 255
255 255 255
255 255 255
255 255 255
255 255 255
255 255 255
255 255 255
255 255 255
255 255 255
255 255 255
255 255 255
255 255 255
255 255 255
255 255 255
255 255 255
255 255 255
255 255 255
255 255 255
255 255 255
255 255 255
255 255 255
255 255 255
255 255 255
255 255 255
255 255 255
255 255 255
255 255 255
255 255 255
255 255 255
255 255 255
255 255 255
255 255 255
255 255 255
255 255 255
255 255 255
255 255 255
255 255 255
255 255 255
255 255 255
255 255 255
255 255 255
255 255 255
255 255 255
255 255 255
255 255 255
255 255 255
255 255 255
255 255 255
255 255 255
255 255 255
255 255 255
255 255 255
255 255 255
255 255 255
255 255 255
0 0 0
0 0 0
0 0 0
0 0 0
0 0 0
0 0 0
0 0 0
0 0 0
0 0 0
0 0 0
0 0 0
0 0 0
0 0 0
0 0 0
0 0 0
0 0 0
0 0 0
0 0 0
0 0 0
0 0 0
0 0 0
0 0 0
0 0 0
0 0 0
0 0 0
0 0 0
0 0 0
0 0 0
0 0 0
0 0 0
0 0 0
0 0 0
0 0 0
0 0 0
0 0 0
0 0 0
0 0 0
0 0 0
0 0 0
0 0 0
0 0 0
0 0 0
0 0 0
0 0 0
0 0 0
0 0 0
0 0 0
0 0 0
0 0 0
0 0 0
0 0 0
0 0 0
0 0 0
0 0 0
0 0 0
0 0 0
0 0 0
0 0 0
0 0 0
0 0 0
0 0 0
0 0 0
0 0 0
0 0 0
0 0 0
0 0 0
0 0 0
0 0 0
0 0 0
0 0 0
0 0 0
0 0 0
0 0 0
0 0 0
0 0 0
0 0 0
0 0 0
0 0 0
0 0 0
0 0 0
0 0 0
0 0 0
0 0 0
0 0 0
0 0 0
0 0 0
0 0 0
0 0 0
0 0 0
0 0 0
0 0 0
0 0 0
0 0 0
0 0 0
0 0 0
0 0 0
0 0 0
0 0 0
0 0 0
0 0 0
0 0 0
0 0 0
0 0 0
0 0 0
0 0 0
0 0 0
0 0 0
0 0 0
0 0 0
0 0 0
0 0 0
0 0 0
0 0 0
0 0 0
0 0 0
0 0 0
0 0 0
0 0 0
0 0 0
0 0 0
0 0 0
0 0 0
0 0 0
0 0 0
0 0 0
0 0 0
0 0 0
0 0 0
0 0 0
0 0 0
0 0 0
0 0 0
0 0 0
0 0 0
0 0 0
0 0 0
0 0 0
0 0 0
0 0 0
0 0 0
0 0 0
0 0 0
0 0 0
0 0 0
0 0 0
0 0 0
0 0 0
0 0 0
0 0 0
0 0 0
0 0 0
0 0 0
0 0 0
0 0 0
0 0 0
0 0 0
0 0 0
0 0 0
0 0 0
0 0 0
0 0 0
0 0 0
0 0 0
0 0 0
0 0 0
0 0 0
0 0 0
0 0 0
0 0 0
0 0 0
0 0 0
0 0 0
0 0 0
0 0 0
0 0 0
0 0 0
0 0 0
0 0 0
0 0 0
0 0 0
0 0 0
0 0 0
0 0 0
0 0 0
0 0 0
0 0 0
0 0 0
0 0 0
0 0 0
0 0 0
0 0 0
0 0 0
0 0 0
0 0 0
0 0 0
0 0 0
0 0 0
0 0 0
0 0 0
0 0 0
0 0 0
0 0 0
0 0 0
0 0 0
0 0 0
0 0 0
0 0 0
0 0 0
0 0 0
0 0 0
0 0 0
0 0 0
0 0 0
0 0 0
0 0 0
0 0 0
0 0 0
0 0 0
0 0 0
0 0 0
0 0 0
0 0 0
0 0 0
0 0 0
0 0 0
0 0 0
0 0 0
0 0 0
0 0 0
0 0 0
0 0 0
0 0 0
0 0 0
0 0 0
0 0 0
0 0 0
0 0 0
0 0 0
0 0 0
0 0 0
0 0 0
0 0 0
0 0 0
0 0 0
0 0 0
0 0 0
0 0 0
0 0 0
0 0 0
0 0 0
0 0 0
0 0 0
0 0 0
0 0 0
0 0 0
0 0 0
0 0 0
0 0 0
0 0 0
0 0 0
0 0 0
0 0 0
0 0 0
0 0 0
0 0 0
0 0 0
0 0 0
0 0 0
0 0 0
0 0 0
0 0 0
0 0 0
0 0 0
0 0 0
0 0 0
0 0 0
0 0 0
0 0 0
0 0 0
0 0 0
0 0 0
0 0 0
0 0 0
0 0 0
0 0 0
0 0 0
0 0 0
0 0 0
0 0 0
0 0 0
0 0 0
0 0 0
0 0 0
0 0 0
0 0 0
0 0 0
0 0 0
0 0 0
0 0 0
0 0 0
0 0 0
0 0 0
0 0 0
0 0 0
0 0 0
0 0 0
0 0 0
0 0 0
0 0 0
0 0 0
0 0 0
0 0 0
0 0 0
0 0 0
0 0 0
0 0 0
0 0 0
0 0 0
0 0 0
0 0 0
0 0 0
0 0 0
0 0 0
0 0 0
0 0 0
0 0 0
0 0 0
0 0 0
0 0 0
0 0 0
0 0 0
0 0 0
0 0 0
0 0 0
0 0 0
0 0 0
0 0 0
0 0 0
0 0 0
0 0 0
255 255 255
255 255 255
255 255 255
255 255 255
255 255 255
255 255 255
255 255 255
255 255 255
255 255 255
255 255 255
255 255 255
255 255 255
255 255 255
255 255 255
255 255 255
255 255 255
255 255 255
255 255 255
255 255 255
255 255 255
255 255 255
255 255 255
255 255 255
255 255 255
255 255 255
255 255 255
255 255 255
255 255 255
255 255 255
255 255 255
255 255 255
255 255 255
255 255 255
255 255 255
255 255 255
255 255 255
255 255 255
255 255 255
255 255 255
255 255 255
255 255 255
255 255 255
255 255 255
255 255 255
255 255 255
255 255 255
255 255 255
255 255 255
255 255 255
255 255 255
255 255 255
255 255 255
255 255 255
255 255 255
255 255 255
255 255 255
255 255 255
255 255 255
255 255 255
255 255 255
0 0 0
0 0 0
0 0 0
0 0 0
0 0 0
0 0 0
0 0 0
0 0 0
0 0 0
0 0 0
0 0 0
0 0 0
0 0 0
0 0 0
0 0 0
0 0 0
0 0 0
0 0 0
0 0 0
0 0 0
0 0 0
0 0 0
0 0 0
0 0 0
0 0 0
0 0 0
0 0 0
0 0 0
0 0 0
0 0 0
0 0 0
0 0 0
0 0 0
0 0 0
0 0 0
0 0 0
0 0 0
0 0 0
0 0 0
0 0 0
0 0 0
0 0 0
0 0 0
0 0 0
0 0 0
0 0 0
0 0 0
0 0 0
0 0 0
0 0 0
0 0 0
0 0 0
0 0 0
0 0 0
0 0 0
0 0 0
0 0 0
0 0 0
0 0 0
0 0 0
0 0 0
0 0 0
0 0 0
0 0 0
0 0 0
0 0 0
0 0 0
0 0 0
0 0 0
0 0 0
0 0 0
0 0 0
0 0 0
0 0 0
0 0 0
0 0 0
0 0 0
0 0 0
0 0 0
0 0 0
0 0 0
0 0 0
0 0 0
0 0 0
0 0 0
0 0 0
0 0 0
0 0 0
0 0 0
0 0 0
0 0 0
0 0 0
0 0 0
0 0 0
0 0 0
0 0 0
0 0 0
0 0 0
0 0 0
0 0 0
0 0 0
0 0 0
0 0 0
0 0 0
0 0 0
0 0 0
0 0 0
0 0 0
0 0 0
0 0 0
0 0 0
0 0 0
0 0 0
0 0 0
0 0 0
0 0 0
0 0 0
0 0 0
0 0 0
0 0 0
0 0 0
0 0 0
0 0 0
0 0 0
0 0 0
0 0 0
0 0 0
0 0 0
0 0 0
0 0 0
0 0 0
0 0 0
0 0 0
0 0 0
0 0 0
0 0 0
0 0 0
0 0 0
0 0 0
0 0 0
0 0 0
0 0 0
0 0 0
0 0 0
0 0 0
0 0 0
0 0 0
0 0 0
0 0 0
0 0 0
0 0 0
0 0 0
0 0 0
0 0 0
0 0 0
0 0 0
0 0 0
0 0 0
0 0 0
0 0 0
0 0 0
0 0 0
0 0 0
0 0 0
0 0 0
0 0 0
0 0 0
0 0 0
0 0 0
0 0 0
0 0 0
0 0 0
0 0 0
0 0 0
0 0 0
0 0 0
0 0 0
0 0 0
0 0 0
0 0 0
0 0 0
0 0 0
0 0 0
0 0 0
0 0 0
0 0 0
0 0 0
0 0 0
0 0 0
0 0 0
0 0 0
0 0 0
0 0 0
0 0 0
0 0 0
0 0 0
0 0 0
0 0 0
0 0 0
0 0 0
0 0 0
0 0 0
0 0 0
0 0 0
0 0 0
0 0 0
0 0 0
0 0 0
0 0 0
0 0 0
0 0 0
0 0 0
0 0 0
0 0 0
0 0 0
0 0 0
0 0 0
0 0 0
0 0 0
0 0 0
0 0 0
0 0 0
0 0 0
0 0 0
0 0 0
0 0 0
0 0 0
0 0 0
0 0 0
0 0 0
0 0 0
0 0 0
0 0 0
0 0 0
0 0 0
0 0 0
0 0 0
0 0 0
0 0 0
0 0 0
0 0 0
0 0 0
0 0 0
0 0 0
0 0 0
0 0 0
0 0 0
0 0 0
0 0 0
0 0 0
0 0 0
0 0 0
0 0 0
0 0 0
0 0 0
0 0 0
0 0 0
0 0 0
0 0 0
0 0 0
0 0 0
0 0 0
0 0 0
0 0 0
0 0 0
0 0 0
0 0 0
0 0 0
0 0 0
0 0 0
0 0 0
0 0 0
0 0 0
0 0 0
0 0 0
0 0 0
0 0 0
0 0 0
0 0 0
0 0 0
0 0 0
0 0 0
0 0 0
0 0 0
0 0 0
0 0 0
0 0 0
0 0 0
0 0 0
0 0 0
0 0 0
0 0 0
0 0 0
0 0 0
0 0 0
0 0 0
0 0 0
0 0 0
0 0 0
0 0 0
0 0 0
0 0 0
0 0 0
0 0 0
0 0 0
0 0 0
0 0 0
0 0 0
0 0 0
0 0 0
0 0 0
0 0 0
0 0 0
0 0 0
0 0 0
0 0 0
0 0 0
0 0 0
0 0 0
0 0 0
0 0 0
0 0 0
0 0 0
0 0 0
0 0 0
0 0 0
0 0 0
0 0 0
0 0 0
0 0 0
0 0 0
0 0 0
0 0 0
0 0 0
0 0 0
0 0 0
0 0 0
0 0 0
0 0 0
0 0 0
255 255 255
255 255 255
255 255 255
255 255 255
255 255 255
255 255 255
255 255 255
255 255 255
255 255 255
255 255 255
255 255 255
255 255 255
255 255 255
255 255 255
255 255 255
255 255 255
255 255 255
255 255 255
255 255 255
255 255 255
255 255 255
255 255 255
255 255 255
255 255 255
255 255 255
255 255 255
255 255 255
255 255 255
255 255 255
255 255 255
255 255 255
255 255 255
255 255 255
255 255 255
255 255 255
255 255 255
255 255 255
255 255 255
255 255 255
255 255 255
255 255 255
255 255 255
255 255 255
255 255 255
255 255 255
255 255 255
255 255 255
255 255 255
255 255 255
255 255 255
255 255 255
255 255 255
255 255 255
255 255 255
255 255 255
255 255 255
255 255 255
255 255 255
255 255 255
255 255 255
0 0 0
0 0 0
0 0 0
0 0 0
0 0 0
0 0 0
0 0 0
0 0 0
0 0 0
0 0 0
0 0 0
0 0 0
0 0 0
0 0 0
0 0 0
0 0 0
0 0 0
0 0 0
0 0 0
0 0 0
0 0 0
0 0 0
0 0 0
0 0 0
0 0 0
0 0 0
0 0 0
0 0 0
0 0 0
0 0 0
0 0 0
0 0 0
0 0 0
0 0 0
0 0 0
0 0 0
0 0 0
0 0 0
0 0 0
0 0 0
0 0 0
0 0 0
0 0 0
0 0 0
0 0 0
0 0 0
0 0 0
0 0 0
0 0 0
0 0 0
0 0 0
0 0 0
0 0 0
0 0 0
0 0 0
0 0 0
0 0 0
0 0 0
0 0 0
0 0 0
0 0 0
0 0 0
0 0 0
0 0 0
0 0 0
0 0 0
0 0 0
0 0 0
0 0 0
0 0 0
0 0 0
0 0 0
0 0 0
0 0 0
0 0 0
0 0 0
0 0 0
0 0 0
0 0 0
0 0 0
0 0 0
0 0 0
0 0 0
0 0 0
0 0 0
0 0 0
0 0 0
0 0 0
0 0 0
0 0 0
0 0 0
0 0 0
0 0 0
0 0 0
0 0 0
0 0 0
0 0 0
0 0 0
0 0 0
0 0 0
0 0 0
0 0 0
0 0 0
0 0 0
0 0 0
0 0 0
0 0 0
0 0 0
0 0 0
0 0 0
0 0 0
0 0 0
0 0 0
0 0 0
0 0 0
0 0 0
0 0 0
0 0 0
0 0 0
0 0 0
0 0 0
0 0 0
0 0 0
0 0 0
0 0 0
0 0 0
0 0 0
0 0 0
0 0 0
0 0 0
0 0 0
0 0 0
0 0 0
0 0 0
0 0 0
0 0 0
0 0 0
0 0 0
0 0 0
0 0 0
0 0 0
0 0 0
0 0 0
0 0 0
0 0 0
0 0 0
0 0 0
0 0 0
0 0 0
0 0 0
0 0 0
0 0 0
0 0 0
0 0 0
0 0 0
0 0 0
0 0 0
0 0 0
0 0 0
0 0 0
0 0 0
0 0 0
0 0 0
0 0 0
0 0 0
0 0 0
0 0 0
0 0 0
0 0 0
0 0 0
0 0 0
0 0 0
0 0 0
0 0 0
0 0 0
0 0 0
0 0 0
0 0 0
0 0 0
0 0 0
0 0 0
0 0 0
0 0 0
0 0 0
0 0 0
0 0 0
0 0 0
0 0 0
0 0 0
0 0 0
0 0 0
0 0 0
0 0 0
0 0 0
0 0 0
0 0 0
0 0 0
0 0 0
0 0 0
0 0 0
0 0 0
0 0 0
0 0 0
0 0 0
0 0 0
0 0 0
0 0 0
0 0 0
0 0 0
0 0 0
0 0 0
0 0 0
0 0 0
0 0 0
0 0 0
0 0 0
0 0 0
0 0 0
0 0 0
0 0 0
0 0 0
0 0 0
0 0 0
0 0 0
0 0 0
0 0 0
0 0 0
0 0 0
0 0 0
0 0 0
0 0 0
0 0 0
0 0 0
0 0 0
0 0 0
0 0 0
0 0 0
0 0 0
0 0 0
0 0 0
0 0 0
0 0 0
0 0 0
0 0 0
0 0 0
0 0 0
0 0 0
0 0 0
0 0 0
0 0 0
0 0 0
0 0 0
0 0 0
0 0 0
0 0 0
0 0 0
0 0 0
0 0 0
0 0 0
0 0 0
0 0 0
0 0 0
0 0 0
0 0 0
0 0 0
0 0 0
0 0 0
0 0 0
0 0 0
0 0 0
0 0 0
0 0 0
0 0 0
0 0 0
0 0 0
0 0 0
0 0 0
0 0 0
0 0 0
0 0 0
0 0 0
0 0 0
0 0 0
0 0 0
0 0 0
0 0 0
0 0 0
0 0 0
0 0 0
0 0 0
0 0 0
0 0 0
0 0 0
0 0 0
0 0 0
0 0 0
0 0 0
0 0 0
0 0 0
0 0 0
0 0 0
0 0 0
0 0 0
0 0 0
0 0 0
0 0 0
0 0 0
0 0 0
0 0 0
0 0 0
0 0 0
0 0 0
0 0 0
0 0 0
0 0 0
0 0 0
0 0 0
0 0 0
0 0 0
0 0 0
0 0 0
0 0 0
0 0 0
0 0 0
0 0 0
0 0 0
0 0 0
0 0 0
0 0 0
0 0 0
0 0 0
0 0 0
0 0 0
0 0 0
0 0 0
0 0 0
0 0 0
0 0 0
0 0 0
255 255 255
255 255 255
255 255 255
255 255 255
255 255 255
255 255 255
255 255 255
255 255 255
255 255 255
255 255 255
255 255 255
255 255 255
255 255 255
255 255 255
255 255 255
255 255 255
255 255 255
255 255 255
255 255 255
255 255 255
255 255 255
255 255 255
255 255 255
255 255 255
255 255 255
255 255 255
255 255 255
255 255 255
255 255 255
255 255 255
255 255 255
255 255 255
255 255 255
255 255 255
255 255 255
255 255 255
255 255 255
255 255 255
255 255 255
255 255 255
255 255 255
255 255 255
255 255 255
255 255 255
255 255 255
255 255 255
255 255 255
255 255 255
255 255 255
255 255 255
255 255 255
255 255 255
255 255 255
255 255 255
255 255 255
255 255 255
255 255 255
255 255 255
255 255 255
255 255 255
255 255 255
255 255 255
0 0 0
0 0 0
0 0 0
0 0 0
0 0 0
0 0 0
0 0 0
0 0 0
0 0 0
0 0 0
0 0 0
0 0 0
0 0 0
0 0 0
0 0 0
0 0 0
0 0 0
0 0 0
0 0 0
0 0 0
0 0 0
0 0 0
0 0 0
0 0 0
0 0 0
0 0 0
0 0 0
0 0 0
0 0 0
0 0 0
0 0 0
0 0 0
0 0 0
0 0 0
0 0 0
0 0 0
0 0 0
0 0 0
0 0 0
0 0 0
0 0 0
0 0 0
0 0 0
0 0 0
0 0 0
0 0 0
0 0 0
0 0 0
0 0 0
0 0 0
0 0 0
0 0 0
0 0 0
0 0 0
0 0 0
0 0 0
0 0 0
0 0 0
0 0 0
0 0 0
0 0 0
0 0 0
0 0 0
0 0 0
0 0 0
0 0 0
0 0 0
0 0 0
0 0 0
0 0 0
0 0 0
0 0 0
0 0 0
0 0 0
0 0 0
0 0 0
0 0 0
0 0 0
0 0 0
0 0 0
0 0 0
0 0 0
0 0 0
0 0 0
0 0 0
0 0 0
0 0 0
0 0 0
0 0 0
0 0 0
0 0 0
0 0 0
0 0 0
0 0 0
0 0 0
0 0 0
0 0 0
0 0 0
0 0 0
0 0 0
0 0 0
0 0 0
0 0 0
0 0 0
0 0 0
0 0 0
0 0 0
0 0 0
0 0 0
0 0 0
0 0 0
0 0 0
0 0 0
0 0 0
0 0 0
0 0 0
0 0 0
0 0 0
0 0 0
0 0 0
0 0 0
0 0 0
0 0 0
0 0 0
0 0 0
0 0 0
0 0 0
0 0 0
0 0 0
0 0 0
0 0 0
0 0 0
0 0 0
0 0 0
0 0 0
0 0 0
0 0 0
0 0 0
0 0 0
0 0 0
0 0 0
0 0 0
0 0 0
0 0 0
0 0 0
0 0 0
0 0 0
0 0 0
0 0 0
0 0 0
0 0 0
0 0 0
0 0 0
0 0 0
0 0 0
0 0 0
0 0 0
0 0 0
0 0 0
0 0 0
0 0 0
0 0 0
0 0 0
0 0 0
0 0 0
0 0 0
0 0 0
0 0 0
0 0 0
0 0 0
0 0 0
0 0 0
0 0 0
0 0 0
0 0 0
0 0 0
0 0 0
0 0 0
0 0 0
0 0 0
0 0 0
0 0 0
0 0 0
0 0 0
0 0 0
0 0 0
0 0 0
0 0 0
0 0 0
0 0 0
0 0 0
0 0 0
0 0 0
0 0 0
0 0 0
0 0 0
0 0 0
0 0 0
0 0 0
0 0 0
0 0 0
0 0 0
0 0 0
0 0 0
0 0 0
0 0 0
0 0 0
0 0 0
0 0 0
0 0 0
0 0 0
0 0 0
0 0 0
0 0 0
0 0 0
0 0 0
0 0 0
0 0 0
0 0 0
0 0 0
0 0 0
0 0 0
0 0 0
0 0 0
0 0 0
0 0 0
0 0 0
0 0 0
0 0 0
0 0 0
0 0 0
0 0 0
0 0 0
0 0 0
0 0 0
0 0 0
0 0 0
0 0 0
0 0 0
0 0 0
0 0 0
0 0 0
0 0 0
0 0 0
0 0 0
0 0 0
0 0 0
0 0 0
0 0 0
0 0 0
0 0 0
0 0 0
0 0 0
0 0 0
0 0 0
0 0 0
0 0 0
0 0 0
0 0 0
0 0 0
0 0 0
0 0 0
0 0 0
0 0 0
0 0 0
0 0 0
0 0 0
0 0 0
0 0 0
0 0 0
0 0 0
0 0 0
0 0 0
0 0 0
0 0 0
0 0 0
0 0 0
0 0 0
0 0 0
0 0 0
0 0 0
0 0 0
0 0 0
0 0 0
0 0 0
0 0 0
0 0 0
0 0 0
0 0 0
0 0 0
0 0 0
0 0 0
0 0 0
0 0 0
0 0 0
0 0 0
0 0 0
0 0 0
0 0 0
0 0 0
0 0 0
0 0 0
0 0 0
0 0 0
0 0 0
0 0 0
0 0 0
0 0 0
0 0 0
0 0 0
0 0 0
0 0 0
0 0 0
0 0 0
0 0 0
0 0 0
0 0 0
0 0 0
0 0 0
0 0 0
0 0 0
0 0 0
0 0 0
0 0 0
0 0 0
0 0 0
0 0 0
0 0 0
0 0 0
0 0 0
0 0 0
0 0 0
0 0 0
0 0 0
0 0 0
0 0 0
0 0 0
0 0 0
255 255 255
255 255 255
255 255 255
255 255 255
255 255 255
255 255 255
255 255 255
255 255 255
255 255 255
255 255 255
255 255 255
255 255 255
255 255 255
255 255 255
255 255 255
255 255 255
255 255 255
255 255 255
255 255 255
255 255 255
255 255 255
255 255 255
255 255 255
255 255 255
255 255 255
255 255 255
255 255 255
255 255 255
255 255 255
255 255 255
255 255 255
255 255 255
255 255 255
255 255 255
255 255 255
255 255 255
255 255 255
255 255 255
255 255 255
255 255 255
255 255 255
255 255 255
255 255 255
255 255 255
255 255 255
255 255 255
255 255 255
255 255 255
255 255 255
255 255 255
255 255 255
255 255 255
255 255 255
255 255 255
255 255 255
255 255 255
255 255 255
255 255 255
255 255 255
255 255 255
255 255 255
255 255 255
0 0 0
0 0 0
0 0 0
0 0 0
0 0 0
0 0 0
0 0 0
0 0 0
0 0 0
0 0 0
0 0 0
0 0 0
0 0 0
0 0 0
0 0 0
0 0 0
0 0 0
0 0 0
0 0 0
0 0 0
0 0 0
0 0 0
0 0 0
0 0 0
0 0 0
0 0 0
0 0 0
0 0 0
0 0 0
0 0 0
0 0 0
0 0 0
0 0 0
0 0 0
0 0 0
0 0 0
0 0 0
0 0 0
0 0 0
0 0 0
0 0 0
0 0 0
0 0 0
0 0 0
0 0 0
0 0 0
0 0 0
0 0 0
0 0 0
0 0 0
0 0 0
0 0 0
0 0 0
0 0 0
0 0 0
0 0 0
0 0 0
0 0 0
0 0 0
0 0 0
0 0 0
0 0 0
0 0 0
0 0 0
0 0 0
0 0 0
0 0 0
0 0 0
0 0 0
0 0 0
0 0 0
0 0 0
0 0 0
0 0 0
0 0 0
0 0 0
0 0 0
0 0 0
0 0 0
0 0 0
0 0 0
0 0 0
0 0 0
0 0 0
0 0 0
0 0 0
0 0 0
0 0 0
0 0 0
0 0 0
0 0 0
0 0 0
0 0 0
0 0 0
0 0 0
0 0 0
0 0 0
0 0 0
0 0 0
0 0 0
0 0 0
0 0 0
0 0 0
0 0 0
0 0 0
0 0 0
0 0 0
0 0 0
0 0 0
0 0 0
0 0 0
0 0 0
0 0 0
0 0 0
0 0 0
0 0 0
0 0 0
0 0 0
0 0 0
0 0 0
0 0 0
0 0 0
0 0 0
0 0 0
0 0 0
0 0 0
0 0 0
0 0 0
0 0 0
0 0 0
0 0 0
0 0 0
0 0 0
0 0 0
0 0 0
0 0 0
0 0 0
0 0 0
0 0 0
0 0 0
0 0 0
0 0 0
0 0 0
0 0 0
0 0 0
0 0 0
0 0 0
0 0 0
0 0 0
0 0 0
0 0 0
0 0 0
0 0 0
0 0 0
0 0 0
0 0 0
0 0 0
0 0 0
0 0 0
0 0 0
0 0 0
0 0 0
0 0 0
0 0 0
0 0 0
0 0 0
0 0 0
0 0 0
0 0 0
0 0 0
0 0 0
0 0 0
0 0 0
0 0 0
0 0 0
0 0 0
0 0 0
0 0 0
0 0 0
0 0 0
0 0 0
0 0 0
0 0 0
0 0 0
0 0 0
0 0 0
0 0 0
0 0 0
0 0 0
0 0 0
0 0 0
0 0 0
0 0 0
0 0 0
0 0 0
0 0 0
0 0 0
0 0 0
0 0 0
0 0 0
0 0 0
0 0 0
0 0 0
0 0 0
0 0 0
0 0 0
0 0 0
0 0 0
0 0 0
0 0 0
0 0 0
0 0 0
0 0 0
0 0 0
0 0 0
0 0 0
0 0 0
0 0 0
0 0 0
0 0 0
0 0 0
0 0 0
0 0 0
0 0 0
0 0 0
0 0 0
0 0 0
0 0 0
0 0 0
0 0 0
0 0 0
0 0 0
0 0 0
0 0 0
0 0 0
0 0 0
0 0 0
0 0 0
0 0 0
0 0 0
0 0 0
0 0 0
0 0 0
0 0 0
0 0 0
0 0 0
0 0 0
0 0 0
0 0 0
0 0 0
0 0 0
0 0 0
0 0 0
0 0 0
0 0 0
0 0 0
0 0 0
0 0 0
0 0 0
0 0 0
0 0 0
0 0 0
0 0 0
0 0 0
0 0 0
0 0 0
0 0 0
0 0 0
0 0 0
0 0 0
0 0 0
0 0 0
0 0 0
0 0 0
0 0 0
0 0 0
0 0 0
0 0 0
0 0 0
0 0 0
0 0 0
0 0 0
0 0 0
0 0 0
0 0 0
0 0 0
0 0 0
0 0 0
0 0 0
0 0 0
0 0 0
0 0 0
0 0 0
0 0 0
0 0 0
0 0 0
0 0 0
0 0 0
0 0 0
0 0 0
0 0 0
0 0 0
0 0 0
0 0 0
0 0 0
0 0 0
0 0 0
0 0 0
0 0 0
0 0 0
0 0 0
0 0 0
0 0 0
0 0 0
0 0 0
0 0 0
0 0 0
0 0 0
0 0 0
0 0 0
0 0 0
0 0 0
0 0 0
0 0 0
0 0 0
0 0 0
0 0 0
0 0 0
0 0 0
0 0 0
0 0 0
0 0 0
0 0 0
0 0 0
0 0 0
0 0 0
0 0 0
0 0 0
255 255 255
255 255 255
255 255 255
255 255 255
255 255 255
255 255 255
255 255 255
255 255 255
255 255 255
255 255 255
255 255 255
255 255 255
255 255 255
255 255 255
255 255 255
255 255 255
255 255 255
255 255 255
255 255 255
255 255 255
255 255 255
255 255 255
255 255 255
255 255 255
255 255 255
255 255 255
255 255 255
255 255 255
255 255 255
255 255 255
255 255 255
255 255 255
255 255 255
255 255 255
255 255 255
255 255 255
255 255 255
255 255 255
255 255 255
255 255 255
255 255 255
255 255 255
255 255 255
255 255 255
255 255 255
255 255 255
255 255 255
255 255 255
255 255 255
255 255 255
255 255 255
255 255 255
255 255 255
255 255 255
255 255 255
255 255 255
255 255 255
255 255 255
255 255 255
255 255 255
255 255 255
255 255 255
0 0 0
0 0 0
0 0 0
0 0 0
0 0 0
0 0 0
0 0 0
0 0 0
0 0 0
0 0 0
0 0 0
0 0 0
0 0 0
0 0 0
0 0 0
0 0 0
0 0 0
0 0 0
0 0 0
0 0 0
0 0 0
0 0 0
0 0 0
0 0 0
0 0 0
0 0 0
0 0 0
0 0 0
0 0 0
0 0 0
0 0 0
0 0 0
0 0 0
0 0 0
0 0 0
0 0 0
0 0 0
0 0 0
0 0 0
0 0 0
0 0 0
0 0 0
0 0 0
0 0 0
0 0 0
0 0 0
0 0 0
0 0 0
0 0 0
0 0 0
0 0 0
0 0 0
0 0 0
0 0 0
0 0 0
0 0 0
0 0 0
0 0 0
0 0 0
0 0 0
0 0 0
0 0 0
0 0 0
0 0 0
0 0 0
0 0 0
0 0 0
0 0 0
0 0 0
0 0 0
0 0 0
0 0 0
0 0 0
0 0 0
0 0 0
0 0 0
0 0 0
0 0 0
0 0 0
0 0 0
0 0 0
0 0 0
0 0 0
0 0 0
0 0 0
0 0 0
0 0 0
0 0 0
0 0 0
0 0 0
0 0 0
0 0 0
0 0 0
0 0 0
0 0 0
0 0 0
0 0 0
0 0 0
0 0 0
0 0 0
0 0 0
0 0 0
0 0 0
0 0 0
0 0 0
0 0 0
0 0 0
0 0 0
0 0 0
0 0 0
0 0 0
0 0 0
0 0 0
0 0 0
0 0 0
0 0 0
0 0 0
0 0 0
0 0 0
0 0 0
0 0 0
0 0 0
0 0 0
0 0 0
0 0 0
0 0 0
0 0 0
0 0 0
0 0 0
0 0 0
0 0 0
0 0 0
0 0 0
0 0 0
0 0 0
0 0 0
0 0 0
0 0 0
0 0 0
0 0 0
0 0 0
0 0 0
0 0 0
0 0 0
0 0 0
0 0 0
0 0 0
0 0 0
0 0 0
0 0 0
0 0 0
0 0 0
0 0 0
0 0 0
0 0 0
0 0 0
0 0 0
0 0 0
0 0 0
0 0 0
0 0 0
0 0 0
0 0 0
0 0 0
0 0 0
0 0 0
0 0 0
0 0 0
0 0 0
0 0 0
0 0 0
0 0 0
0 0 0
0 0 0
0 0 0
0 0 0
0 0 0
0 0 0
0 0 0
0 0 0
0 0 0
0 0 0
0 0 0
0 0 0
0 0 0
0 0 0
0 0 0
0 0 0
0 0 0
0 0 0
0 0 0
0 0 0
0 0 0
0 0 0
0 0 0
0 0 0
0 0 0
0 0 0
0 0 0
0 0 0
0 0 0
0 0 0
0 0 0
0 0 0
0 0 0
0 0 0
0 0 0
0 0 0
0 0 0
0 0 0
0 0 0
0 0 0
0 0 0
0 0 0
0 0 0
0 0 0
0 0 0
0 0 0
0 0 0
0 0 0
0 0 0
0 0 0
0 0 0
0 0 0
0 0 0
0 0 0
0 0 0
0 0 0
0 0 0
0 0 0
0 0 0
0 0 0
0 0 0
0 0 0
0 0 0
0 0 0
0 0 0
0 0 0
0 0 0
0 0 0
0 0 0
0 0 0
0 0 0
0 0 0
0 0 0
0 0 0
0 0 0
0 0 0
0 0 0
0 0 0
0 0 0
0 0 0
0 0 0
0 0 0
0 0 0
0 0 0
0 0 0
0 0 0
0 0 0
0 0 0
0 0 0
0 0 0
0 0 0
0 0 0
0 0 0
0 0 0
0 0 0
0 0 0
0 0 0
0 0 0
0 0 0
0 0 0
0 0 0
0 0 0
0 0 0
0 0 0
0 0 0
0 0 0
0 0 0
0 0 0
0 0 0
0 0 0
0 0 0
0 0 0
0 0 0
0 0 0
0 0 0
0 0 0
0 0 0
0 0 0
0 0 0
0 0 0
0 0 0
0 0 0
0 0 0
0 0 0
0 0 0
0 0 0
0 0 0
0 0 0
0 0 0
0 0 0
0 0 0
0 0 0
0 0 0
0 0 0
0 0 0
0 0 0
0 0 0
0 0 0
0 0 0
0 0 0
0 0 0
0 0 0
0 0 0
0 0 0
0 0 0
0 0 0
0 0 0
0 0 0
0 0 0
0 0 0
0 0 0
0 0 0
0 0 0
0 0 0
0 0 0
0 0 0
0 0 0
0 0 0
0 0 0
0 0 0
0 0 0
0 0 0
0 0 0
0 0 0
0 0 0
0 0 0
255 255 255
255 255 255
255 255 255
255 255 255
255 255 255
255 255 255
255 255 255
255 255 255
255 255 255
255 255 255
255 255 255
255 255 255
255 255 255
255 255 255
255 255 255
255 255 255
255 255 255
255 255 255
255 255 255
255 255 255
255 255 255
255 255 255
255 255 255
255 255 255
255 255 255
255 255 255
255 255 255
255 255 255
255 255 255
255 255 255
255 255 255
255 255 255
255 255 255
255 255 255
255 255 255
255 255 255
255 255 255
255 255 255
255 255 255
255 255 255
255 255 255
255 255 255
255 255 255
255 255 255
255 255 255
255 255 255
255 255 255
255 255 255
255 255 255
255 255 255
255 255 255
255 255 255
255 255 255
255 255 255
255 255 255
255 255 255
255 255 255
255 255 255
255 255 255
255 255 255
255 255 255
255 255 255
0 0 0
0 0 0
0 0 0
0 0 0
0 0 0
0 0 0
0 0 0
0 0 0
0 0 0
0 0 0
0 0 0
0 0 0
0 0 0
0 0 0
0 0 0
0 0 0
0 0 0
0 0 0
0 0 0
0 0 0
0 0 0
0 0 0
0 0 0
0 0 0
0 0 0
0 0 0
0 0 0
0 0 0
0 0 0
0 0 0
0 0 0
0 0 0
0 0 0
0 0 0
0 0 0
0 0 0
0 0 0
0 0 0
0 0 0
0 0 0
0 0 0
0 0 0
0 0 0
0 0 0
0 0 0
0 0 0
0 0 0
0 0 0
0 0 0
0 0 0
0 0 0
0 0 0
0 0 0
0 0 0
0 0 0
0 0 0
0 0 0
0 0 0
0 0 0
0 0 0
0 0 0
0 0 0
0 0 0
0 0 0
0 0 0
0 0 0
0 0 0
0 0 0
0 0 0
0 0 0
0 0 0
0 0 0
0 0 0
0 0 0
0 0 0
0 0 0
0 0 0
0 0 0
0 0 0
0 0 0
0 0 0
0 0 0
0 0 0
0 0 0
0 0 0
0 0 0
0 0 0
0 0 0
0 0 0
0 0 0
0 0 0
0 0 0
0 0 0
0 0 0
0 0 0
0 0 0
0 0 0
0 0 0
0 0 0
0 0 0
0 0 0
0 0 0
0 0 0
0 0 0
0 0 0
0 0 0
0 0 0
0 0 0
0 0 0
0 0 0
0 0 0
0 0 0
0 0 0
0 0 0
0 0 0
0 0 0
0 0 0
0 0 0
0 0 0
0 0 0
0 0 0
0 0 0
0 0 0
0 0 0
0 0 0
0 0 0
0 0 0
0 0 0
0 0 0
0 0 0
0 0 0
0 0 0
0 0 0
0 0 0
0 0 0
0 0 0
0 0 0
0 0 0
0 0 0
0 0 0
0 0 0
0 0 0
0 0 0
0 0 0
0 0 0
0 0 0
0 0 0
0 0 0
0 0 0
0 0 0
0 0 0
0 0 0
0 0 0
0 0 0
0 0 0
0 0 0
0 0 0
0 0 0
0 0 0
0 0 0
0 0 0
0 0 0
0 0 0
0 0 0
0 0 0
0 0 0
0 0 0
0 0 0
0 0 0
0 0 0
0 0 0
0 0 0
0 0 0
0 0 0
0 0 0
0 0 0
0 0 0
0 0 0
0 0 0
0 0 0
0 0 0
0 0 0
0 0 0
0 0 0
0 0 0
0 0 0
0 0 0
0 0 0
0 0 0
0 0 0
0 0 0
0 0 0
0 0 0
0 0 0
0 0 0
0 0 0
0 0 0
0 0 0
0 0 0
0 0 0
0 0 0
0 0 0
0 0 0
0 0 0
0 0 0
0 0 0
0 0 0
0 0 0
0 0 0
0 0 0
0 0 0
0 0 0
0 0 0
0 0 0
0 0 0
0 0 0
0 0 0
0 0 0
0 0 0
0 0 0
0 0 0
0 0 0
0 0 0
0 0 0
0 0 0
0 0 0
0 0 0
0 0 0
0 0 0
0 0 0
0 0 0
0 0 0
0 0 0
0 0 0
0 0 0
0 0 0
0 0 0
0 0 0
0 0 0
0 0 0
0 0 0
0 0 0
0 0 0
0 0 0
0 0 0
0 0 0
0 0 0
0 0 0
0 0 0
0 0 0
0 0 0
0 0 0
0 0 0
0 0 0
0 0 0
0 0 0
0 0 0
0 0 0
0 0 0
0 0 0
0 0 0
0 0 0
0 0 0
0 0 0
0 0 0
0 0 0
0 0 0
0 0 0
0 0 0
0 0 0
0 0 0
0 0 0
0 0 0
0 0 0
0 0 0
0 0 0
0 0 0
0 0 0
0 0 0
0 0 0
0 0 0
0 0 0
0 0 0
0 0 0
0 0 0
0 0 0
0 0 0
0 0 0
0 0 0
0 0 0
0 0 0
0 0 0
0 0 0
0 0 0
0 0 0
0 0 0
0 0 0
0 0 0
0 0 0
0 0 0
0 0 0
0 0 0
0 0 0
0 0 0
0 0 0
0 0 0
0 0 0
0 0 0
0 0 0
0 0 0
0 0 0
0 0 0
0 0 0
0 0 0
0 0 0
0 0 0
0 0 0
0 0 0
0 0 0
0 0 0
0 0 0
0 0 0
0 0 0
0 0 0
0 0 0
0 0 0
0 0 0
0 0 0
0 0 0
0 0 0
0 0 0
0 0 0
0 0 0
0 0 0
0 0 0
0 0 0
0 0 0
0 0 0
255 255 255
255 255 255
255 255 255
255 255 255
255 255 255
255 255 255
255 255 255
255 255 255
255 255 255
255 255 255
255 255 255
255 255 255
255 255 255
255 255 255
255 255 255
255 255 255
255 255 255
255 255 255
255 255 255
255 255 255
255 255 255
255 255 255
255 255 255
255 255 255
255 255 255
255 255 255
255 255 255
255 255 255
255 255 255
255 255 255
255 255 255
255 255 255
255 255 255
255 255 255
255 255 255
255 255 255
255 255 255
255 255 255
255 255 255
255 255 255
255 255 255
255 255 255
255 255 255
255 255 255
255 255 255
255 255 255
255 255 255
255 255 255
255 255 255
255 255 255
255 255 255
255 255 255
255 255 255
255 255 255
255 255 255
255 255 255
255 255 255
255 255 255
255 255 255
255 255 255
255 255 255
255 255 255
0 0 0
0 0 0
0 0 0
0 0 0
0 0 0
0 0 0
0 0 0
0 0 0
0 0 0
0 0 0
0 0 0
0 0 0
0 0 0
0 0 0
0 0 0
0 0 0
0 0 0
0 0 0
0 0 0
0 0 0
0 0 0
0 0 0
0 0 0
0 0 0
0 0 0
0 0 0
0 0 0
0 0 0
0 0 0
0 0 0
0 0 0
0 0 0
0 0 0
0 0 0
0 0 0
0 0 0
0 0 0
0 0 0
0 0 0
0 0 0
0 0 0
0 0 0
0 0 0
0 0 0
0 0 0
0 0 0
0 0 0
0 0 0
0 0 0
0 0 0
0 0 0
0 0 0
0 0 0
0 0 0
0 0 0
0 0 0
0 0 0
0 0 0
0 0 0
0 0 0
0 0 0
0 0 0
0 0 0
0 0 0
0 0 0
0 0 0
0 0 0
0 0 0
0 0 0
0 0 0
0 0 0
0 0 0
0 0 0
0 0 0
0 0 0
0 0 0
0 0 0
0 0 0
0 0 0
0 0 0
0 0 0
0 0 0
0 0 0
0 0 0
0 0 0
0 0 0
0 0 0
0 0 0
0 0 0
0 0 0
0 0 0
0 0 0
0 0 0
0 0 0
0 0 0
0 0 0
0 0 0
0 0 0
0 0 0
0 0 0
0 0 0
0 0 0
0 0 0
0 0 0
0 0 0
0 0 0
0 0 0
0 0 0
0 0 0
0 0 0
0 0 0
0 0 0
0 0 0
0 0 0
0 0 0
0 0 0
0 0 0
0 0 0
0 0 0
0 0 0
0 0 0
0 0 0
0 0 0
0 0 0
0 0 0
0 0 0
0 0 0
0 0 0
0 0 0
0 0 0
0 0 0
0 0 0
0 0 0
0 0 0
0 0 0
0 0 0
0 0 0
0 0 0
0 0 0
0 0 0
0 0 0
0 0 0
0 0 0
0 0 0
0 0 0
0 0 0
0 0 0
0 0 0
0 0 0
0 0 0
0 0 0
0 0 0
0 0 0
0 0 0
0 0 0
0 0 0
0 0 0
0 0 0
0 0 0
0 0 0
0 0 0
0 0 0
0 0 0
0 0 0
0 0 0
0 0 0
0 0 0
0 0 0
0 0 0
0 0 0
0 0 0
0 0 0
0 0 0
0 0 0
0 0 0
0 0 0
0 0 0
0 0 0
0 0 0
0 0 0
0 0 0
0 0 0
0 0 0
0 0 0
0 0 0
0 0 0
0 0 0
0 0 0
0 0 0
0 0 0
0 0 0
0 0 0
0 0 0
0 0 0
0 0 0
0 0 0
0 0 0
0 0 0
0 0 0
0 0 0
0 0 0
0 0 0
0 0 0
0 0 0
0 0 0
0 0 0
0 0 0
0 0 0
0 0 0
0 0 0
0 0 0
0 0 0
0 0 0
0 0 0
0 0 0
0 0 0
0 0 0
0 0 0
0 0 0
0 0 0
0 0 0
0 0 0
0 0 0
0 0 0
0 0 0
0 0 0
0 0 0
0 0 0
0 0 0
0 0 0
0 0 0
0 0 0
0 0 0
0 0 0
0 0 0
0 0 0
0 0 0
0 0 0
0 0 0
0 0 0
0 0 0
0 0 0
0 0 0
0 0 0
0 0 0
0 0 0
0 0 0
0 0 0
0 0 0
0 0 0
0 0 0
0 0 0
0 0 0
0 0 0
0 0 0
0 0 0
0 0 0
0 0 0
0 0 0
0 0 0
0 0 0
0 0 0
0 0 0
0 0 0
0 0 0
0 0 0
0 0 0
0 0 0
0 0 0
0 0 0
0 0 0
0 0 0
0 0 0
0 0 0
0 0 0
0 0 0
0 0 0
0 0 0
0 0 0
0 0 0
0 0 0
0 0 0
0 0 0
0 0 0
0 0 0
0 0 0
0 0 0
0 0 0
0 0 0
0 0 0
0 0 0
0 0 0
0 0 0
0 0 0
0 0 0
0 0 0
0 0 0
0 0 0
0 0 0
0 0 0
0 0 0
0 0 0
0 0 0
0 0 0
0 0 0
0 0 0
0 0 0
0 0 0
0 0 0
0 0 0
0 0 0
0 0 0
0 0 0
0 0 0
0 0 0
0 0 0
0 0 0
0 0 0
0 0 0
0 0 0
0 0 0
0 0 0
0 0 0
0 0 0
0 0 0
0 0 0
0 0 0
0 0 0
0 0 0
0 0 0
0 0 0
0 0 0
0 0 0
0 0 0
0 0 0
0 0 0
0 0 0
0 0 0
255 255 255
255 255 255
255 255 255
255 255 255
255 255 255
255 255 255
255 255 255
255 255 255
255 255 255
255 255 255
255 255 255
255 255 255
255 255 255
255 255 255
255 255 255
255 255 255
255 255 255
255 255 255
255 255 255
255 255 255
255 255 255
255 255 255
255 255 255
255 255 255
255 255 255
255 255 255
255 255 255
255 255 255
255 255 255
255 255 255
255 255 255
255 255 255
255 255 255
255 255 255
255 255 255
255 255 255
255 255 255
255 255 255
255 255 255
255 255 255
255 255 255
255 255 255
255 255 255
255 255 255
255 255 255
255 255 255
255 255 255
255 255 255
255 255 255
255 255 255
255 255 255
255 255 255
255 255 255
255 255 255
255 255 255
255 255 255
255 255 255
255 255 255
255 255 255
255 255 255
255 255 255
255 255 255
0 0 0
0 0 0
0 0 0
0 0 0
0 0 0
0 0 0
0 0 0
0 0 0
0 0 0
0 0 0
0 0 0
0 0 0
0 0 0
0 0 0
0 0 0
0 0 0
0 0 0
0 0 0
0 0 0
0 0 0
0 0 0
0 0 0
0 0 0
0 0 0
0 0 0
0 0 0
0 0 0
0 0 0
0 0 0
0 0 0
0 0 0
0 0 0
0 0 0
0 0 0
0 0 0
0 0 0
0 0 0
0 0 0
0 0 0
0 0 0
0 0 0
0 0 0
0 0 0
0 0 0
0 0 0
0 0 0
0 0 0
0 0 0
0 0 0
0 0 0
0 0 0
0 0 0
0 0 0
0 0 0
0 0 0
0 0 0
0 0 0
0 0 0
0 0 0
0 0 0
0 0 0
0 0 0
0 0 0
0 0 0
0 0 0
0 0 0
0 0 0
0 0 0
0 0 0
0 0 0
0 0 0
0 0 0
0 0 0
0 0 0
0 0 0
0 0 0
0 0 0
0 0 0
0 0 0
0 0 0
0 0 0
0 0 0
0 0 0
0 0 0
0 0 0
0 0 0
0 0 0
0 0 0
0 0 0
0 0 0
0 0 0
0 0 0
0 0 0
0 0 0
0 0 0
0 0 0
0 0 0
0 0 0
0 0 0
0 0 0
0 0 0
0 0 0
0 0 0
0 0 0
0 0 0
0 0 0
0 0 0
0 0 0
0 0 0
0 0 0
0 0 0
0 0 0
0 0 0
0 0 0
0 0 0
0 0 0
0 0 0
0 0 0
0 0 0
0 0 0
0 0 0
0 0 0
0 0 0
0 0 0
0 0 0
0 0 0
0 0 0
0 0 0
0 0 0
0 0 0
0 0 0
0 0 0
0 0 0
0 0 0
0 0 0
0 0 0
0 0 0
0 0 0
0 0 0
0 0 0
0 0 0
0 0 0
0 0 0
0 0 0
0 0 0
0 0 0
0 0 0
0 0 0
0 0 0
0 0 0
0 0 0
0 0 0
0 0 0
0 0 0
0 0 0
0 0 0
0 0 0
0 0 0
0 0 0
0 0 0
0 0 0
0 0 0
0 0 0
0 0 0
0 0 0
0 0 0
0 0 0
0 0 0
0 0 0
0 0 0
0 0 0
0 0 0
0 0 0
0 0 0
0 0 0
0 0 0
0 0 0
0 0 0
0 0 0
0 0 0
0 0 0
0 0 0
0 0 0
0 0 0
0 0 0
0 0 0
0 0 0
0 0 0
0 0 0
0 0 0
0 0 0
0 0 0
0 0 0
0 0 0
0 0 0
0 0 0
0 0 0
0 0 0
0 0 0
0 0 0
0 0 0
0 0 0
0 0 0
0 0 0
0 0 0
0 0 0
0 0 0
0 0 0
0 0 0
0 0 0
0 0 0
0 0 0
0 0 0
0 0 0
0 0 0
0 0 0
0 0 0
0 0 0
0 0 0
0 0 0
0 0 0
0 0 0
0 0 0
0 0 0
0 0 0
0 0 0
0 0 0
0 0 0
0 0 0
0 0 0
0 0 0
0 0 0
0 0 0
0 0 0
0 0 0
0 0 0
0 0 0
0 0 0
0 0 0
0 0 0
0 0 0
0 0 0
0 0 0
0 0 0
0 0 0
0 0 0
0 0 0
0 0 0
0 0 0
0 0 0
0 0 0
0 0 0
0 0 0
0 0 0
0 0 0
0 0 0
0 0 0
0 0 0
0 0 0
0 0 0
0 0 0
0 0 0
0 0 0
0 0 0
0 0 0
0 0 0
0 0 0
0 0 0
0 0 0
0 0 0
0 0 0
0 0 0
0 0 0
0 0 0
0 0 0
0 0 0
0 0 0
0 0 0
0 0 0
0 0 0
0 0 0
0 0 0
0 0 0
0 0 0
0 0 0
0 0 0
0 0 0
0 0 0
0 0 0
0 0 0
0 0 0
0 0 0
0 0 0
0 0 0
0 0 0
0 0 0
0 0 0
0 0 0
0 0 0
0 0 0
0 0 0
0 0 0
0 0 0
0 0 0
0 0 0
0 0 0
0 0 0
0 0 0
0 0 0
0 0 0
0 0 0
0 0 0
0 0 0
0 0 0
0 0 0
0 0 0
0 0 0
0 0 0
0 0 0
0 0 0
0 0 0
0 0 0
0 0 0
0 0 0
0 0 0
0 0 0
0 0 0
0 0 0
0 0 0
0 0 0
0 0 0
0 0 0
0 0 0
0 0 0
0 0 0
0 0 0
0 0 0
0 0 0
255 255 255
255 255 255
255 255 255
255 255 255
255 255 255
255 255 255
255 255 255
255 255 255
255 255 255
255 255 255
255 255 255
255 255 255
255 255 255
255 255 255
255 255 255
255 255 255
255 255 255
255 255 255
255 255 255
255 255 255
255 255 255
255 255 255
255 255 255
255 255 255
255 255 255
255 255 255
255 255 255
255 255 255
255 255 255
255 255 255
255 255 255
255 255 255
255 255 255
255 255 255
255 255 255
255 255 255
255 255 255
255 255 255
255 255 255
255 255 255
255 255 255
255 255 255
255 255 255
255 255 255
255 255 255
255 255 255
255 255 255
255 255 255
255 255 255
255 255 255
255 255 255
255 255 255
255 255 255
255 255 255
255 255 255
255 255 255
255 255 255
255 255 255
255 255 255
255 255 255
255 255 255
255 255 255
0 0 0
0 0 0
0 0 0
0 0 0
0 0 0
0 0 0
0 0 0
0 0 0
0 0 0
0 0 0
0 0 0
0 0 0
0 0 0
0 0 0
0 0 0
0 0 0
0 0 0
0 0 0
0 0 0
0 0 0
0 0 0
0 0 0
0 0 0
0 0 0
0 0 0
0 0 0
0 0 0
0 0 0
0 0 0
0 0 0
0 0 0
0 0 0
0 0 0
0 0 0
0 0 0
0 0 0
0 0 0
0 0 0
0 0 0
0 0 0
0 0 0
0 0 0
0 0 0
0 0 0
0 0 0
0 0 0
0 0 0
0 0 0
0 0 0
0 0 0
0 0 0
0 0 0
0 0 0
0 0 0
0 0 0
0 0 0
0 0 0
0 0 0
0 0 0
0 0 0
0 0 0
0 0 0
0 0 0
0 0 0
0 0 0
0 0 0
0 0 0
0 0 0
0 0 0
0 0 0
0 0 0
0 0 0
0 0 0
0 0 0
0 0 0
0 0 0
0 0 0
0 0 0
0 0 0
0 0 0
0 0 0
0 0 0
0 0 0
0 0 0
0 0 0
0 0 0
0 0 0
0 0 0
0 0 0
0 0 0
0 0 0
0 0 0
0 0 0
0 0 0
0 0 0
0 0 0
0 0 0
0 0 0
0 0 0
0 0 0
0 0 0
0 0 0
0 0 0
0 0 0
0 0 0
0 0 0
0 0 0
0 0 0
0 0 0
0 0 0
0 0 0
0 0 0
0 0 0
0 0 0
0 0 0
0 0 0
0 0 0
0 0 0
0 0 0
0 0 0
0 0 0
0 0 0
0 0 0
0 0 0
0 0 0
0 0 0
0 0 0
0 0 0
0 0 0
0 0 0
0 0 0
0 0 0
0 0 0
0 0 0
0 0 0
0 0 0
0 0 0
0 0 0
0 0 0
0 0 0
0 0 0
0 0 0
0 0 0
0 0 0
0 0 0
0 0 0
0 0 0
0 0 0
0 0 0
0 0 0
0 0 0
0 0 0
0 0 0
0 0 0
0 0 0
0 0 0
0 0 0
0 0 0
0 0 0
0 0 0
0 0 0
0 0 0
0 0 0
0 0 0
0 0 0
0 0 0
0 0 0
0 0 0
0 0 0
0 0 0
0 0 0
0 0 0
0 0 0
0 0 0
0 0 0
0 0 0
0 0 0
0 0 0
0 0 0
0 0 0
0 0 0
0 0 0
0 0 0
0 0 0
0 0 0
0 0 0
0 0 0
0 0 0
0 0 0
0 0 0
0 0 0
0 0 0
0 0 0
0 0 0
0 0 0
0 0 0
0 0 0
0 0 0
0 0 0
0 0 0
0 0 0
0 0 0
0 0 0
0 0 0
0 0 0
0 0 0
0 0 0
0 0 0
0 0 0
0 0 0
0 0 0
0 0 0
0 0 0
0 0 0
0 0 0
0 0 0
0 0 0
0 0 0
0 0 0
0 0 0
0 0 0
0 0 0
0 0 0
0 0 0
0 0 0
0 0 0
0 0 0
0 0 0
0 0 0
0 0 0
0 0 0
0 0 0
0 0 0
0 0 0
0 0 0
0 0 0
0 0 0
0 0 0
0 0 0
0 0 0
0 0 0
0 0 0
0 0 0
0 0 0
0 0 0
0 0 0
0 0 0
0 0 0
0 0 0
0 0 0
0 0 0
0 0 0
0 0 0
0 0 0
0 0 0
0 0 0
0 0 0
0 0 0
0 0 0
0 0 0
0 0 0
0 0 0
0 0 0
0 0 0
0 0 0
0 0 0
0 0 0
0 0 0
0 0 0
0 0 0
0 0 0
0 0 0
0 0 0
0 0 0
0 0 0
0 0 0
0 0 0
0 0 0
0 0 0
0 0 0
0 0 0
0 0 0
0 0 0
0 0 0
0 0 0
0 0 0
0 0 0
0 0 0
0 0 0
0 0 0
0 0 0
0 0 0
0 0 0
0 0 0
0 0 0
0 0 0
0 0 0
0 0 0
0 0 0
0 0 0
0 0 0
0 0 0
0 0 0
0 0 0
0 0 0
0 0 0
0 0 0
0 0 0
0 0 0
0 0 0
0 0 0
0 0 0
0 0 0
0 0 0
0 0 0
0 0 0
0 0 0
0 0 0
0 0 0
0 0 0
0 0 0
0 0 0
0 0 0
0 0 0
0 0 0
0 0 0
0 0 0
0 0 0
0 0 0
0 0 0
0 0 0
0 0 0
0 0 0
0 0 0
0 0 0
0 0 0
0 0 0
0 0 0
255 255 255
255 255 255
255 255 255
255 255 255
255 255 255
255 255 255
255 255 255
255 255 255
255 255 255
255 255 255
255 255 255
255 255 255
255 255 255
255 255 255
255 255 255
255 255 255
255 255 255
255 255 255
255 255 255
255 255 255
255 255 255
255 255 255
255 255 255
255 255 255
255 255 255
255 255 255
255 255 255
255 255 255
255 255 255
255 255 255
255 255 255
255 255 255
255 255 255
255 255 255
255 255 255
255 255 255
255 255 255
255 255 255
255 255 255
255 255 255
255 255 255
255 255 255
255 255 255
255 255 255
255 255 255
255 255 255
255 255 255
255 255 255
255 255 255
255 255 255
255 255 255
255 255 255
255 255 255
255 255 255
255 255 255
255 255 255
255 255 255
255 255 255
255 255 255
255 255 255
255 255 255
255 255 255
0 0 0
0 0 0
0 0 0
0 0 0
0 0 0
0 0 0
0 0 0
0 0 0
0 0 0
0 0 0
0 0 0
0 0 0
0 0 0
0 0 0
0 0 0
0 0 0
0 0 0
0 0 0
0 0 0
0 0 0
0 0 0
0 0 0
0 0 0
0 0 0
0 0 0
0 0 0
0 0 0
0 0 0
0 0 0
0 0 0
0 0 0
0 0 0
0 0 0
0 0 0
0 0 0
0 0 0
0 0 0
0 0 0
0 0 0
0 0 0
0 0 0
0 0 0
0 0 0
0 0 0
0 0 0
0 0 0
0 0 0
0 0 0
0 0 0
0 0 0
0 0 0
0 0 0
0 0 0
0 0 0
0 0 0
0 0 0
0 0 0
0 0 0
0 0 0
0 0 0
0 0 0
0 0 0
0 0 0
0 0 0
0 0 0
0 0 0
0 0 0
0 0 0
0 0 0
0 0 0
0 0 0
0 0 0
0 0 0
0 0 0
0 0 0
0 0 0
0 0 0
0 0 0
0 0 0
0 0 0
0 0 0
0 0 0
0 0 0
0 0 0
0 0 0
0 0 0
0 0 0
0 0 0
0 0 0
0 0 0
0 0 0
0 0 0
0 0 0
0 0 0
0 0 0
0 0 0
0 0 0
0 0 0
0 0 0
0 0 0
0 0 0
0 0 0
0 0 0
0 0 0
0 0 0
0 0 0
0 0 0
0 0 0
0 0 0
0 0 0
0 0 0
0 0 0
0 0 0
0 0 0
0 0 0
0 0 0
0 0 0
0 0 0
0 0 0
0 0 0
0 0 0
0 0 0
0 0 0
0 0 0
0 0 0
0 0 0
0 0 0
0 0 0
0 0 0
0 0 0
0 0 0
0 0 0
0 0 0
0 0 0
0 0 0
0 0 0
0 0 0
0 0 0
0 0 0
0 0 0
0 0 0
0 0 0
0 0 0
0 0 0
0 0 0
0 0 0
0 0 0
0 0 0
0 0 0
0 0 0
0 0 0
0 0 0
0 0 0
0 0 0
0 0 0
0 0 0
0 0 0
0 0 0
0 0 0
0 0 0
0 0 0
0 0 0
0 0 0
0 0 0
0 0 0
0 0 0
0 0 0
0 0 0
0 0 0
0 0 0
0 0 0
0 0 0
0 0 0
0 0 0
0 0 0
0 0 0
0 0 0
0 0 0
0 0 0
0 0 0
0 0 0
0 0 0
0 0 0
0 0 0
0 0 0
0 0 0
0 0 0
0 0 0
0 0 0
0 0 0
0 0 0
0 0 0
0 0 0
0 0 0
0 0 0
0 0 0
0 0 0
0 0 0
0 0 0
0 0 0
0 0 0
0 0 0
0 0 0
0 0 0
0 0 0
0 0 0
0 0 0
0 0 0
0 0 0
0 0 0
0 0 0
0 0 0
0 0 0
0 0 0
0 0 0
0 0 0
0 0 0
0 0 0
0 0 0
0 0 0
0 0 0
0 0 0
0 0 0
0 0 0
0 0 0
0 0 0
0 0 0
0 0 0
0 0 0
0 0 0
0 0 0
0 0 0
0 0 0
0 0 0
0 0 0
0 0 0
0 0 0
0 0 0
0 0 0
0 0 0
0 0 0
0 0 0
0 0 0
0 0 0
0 0 0
0 0 0
0 0 0
0 0 0
0 0 0
0 0 0
0 0 0
0 0 0
0 0 0
0 0 0
0 0 0
0 0 0
0 0 0
0 0 0
0 0 0
0 0 0
0 0 0
0 0 0
0 0 0
0 0 0
0 0 0
0 0 0
0 0 0
0 0 0
0 0 0
0 0 0
0 0 0
0 0 0
0 0 0
0 0 0
0 0 0
0 0 0
0 0 0
0 0 0
0 0 0
0 0 0
0 0 0
0 0 0
0 0 0
0 0 0
0 0 0
0 0 0
0 0 0
0 0 0
0 0 0
0 0 0
0 0 0
0 0 0
0 0 0
0 0 0
0 0 0
0 0 0
0 0 0
0 0 0
0 0 0
0 0 0
0 0 0
0 0 0
0 0 0
0 0 0
0 0 0
0 0 0
0 0 0
0 0 0
0 0 0
0 0 0
0 0 0
0 0 0
0 0 0
0 0 0
0 0 0
0 0 0
0 0 0
0 0 0
0 0 0
0 0 0
0 0 0
0 0 0
0 0 0
0 0 0
0 0 0
0 0 0
0 0 0
0 0 0
0 0 0
0 0 0
0 0 0
0 0 0
0 0 0
0 0 0
0 0 0
0 0 0
0 0 0
0 0 0
255 255 255
255 255 255
255 255 255
255 255 255
255 255 255
255 255 255
255 255 255
255 255 255
255 255 255
255 255 255
255 255 255
255 255 255
255 255 255
255 255 255
255 255 255
255 255 255
255 255 255
255 255 255
255 255 255
255 255 255
255 255 255
255 255 255
255 255 255
255 255 255
255 255 255
255 255 255
255 255 255
255 255 255
255 255 255
255 255 255
255 255 255
255 255 255
255 255 255
255 255 255
255 255 255
255 255 255
255 255 255
255 255 255
255 255 255
255 255 255
255 255 255
255 255 255
255 255 255
255 255 255
255 255 255
255 255 255
255 255 255
255 255 255
255 255 255
255 255 255
255 255 255
255 255 255
255 255 255
255 255 255
255 255 255
255 255 255
255 255 255
255 255 255
255 255 255
255 255 255
255 255 255
255 255 255
0 0 0
0 0 0
0 0 0
0 0 0
0 0 0
0 0 0
0 0 0
0 0 0
0 0 0
0 0 0
0 0 0
0 0 0
0 0 0
0 0 0
0 0 0
0 0 0
0 0 0
0 0 0
0 0 0
0 0 0
0 0 0
0 0 0
0 0 0
0 0 0
0 0 0
0 0 0
0 0 0
0 0 0
0 0 0
0 0 0
0 0 0
0 0 0
0 0 0
0 0 0
0 0 0
0 0 0
0 0 0
0 0 0
0 0 0
0 0 0
0 0 0
0 0 0
0 0 0
0 0 0
0 0 0
0 0 0
0 0 0
0 0 0
0 0 0
0 0 0
0 0 0
0 0 0
0 0 0
0 0 0
0 0 0
0 0 0
0 0 0
0 0 0
0 0 0
0 0 0
0 0 0
0 0 0
0 0 0
0 0 0
0 0 0
0 0 0
0 0 0
0 0 0
0 0 0
0 0 0
0 0 0
0 0 0
0 0 0
0 0 0
0 0 0
0 0 0
0 0 0
0 0 0
0 0 0
0 0 0
0 0 0
0 0 0
0 0 0
0 0 0
0 0 0
0 0 0
0 0 0
0 0 0
0 0 0
0 0 0
0 0 0
0 0 0
0 0 0
0 0 0
0 0 0
0 0 0
0 0 0
0 0 0
0 0 0
0 0 0
0 0 0
0 0 0
0 0 0
0 0 0
0 0 0
0 0 0
0 0 0
0 0 0
0 0 0
0 0 0
0 0 0
0 0 0
0 0 0
0 0 0
0 0 0
0 0 0
0 0 0
0 0 0
0 0 0
0 0 0
0 0 0
0 0 0
0 0 0
0 0 0
0 0 0
0 0 0
0 0 0
0 0 0
0 0 0
0 0 0
0 0 0
0 0 0
0 0 0
0 0 0
0 0 0
0 0 0
0 0 0
0 0 0
0 0 0
0 0 0
0 0 0
0 0 0
0 0 0
0 0 0
0 0 0
0 0 0
0 0 0
0 0 0
0 0 0
0 0 0
0 0 0
0 0 0
0 0 0
0 0 0
0 0 0
0 0 0
0 0 0
0 0 0
0 0 0
0 0 0
0 0 0
0 0 0
0 0 0
0 0 0
0 0 0
0 0 0
0 0 0
0 0 0
0 0 0
0 0 0
0 0 0
0 0 0
0 0 0
0 0 0
0 0 0
0 0 0
0 0 0
0 0 0
0 0 0
0 0 0
0 0 0
0 0 0
0 0 0
0 0 0
0 0 0
0 0 0
0 0 0
0 0 0
0 0 0
0 0 0
0 0 0
0 0 0
0 0 0
0 0 0
0 0 0
0 0 0
0 0 0
0 0 0
0 0 0
0 0 0
0 0 0
0 0 0
0 0 0
0 0 0
0 0 0
0 0 0
0 0 0
0 0 0
0 0 0
0 0 0
0 0 0
0 0 0
0 0 0
0 0 0
0 0 0
0 0 0
0 0 0
0 0 0
0 0 0
0 0 0
0 0 0
0 0 0
0 0 0
0 0 0
0 0 0
0 0 0
0 0 0
0 0 0
0 0 0
0 0 0
0 0 0
0 0 0
0 0 0
0 0 0
0 0 0
0 0 0
0 0 0
0 0 0
0 0 0
0 0 0
0 0 0
0 0 0
0 0 0
0 0 0
0 0 0
0 0 0
0 0 0
0 0 0
0 0 0
0 0 0
0 0 0
0 0 0
0 0 0
0 0 0
0 0 0
0 0 0
0 0 0
0 0 0
0 0 0
0 0 0
0 0 0
0 0 0
0 0 0
0 0 0
0 0 0
0 0 0
0 0 0
0 0 0
0 0 0
0 0 0
0 0 0
0 0 0
0 0 0
0 0 0
0 0 0
0 0 0
0 0 0
0 0 0
0 0 0
0 0 0
0 0 0
0 0 0
0 0 0
0 0 0
0 0 0
0 0 0
0 0 0
0 0 0
0 0 0
0 0 0
0 0 0
0 0 0
0 0 0
0 0 0
0 0 0
0 0 0
0 0 0
0 0 0
0 0 0
0 0 0
0 0 0
0 0 0
0 0 0
0 0 0
0 0 0
0 0 0
0 0 0
0 0 0
0 0 0
0 0 0
0 0 0
0 0 0
0 0 0
0 0 0
0 0 0
0 0 0
0 0 0
0 0 0
0 0 0
0 0 0
0 0 0
0 0 0
0 0 0
0 0 0
0 0 0
0 0 0
0 0 0
0 0 0
0 0 0
0 0 0
0 0 0
0 0 0
0 0 0
0 0 0
0 0 0
0 0 0
0 0 0
0 0 0
255 255 255
255 255 255
255 255 255
255 255 255
255 255 255
255 255 255
255 255 255
255 255 255
255 255 255
255 255 255
255 255 255
255 255 255
255 255 255
255 255 255
255 255 255
255 255 255
255 255 255
255 255 255
255 255 255
255 255 255
255 255 255
255 255 255
255 255 255
255 255 255
255 255 255
255 255 255
255 255 255
255 255 255
255 255 255
255 255 255
255 255 255
255 255 255
255 255 255
255 255 255
255 255 255
255 255 255
255 255 255
255 255 255
255 255 255
255 255 255
255 255 255
255 255 255
255 255 255
255 255 255
255 255 255
255 255 255
255 255 255
255 255 255
255 255 255
255 255 255
255 255 255
255 255 255
255 255 255
255 255 255
255 255 255
255 255 255
255 255 255
255 255 255
255 255 255
255 255 255
255 255 255
255 255 255
0 0 0
0 0 0
0 0 0
0 0 0
0 0 0
0 0 0
0 0 0
0 0 0
0 0 0
0 0 0
0 0 0
0 0 0
0 0 0
0 0 0
0 0 0
0 0 0
0 0 0
0 0 0
0 0 0
0 0 0
0 0 0
0 0 0
0 0 0
0 0 0
0 0 0
0 0 0
0 0 0
0 0 0
0 0 0
0 0 0
0 0 0
0 0 0
0 0 0
0 0 0
0 0 0
0 0 0
0 0 0
0 0 0
0 0 0
0 0 0
0 0 0
0 0 0
0 0 0
0 0 0
0 0 0
0 0 0
0 0 0
0 0 0
0 0 0
0 0 0
0 0 0
0 0 0
0 0 0
0 0 0
0 0 0
0 0 0
0 0 0
0 0 0
0 0 0
0 0 0
0 0 0
0 0 0
0 0 0
0 0 0
0 0 0
0 0 0
0 0 0
0 0 0
0 0 0
0 0 0
0 0 0
0 0 0
0 0 0
0 0 0
0 0 0
0 0 0
0 0 0
0 0 0
0 0 0
0 0 0
0 0 0
0 0 0
0 0 0
0 0 0
0 0 0
0 0 0
0 0 0
0 0 0
0 0 0
0 0 0
0 0 0
0 0 0
0 0 0
0 0 0
0 0 0
0 0 0
0 0 0
0 0 0
0 0 0
0 0 0
0 0 0
0 0 0
0 0 0
0 0 0
0 0 0
0 0 0
0 0 0
0 0 0
0 0 0
0 0 0
0 0 0
0 0 0
0 0 0
0 0 0
0 0 0
0 0 0
0 0 0
0 0 0
0 0 0
0 0 0
0 0 0
0 0 0
0 0 0
0 0 0
0 0 0
0 0 0
0 0 0
0 0 0
0 0 0
0 0 0
0 0 0
0 0 0
0 0 0
0 0 0
0 0 0
0 0 0
0 0 0
0 0 0
0 0 0
0 0 0
0 0 0
0 0 0
0 0 0
0 0 0
0 0 0
0 0 0
0 0 0
0 0 0
0 0 0
0 0 0
0 0 0
0 0 0
0 0 0
0 0 0
0 0 0
0 0 0
0 0 0
0 0 0
0 0 0
0 0 0
0 0 0
0 0 0
0 0 0
0 0 0
0 0 0
0 0 0
0 0 0
0 0 0
0 0 0
0 0 0
0 0 0
0 0 0
0 0 0
0 0 0
0 0 0
0 0 0
0 0 0
0 0 0
0 0 0
0 0 0
0 0 0
0 0 0
0 0 0
0 0 0
0 0 0
0 0 0
0 0 0
0 0 0
0 0 0
0 0 0
0 0 0
0 0 0
0 0 0
0 0 0
0 0 0
0 0 0
0 0 0
0 0 0
0 0 0
0 0 0
0 0 0
0 0 0
0 0 0
0 0 0
0 0 0
0 0 0
0 0 0
0 0 0
0 0 0
0 0 0
0 0 0
0 0 0
0 0 0
0 0 0
0 0 0
0 0 0
0 0 0
0 0 0
0 0 0
0 0 0
0 0 0
0 0 0
0 0 0
0 0 0
0 0 0
0 0 0
0 0 0
0 0 0
0 0 0
0 0 0
0 0 0
0 0 0
0 0 0
0 0 0
0 0 0
0 0 0
0 0 0
0 0 0
0 0 0
0 0 0
0 0 0
0 0 0
0 0 0
0 0 0
0 0 0
0 0 0
0 0 0
0 0 0
0 0 0
0 0 0
0 0 0
0 0 0
0 0 0
0 0 0
0 0 0
0 0 0
0 0 0
0 0 0
0 0 0
0 0 0
0 0 0
0 0 0
0 0 0
0 0 0
0 0 0
0 0 0
0 0 0
0 0 0
0 0 0
0 0 0
0 0 0
0 0 0
0 0 0
0 0 0
0 0 0
0 0 0
0 0 0
0 0 0
0 0 0
0 0 0
0 0 0
0 0 0
0 0 0
0 0 0
0 0 0
0 0 0
0 0 0
0 0 0
0 0 0
0 0 0
0 0 0
0 0 0
0 0 0
0 0 0
0 0 0
0 0 0
0 0 0
0 0 0
0 0 0
0 0 0
0 0 0
0 0 0
0 0 0
0 0 0
0 0 0
0 0 0
0 0 0
0 0 0
0 0 0
0 0 0
0 0 0
0 0 0
0 0 0
0 0 0
0 0 0
0 0 0
0 0 0
0 0 0
0 0 0
0 0 0
0 0 0
0 0 0
0 0 0
0 0 0
0 0 0
0 0 0
0 0 0
0 0 0
0 0 0
0 0 0
0 0 0
0 0 0
0 0 0
0 0 0
0 0 0
0 0 0
0 0 0
0 0 0
255 255 255
255 255 255
255 255 255
255 255 255
255 255 255
255 255 255
255 255 255
255 255 255
255 255 255
255 255 255
255 255 255
255 255 255
255 255 255
255 255 255
255 255 255
255 255 255
255 255 255
255 255 255
255 255 255
255 255 255
255 255 255
255 255 255
255 255 255
255 255 255
255 255 255
255 255 255
255 255 255
255 255 255
255 255 255
255 255 255
255 255 255
255 255 255
255 255 255
255 255 255
255 255 255
255 255 255
255 255 255
255 255 255
255 255 255
255 255 255
255 255 255
255 255 255
255 255 255
255 255 255
255 255 255
255 255 255
255 255 255
255 255 255
255 255 255
255 255 255
255 255 255
255 255 255
255 255 255
255 255 255
255 255 255
255 255 255
255 255 255
255 255 255
255 255 255
255 255 255
255 255 255
255 255 255
0 0 0
0 0 0
0 0 0
0 0 0
0 0 0
0 0 0
0 0 0
0 0 0
0 0 0
0 0 0
0 0 0
0 0 0
0 0 0
0 0 0
0 0 0
0 0 0
0 0 0
0 0 0
0 0 0
0 0 0
0 0 0
0 0 0
0 0 0
0 0 0
0 0 0
0 0 0
0 0 0
0 0 0
0 0 0
0 0 0
0 0 0
0 0 0
0 0 0
0 0 0
0 0 0
0 0 0
0 0 0
0 0 0
0 0 0
0 0 0
0 0 0
0 0 0
0 0 0
0 0 0
0 0 0
0 0 0
0 0 0
0 0 0
0 0 0
0 0 0
0 0 0
0 0 0
0 0 0
0 0 0
0 0 0
0 0 0
0 0 0
0 0 0
0 0 0
0 0 0
0 0 0
0 0 0
0 0 0
0 0 0
0 0 0
0 0 0
0 0 0
0 0 0
0 0 0
0 0 0
0 0 0
0 0 0
0 0 0
0 0 0
0 0 0
0 0 0
0 0 0
0 0 0
0 0 0
0 0 0
0 0 0
0 0 0
0 0 0
0 0 0
0 0 0
0 0 0
0 0 0
0 0 0
0 0 0
0 0 0
0 0 0
0 0 0
0 0 0
0 0 0
0 0 0
0 0 0
0 0 0
0 0 0
0 0 0
0 0 0
0 0 0
0 0 0
0 0 0
0 0 0
0 0 0
0 0 0
0 0 0
0 0 0
0 0 0
0 0 0
0 0 0
0 0 0
0 0 0
0 0 0
0 0 0
0 0 0
0 0 0
0 0 0
0 0 0
0 0 0
0 0 0
0 0 0
0 0 0
0 0 0
0 0 0
0 0 0
0 0 0
0 0 0
0 0 0
0 0 0
0 0 0
0 0 0
0 0 0
0 0 0
0 0 0
0 0 0
0 0 0
0 0 0
0 0 0
0 0 0
0 0 0
0 0 0
0 0 0
0 0 0
0 0 0
0 0 0
0 0 0
0 0 0
0 0 0
0 0 0
0 0 0
0 0 0
0 0 0
0 0 0
0 0 0
0 0 0
0 0 0
0 0 0
0 0 0
0 0 0
0 0 0
0 0 0
0 0 0
0 0 0
0 0 0
0 0 0
0 0 0
0 0 0
0 0 0
0 0 0
0 0 0
0 0 0
0 0 0
0 0 0
0 0 0
0 0 0
0 0 0
0 0 0
0 0 0
0 0 0
0 0 0
0 0 0
0 0 0
0 0 0
0 0 0
0 0 0
0 0 0
0 0 0
0 0 0
0 0 0
0 0 0
0 0 0
0 0 0
0 0 0
0 0 0
0 0 0
0 0 0
0 0 0
0 0 0
0 0 0
0 0 0
0 0 0
0 0 0
0 0 0
0 0 0
0 0 0
0 0 0
0 0 0
0 0 0
0 0 0
0 0 0
0 0 0
0 0 0
0 0 0
0 0 0
0 0 0
0 0 0
0 0 0
0 0 0
0 0 0
0 0 0
0 0 0
0 0 0
0 0 0
0 0 0
0 0 0
0 0 0
0 0 0
0 0 0
0 0 0
0 0 0
0 0 0
0 0 0
0 0 0
0 0 0
0 0 0
0 0 0
0 0 0
0 0 0
0 0 0
0 0 0
0 0 0
0 0 0
0 0 0
0 0 0
0 0 0
0 0 0
0 0 0
0 0 0
0 0 0
0 0 0
0 0 0
0 0 0
0 0 0
0 0 0
0 0 0
0 0 0
0 0 0
0 0 0
0 0 0
0 0 0
0 0 0
0 0 0
0 0 0
0 0 0
0 0 0
0 0 0
0 0 0
0 0 0
0 0 0
0 0 0
0 0 0
0 0 0
0 0 0
0 0 0
0 0 0
0 0 0
0 0 0
0 0 0
0 0 0
0 0 0
0 0 0
0 0 0
0 0 0
0 0 0
0 0 0
0 0 0
0 0 0
0 0 0
0 0 0
0 0 0
0 0 0
0 0 0
0 0 0
0 0 0
0 0 0
0 0 0
0 0 0
0 0 0
0 0 0
0 0 0
0 0 0
0 0 0
0 0 0
0 0 0
0 0 0
0 0 0
0 0 0
0 0 0
0 0 0
0 0 0
0 0 0
0 0 0
0 0 0
0 0 0
0 0 0
0 0 0
0 0 0
0 0 0
0 0 0
0 0 0
0 0 0
0 0 0
0 0 0
0 0 0
0 0 0
0 0 0
0 0 0
0 0 0
0 0 0
0 0 0
0 0 0
0 0 0
0 0 0
0 0 0
0 0 0
0 0 0
0 0 0
255 255 255
255 255 255
255 255 255
255 255 255
255 255 255
255 255 255
255 255 255
255 255 255
255 255 255
255 255 255
255 255 255
255 255 255
255 255 255
255 255 255
255 255 255
255 255 255
255 255 255
255 255 255
255 255 255
255 255 255
255 255 255
255 255 255
255 255 255
255 255 255
255 255 255
255 255 255
255 255 255
255 255 255
255 255 255
255 255 255
255 255 255
255 255 255
255 255 255
255 255 255
255 255 255
255 255 255
255 255 255
255 255 255
255 255 255
255 255 255
255 255 255
255 255 255
255 255 255
255 255 255
255 255 255
255 255 255
255 255 255
255 255 255
255 255 255
255 255 255
255 255 255
255 255 255
255 255 255
255 255 255
255 255 255
255 255 255
255 255 255
255 255 255
255 255 255
255 255 255
255 255 255
255 255 255
0 0 0
0 0 0
0 0 0
0 0 0
0 0 0
0 0 0
0 0 0
0 0 0
0 0 0
0 0 0
0 0 0
0 0 0
0 0 0
0 0 0
0 0 0
0 0 0
0 0 0
0 0 0
0 0 0
0 0 0
0 0 0
0 0 0
0 0 0
0 0 0
0 0 0
0 0 0
0 0 0
0 0 0
0 0 0
0 0 0
0 0 0
0 0 0
0 0 0
0 0 0
0 0 0
0 0 0
0 0 0
0 0 0
0 0 0
0 0 0
0 0 0
0 0 0
0 0 0
0 0 0
0 0 0
0 0 0
0 0 0
0 0 0
0 0 0
0 0 0
0 0 0
0 0 0
0 0 0
0 0 0
0 0 0
0 0 0
0 0 0
0 0 0
0 0 0
0 0 0
0 0 0
0 0 0
0 0 0
0 0 0
0 0 0
0 0 0
0 0 0
0 0 0
0 0 0
0 0 0
0 0 0
0 0 0
0 0 0
0 0 0
0 0 0
0 0 0
0 0 0
0 0 0
0 0 0
0 0 0
0 0 0
0 0 0
0 0 0
0 0 0
0 0 0
0 0 0
0 0 0
0 0 0
0 0 0
0 0 0
0 0 0
0 0 0
0 0 0
0 0 0
0 0 0
0 0 0
0 0 0
0 0 0
0 0 0
0 0 0
0 0 0
0 0 0
0 0 0
0 0 0
0 0 0
0 0 0
0 0 0
0 0 0
0 0 0
0 0 0
0 0 0
0 0 0
0 0 0
0 0 0
0 0 0
0 0 0
0 0 0
0 0 0
0 0 0
0 0 0
0 0 0
0 0 0
0 0 0
0 0 0
0 0 0
0 0 0
0 0 0
0 0 0
0 0 0
0 0 0
0 0 0
0 0 0
0 0 0
0 0 0
0 0 0
0 0 0
0 0 0
0 0 0
0 0 0
0 0 0
0 0 0
0 0 0
0 0 0
0 0 0
0 0 0
0 0 0
0 0 0
0 0 0
0 0 0
0 0 0
0 0 0
0 0 0
0 0 0
0 0 0
0 0 0
0 0 0
0 0 0
0 0 0
0 0 0
0 0 0
0 0 0
0 0 0
0 0 0
0 0 0
0 0 0
0 0 0
0 0 0
0 0 0
0 0 0
0 0 0
0 0 0
0 0 0
0 0 0
0 0 0
0 0 0
0 0 0
0 0 0
0 0 0
0 0 0
0 0 0
0 0 0
0 0 0
0 0 0
0 0 0
0 0 0
0 0 0
0 0 0
0 0 0
0 0 0
0 0 0
0 0 0
0 0 0
0 0 0
0 0 0
0 0 0
0 0 0
0 0 0
0 0 0
0 0 0
0 0 0
0 0 0
0 0 0
0 0 0
0 0 0
0 0 0
0 0 0
0 0 0
0 0 0
0 0 0
0 0 0
0 0 0
0 0 0
0 0 0
0 0 0
0 0 0
0 0 0
0 0 0
0 0 0
0 0 0
0 0 0
0 0 0
0 0 0
0 0 0
0 0 0
0 0 0
0 0 0
0 0 0
0 0 0
0 0 0
0 0 0
0 0 0
0 0 0
0 0 0
0 0 0
0 0 0
0 0 0
0 0 0
0 0 0
0 0 0
0 0 0
0 0 0
0 0 0
0 0 0
0 0 0
0 0 0
0 0 0
0 0 0
0 0 0
0 0 0
0 0 0
0 0 0
0 0 0
0 0 0
0 0 0
0 0 0
0 0 0
0 0 0
0 0 0
0 0 0
0 0 0
0 0 0
0 0 0
0 0 0
0 0 0
0 0 0
0 0 0
0 0 0
0 0 0
0 0 0
0 0 0
0 0 0
0 0 0
0 0 0
0 0 0
0 0 0
0 0 0
0 0 0
0 0 0
0 0 0
0 0 0
0 0 0
0 0 0
0 0 0
0 0 0
0 0 0
0 0 0
0 0 0
0 0 0
0 0 0
0 0 0
0 0 0
0 0 0
0 0 0
0 0 0
0 0 0
0 0 0
0 0 0
0 0 0
0 0 0
0 0 0
0 0 0
0 0 0
0 0 0
0 0 0
0 0 0
0 0 0
0 0 0
0 0 0
0 0 0
0 0 0
0 0 0
0 0 0
0 0 0
0 0 0
0 0 0
0 0 0
0 0 0
0 0 0
0 0 0
0 0 0
0 0 0
0 0 0
0 0 0
0 0 0
0 0 0
0 0 0
0 0 0
0 0 0
0 0 0
0 0 0
0 0 0
0 0 0
0 0 0
0 0 0
0 0 0
0 0 0
0 0 0
0 0 0
255 255 255
255 255 255
255 255 255
255 255 255
255 255 255
255 255 255
255 255 255
255 255 255
255 255 255
255 255 255
255 255 255
255 255 255
255 255 255
255 255 255
255 255 255
255 255 255
255 255 255
255 255 255
255 255 255
255 255 255
255 255 255
255 255 255
255 255 255
255 255 255
255 255 255
255 255 255
255 255 255
255 255 255
255 255 255
255 255 255
255 255 255
255 255 255
255 255 255
255 255 255
255 255 255
255 255 255
255 255 255
255 255 255
255 255 255
255 255 255
255 255 255
255 255 255
255 255 255
255 255 255
255 255 255
255 255 255
255 255 255
255 255 255
255 255 255
255 255 255
255 255 255
255 255 255
255 255 255
255 255 255
255 255 255
255 255 255
255 255 255
255 255 255
255 255 255
255 255 255
255 255 255
255 255 255
0 0 0
0 0 0
0 0 0
0 0 0
0 0 0
0 0 0
0 0 0
0 0 0
0 0 0
0 0 0
0 0 0
0 0 0
0 0 0
0 0 0
0 0 0
0 0 0
0 0 0
0 0 0
0 0 0
0 0 0
0 0 0
0 0 0
0 0 0
0 0 0
0 0 0
0 0 0
0 0 0
0 0 0
0 0 0
0 0 0
0 0 0
0 0 0
0 0 0
0 0 0
0 0 0
0 0 0
0 0 0
0 0 0
0 0 0
0 0 0
0 0 0
0 0 0
0 0 0
0 0 0
0 0 0
0 0 0
0 0 0
0 0 0
0 0 0
0 0 0
0 0 0
0 0 0
0 0 0
0 0 0
0 0 0
0 0 0
0 0 0
0 0 0
0 0 0
0 0 0
0 0 0
0 0 0
0 0 0
0 0 0
0 0 0
0 0 0
0 0 0
0 0 0
0 0 0
0 0 0
0 0 0
0 0 0
0 0 0
0 0 0
0 0 0
0 0 0
0 0 0
0 0 0
0 0 0
0 0 0
0 0 0
0 0 0
0 0 0
0 0 0
0 0 0
0 0 0
0 0 0
0 0 0
0 0 0
0 0 0
0 0 0
0 0 0
0 0 0
0 0 0
0 0 0
0 0 0
0 0 0
0 0 0
0 0 0
0 0 0
0 0 0
0 0 0
0 0 0
0 0 0
0 0 0
0 0 0
0 0 0
0 0 0
0 0 0
0 0 0
0 0 0
0 0 0
0 0 0
0 0 0
0 0 0
0 0 0
0 0 0
0 0 0
0 0 0
0 0 0
0 0 0
0 0 0
0 0 0
0 0 0
0 0 0
0 0 0
0 0 0
0 0 0
0 0 0
0 0 0
0 0 0
0 0 0
0 0 0
0 0 0
0 0 0
0 0 0
0 0 0
0 0 0
0 0 0
0 0 0
0 0 0
0 0 0
0 0 0
0 0 0
0 0 0
0 0 0
0 0 0
0 0 0
0 0 0
0 0 0
0 0 0
0 0 0
0 0 0
0 0 0
0 0 0
0 0 0
0 0 0
0 0 0
0 0 0
0 0 0
0 0 0
0 0 0
0 0 0
0 0 0
0 0 0
0 0 0
0 0 0
0 0 0
0 0 0
0 0 0
0 0 0
0 0 0
0 0 0
0 0 0
0 0 0
0 0 0
0 0 0
0 0 0
0 0 0
0 0 0
0 0 0
0 0 0
0 0 0
0 0 0
0 0 0
0 0 0
0 0 0
0 0 0
0 0 0
0 0 0
0 0 0
0 0 0
0 0 0
0 0 0
0 0 0
0 0 0
0 0 0
0 0 0
0 0 0
0 0 0
0 0 0
0 0 0
0 0 0
0 0 0
0 0 0
0 0 0
0 0 0
0 0 0
0 0 0
0 0 0
0 0 0
0 0 0
0 0 0
0 0 0
0 0 0
0 0 0
0 0 0
0 0 0
0 0 0
0 0 0
0 0 0
0 0 0
0 0 0
0 0 0
0 0 0
0 0 0
0 0 0
0 0 0
0 0 0
0 0 0
0 0 0
0 0 0
0 0 0
0 0 0
0 0 0
0 0 0
0 0 0
0 0 0
0 0 0
0 0 0
0 0 0
0 0 0
0 0 0
0 0 0
0 0 0
0 0 0
0 0 0
0 0 0
0 0 0
0 0 0
0 0 0
0 0 0
0 0 0
0 0 0
0 0 0
0 0 0
0 0 0
0 0 0
0 0 0
0 0 0
0 0 0
0 0 0
0 0 0
0 0 0
0 0 0
0 0 0
0 0 0
0 0 0
0 0 0
0 0 0
0 0 0
0 0 0
0 0 0
0 0 0
0 0 0
0 0 0
0 0 0
0 0 0
0 0 0
0 0 0
0 0 0
0 0 0
0 0 0
0 0 0
0 0 0
0 0 0
0 0 0
0 0 0
0 0 0
0 0 0
0 0 0
0 0 0
0 0 0
0 0 0
0 0 0
0 0 0
0 0 0
0 0 0
0 0 0
0 0 0
0 0 0
0 0 0
0 0 0
0 0 0
0 0 0
0 0 0
0 0 0
0 0 0
0 0 0
0 0 0
0 0 0
0 0 0
0 0 0
0 0 0
0 0 0
0 0 0
0 0 0
0 0 0
0 0 0
0 0 0
0 0 0
0 0 0
0 0 0
0 0 0
0 0 0
0 0 0
0 0 0
0 0 0
0 0 0
0 0 0
0 0 0
0 0 0
0 0 0
0 0 0
0 0 0
0 0 0
0 0 0
0 0 0
111 111 111
255 255 255
255 255 255
255 255 255
255 255 255
255 255 255
255 255 255
255 255 255
255 255 255
255 255 255
255 255 255
255 255 255
255 255 255
255 255 255
255 255 255
255 255 255
255 255 255
255 255 255
255 255 255
255 255 255
255 255 255
255 255 255
255 255 255
255 255 255
255 255 255
255 255 255
255 255 255
255 255 255
255 255 255
255 255 255
255 255 255
255 255 255
255 255 255
255 255 255
255 255 255
255 255 255
255 255 255
255 255 255
255 255 255
255 255 255
255 255 255
255 255 255
255 255 255
255 255 255
255 255 255
255 255 255
255 255 255
255 255 255
255 255 255
255 255 255
255 255 255
255 255 255
255 255 255
255 255 255
255 255 255
255 255 255
255 255 255
255 255 255
255 255 255
255 255 255
255 255 255
102 102 102
0 0 0
0 0 0
0 0 0
0 0 0
0 0 0
0 0 0
0 0 0
0 0 0
0 0 0
0 0 0
0 0 0
0 0 0
0 0 0
0 0 0
0 0 0
0 0 0
0 0 0
0 0 0
0 0 0
0 0 0
0 0 0
0 0 0
0 0 0
0 0 0
0 0 0
0 0 0
0 0 0
0 0 0
0 0 0
0 0 0
0 0 0
0 0 0
0 0 0
0 0 0
0 0 0
0 0 0
0 0 0
0 0 0
0 0 0
0 0 0
0 0 0
0 0 0
0 0 0
0 0 0
0 0 0
0 0 0
0 0 0
0 0 0
0 0 0
0 0 0
0 0 0
0 0 0
0 0 0
0 0 0
0 0 0
0 0 0
0 0 0
0 0 0
0 0 0
0 0 0
0 0 0
0 0 0
0 0 0
0 0 0
0 0 0
0 0 0
0 0 0
0 0 0
0 0 0
0 0 0
0 0 0
0 0 0
0 0 0
0 0 0
0 0 0
0 0 0
0 0 0
0 0 0
0 0 0
0 0 0
0 0 0
0 0 0
0 0 0
0 0 0
0 0 0
0 0 0
0 0 0
0 0 0
0 0 0
0 0 0
0 0 0
0 0 0
0 0 0
0 0 0
0 0 0
0 0 0
0 0 0
0 0 0
0 0 0
0 0 0
0 0 0
0 0 0
0 0 0
0 0 0
0 0 0
0 0 0
0 0 0
0 0 0
0 0 0
0 0 0
0 0 0
0 0 0
0 0 0
0 0 0
0 0 0
0 0 0
0 0 0
0 0 0
0 0 0
0 0 0
0 0 0
0 0 0
0 0 0
0 0 0
0 0 0
0 0 0
0 0 0
0 0 0
0 0 0
0 0 0
0 0 0
0 0 0
0 0 0
0 0 0
0 0 0
0 0 0
0 0 0
0 0 0
0 0 0
0 0 0
0 0 0
0 0 0
0 0 0
0 0 0
0 0 0
0 0 0
0 0 0
0 0 0
0 0 0
0 0 0
0 0 0
0 0 0
0 0 0
0 0 0
0 0 0
0 0 0
0 0 0
0 0 0
0 0 0
0 0 0
0 0 0
0 0 0
0 0 0
0 0 0
0 0 0
0 0 0
0 0 0
0 0 0
0 0 0
0 0 0
0 0 0
0 0 0
0 0 0
0 0 0
0 0 0
0 0 0
0 0 0
0 0 0
0 0 0
0 0 0
0 0 0
0 0 0
0 0 0
0 0 0
0 0 0
0 0 0
0 0 0
0 0 0
0 0 0
0 0 0
0 0 0
0 0 0
0 0 0
0 0 0
0 0 0
0 0 0
0 0 0
0 0 0
0 0 0
0 0 0
0 0 0
0 0 0
0 0 0
0 0 0
0 0 0
0 0 0
0 0 0
0 0 0
0 0 0
0 0 0
0 0 0
0 0 0
0 0 0
0 0 0
0 0 0
0 0 0
0 0 0
0 0 0
0 0 0
0 0 0
0 0 0
0 0 0
0 0 0
0 0 0
0 0 0
0 0 0
0 0 0
0 0 0
0 0 0
0 0 0
0 0 0
0 0 0
0 0 0
0 0 0
0 0 0
0 0 0
0 0 0
0 0 0
0 0 0
0 0 0
0 0 0
0 0 0
0 0 0
0 0 0
0 0 0
0 0 0
0 0 0
0 0 0
0 0 0
0 0 0
0 0 0
0 0 0
0 0 0
0 0 0
0 0 0
0 0 0
0 0 0
0 0 0
0 0 0
0 0 0
0 0 0
0 0 0
0 0 0
0 0 0
0 0 0
0 0 0
0 0 0
0 0 0
0 0 0
0 0 0
0 0 0
0 0 0
0 0 0
0 0 0
0 0 0
0 0 0
0 0 0
0 0 0
0 0 0
0 0 0
0 0 0
0 0 0
0 0 0
0 0 0
0 0 0
0 0 0
0 0 0
0 0 0
0 0 0
0 0 0
0 0 0
0 0 0
0 0 0
0 0 0
0 0 0
0 0 0
0 0 0
0 0 0
0 0 0
0 0 0
0 0 0
0 0 0
0 0 0
0 0 0
0 0 0
0 0 0
0 0 0
0 0 0
0 0 0
0 0 0
0 0 0
0 0 0
0 0 0
0 0 0
0 0 0
0 0 0
0 0 0
0 0 0
0 0 0
0 0 0
0 0 0
0 0 0
0 0 0
0 0 0
0 0 0
0 0 0
0 0 0
0 0 0
0 0 0
0 0 0
0 0 0
0 0 0
0 0 0
0 0 0
0 0 0
0 0 0
0 0 0
0 0 0
0 0 0
255 255 255
255 255 255
255 255 255
255 255 255
255 255 255
255 255 255
255 255 255
255 255 255
255 255 255
255 255 255
255 255 255
255 255 255
255 255 255
255 255 255
255 255 255
255 255 255
255 255 255
255 255 255
255 255 255
255 255 255
255 255 255
255 255 255
255 255 255
255 255 255
255 255 255
255 255 255
255 255 255
255 255 255
255 255 255
255 255 255
255 255 255
255 255 255
255 255 255
255 255 255
255 255 255
255 255 255
255 255 255
255 255 255
255 255 255
255 255 255
255 255 255
255 255 255
255 255 255
255 255 255
255 255 255
255 255 255
255 255 255
255 255 255
255 255 255
255 255 255
255 255 255
255 255 255
255 255 255
255 255 255
255 255 255
255 255 255
255 255 255
255 255 255
255 255 255
255 255 255
0 0 0
0 0 0
0 0 0
0 0 0
0 0 0
0 0 0
0 0 0
0 0 0
0 0 0
0 0 0
0 0 0
0 0 0
0 0 0
0 0 0
0 0 0
0 0 0
0 0 0
0 0 0
0 0 0
0 0 0
0 0 0
0 0 0
0 0 0
0 0 0
0 0 0
0 0 0
0 0 0
0 0 0
0 0 0
0 0 0
0 0 0
0 0 0
0 0 0
0 0 0
0 0 0
0 0 0
0 0 0
0 0 0
0 0 0
0 0 0
0 0 0
0 0 0
0 0 0
0 0 0
0 0 0
0 0 0
0 0 0
0 0 0
0 0 0
0 0 0
0 0 0
0 0 0
0 0 0
0 0 0
0 0 0
0 0 0
0 0 0
0 0 0
0 0 0
0 0 0
0 0 0
0 0 0
0 0 0
0 0 0
0 0 0
0 0 0
0 0 0
0 0 0
0 0 0
0 0 0
0 0 0
0 0 0
0 0 0
0 0 0
0 0 0
0 0 0
0 0 0
0 0 0
0 0 0
0 0 0
0 0 0
0 0 0
0 0 0
0 0 0
0 0 0
0 0 0
0 0 0
0 0 0
0 0 0
0 0 0
0 0 0
0 0 0
0 0 0
0 0 0
0 0 0
0 0 0
0 0 0
0 0 0
0 0 0
0 0 0
0 0 0
0 0 0
0 0 0
0 0 0
0 0 0
0 0 0
0 0 0
0 0 0
0 0 0
0 0 0
0 0 0
0 0 0
0 0 0
0 0 0
0 0 0
0 0 0
0 0 0
0 0 0
0 0 0
0 0 0
0 0 0
0 0 0
0 0 0
0 0 0
0 0 0
0 0 0
0 0 0
0 0 0
0 0 0
0 0 0
0 0 0
0 0 0
0 0 0
0 0 0
0 0 0
0 0 0
0 0 0
0 0 0
0 0 0
0 0 0
0 0 0
0 0 0
0 0 0
0 0 0
0 0 0
0 0 0
0 0 0
0 0 0
0 0 0
0 0 0
0 0 0
0 0 0
0 0 0
0 0 0
0 0 0
0 0 0
0 0 0
0 0 0
0 0 0
0 0 0
0 0 0
0 0 0
0 0 0
0 0 0
0 0 0
0 0 0
0 0 0
0 0 0
0 0 0
0 0 0
0 0 0
0 0 0
0 0 0
0 0 0
0 0 0
0 0 0
0 0 0
0 0 0
0 0 0
0 0 0
0 0 0
0 0 0
0 0 0
0 0 0
0 0 0
0 0 0
0 0 0
0 0 0
0 0 0
0 0 0
0 0 0
0 0 0
0 0 0
0 0 0
0 0 0
0 0 0
0 0 0
0 0 0
0 0 0
0 0 0
0 0 0
0 0 0
0 0 0
0 0 0
0 0 0
0 0 0
0 0 0
0 0 0
0 0 0
0 0 0
0 0 0
0 0 0
0 0 0
0 0 0
0 0 0
0 0 0
0 0 0
0 0 0
0 0 0
0 0 0
0 0 0
0 0 0
0 0 0
0 0 0
0 0 0
0 0 0
0 0 0
0 0 0
0 0 0
0 0 0
0 0 0
0 0 0
0 0 0
0 0 0
0 0 0
0 0 0
0 0 0
0 0 0
0 0 0
0 0 0
0 0 0
0 0 0
0 0 0
0 0 0
0 0 0
0 0 0
0 0 0
0 0 0
0 0 0
0 0 0
0 0 0
0 0 0
0 0 0
0 0 0
0 0 0
0 0 0
0 0 0
0 0 0
0 0 0
0 0 0
0 0 0
0 0 0
0 0 0
0 0 0
0 0 0
0 0 0
0 0 0
0 0 0
0 0 0
0 0 0
0 0 0
0 0 0
0 0 0
0 0 0
0 0 0
0 0 0
0 0 0
0 0 0
0 0 0
0 0 0
0 0 0
0 0 0
0 0 0
0 0 0
0 0 0
0 0 0
0 0 0
0 0 0
0 0 0
0 0 0
0 0 0
0 0 0
0 0 0
0 0 0
0 0 0
0 0 0
0 0 0
0 0 0
0 0 0
0 0 0
0 0 0
0 0 0
0 0 0
0 0 0
0 0 0
0 0 0
0 0 0
0 0 0
0 0 0
0 0 0
0 0 0
0 0 0
0 0 0
0 0 0
0 0 0
0 0 0
0 0 0
0 0 0
0 0 0
0 0 0
0 0 0
0 0 0
0 0 0
0 0 0
0 0 0
0 0 0
0 0 0
0 0 0
0 0 0
0 0 0
0 0 0
0 0 0
0 0 0
0 0 0
0 0 0
0 0 0
0 0 0
0 0 0
0 0 0
0 0 0
255 255 255
255 255 255
255 255 255
255 255 255
255 255 255
255 255 255
255 255 255
255 255 255
255 255 255
255 255 255
255 255 255
255 255 255
255 255 255
255 255 255
255 255 255
255 255 255
255 255 255
255 255 255
255 255 255
255 255 255
255 255 255
255 255 255
255 255 255
255 255 255
255 255 255
255 255 255
255 255 255
255 255 255
255 255 255
255 255 255
255 255 255
255 255 255
255 255 255
255 255 255
255 255 255
255 255 255
255 255 255
255 255 255
255 255 255
255 255 255
255 255 255
255 255 255
255 255 255
255 255 255
255 255 255
255 255 255
255 255 255
255 255 255
255 255 255
255 255 255
255 255 255
255 255 255
255 255 255
255 255 255
255 255 255
255 255 255
255 255 255
255 255 255
255 255 255
255 255 255
0 0 0
0 0 0
0 0 0
0 0 0
0 0 0
0 0 0
0 0 0
0 0 0
0 0 0
0 0 0
0 0 0
0 0 0
0 0 0
0 0 0
0 0 0
0 0 0
0 0 0
0 0 0
0 0 0
0 0 0
0 0 0
0 0 0
0 0 0
0 0 0
0 0 0
0 0 0
0 0 0
0 0 0
0 0 0
0 0 0
0 0 0
0 0 0
0 0 0
0 0 0
0 0 0
0 0 0
0 0 0
0 0 0
0 0 0
0 0 0
0 0 0
0 0 0
0 0 0
0 0 0
0 0 0
0 0 0
0 0 0
0 0 0
0 0 0
0 0 0
0 0 0
0 0 0
0 0 0
0 0 0
0 0 0
0 0 0
0 0 0
0 0 0
0 0 0
0 0 0
0 0 0
0 0 0
0 0 0
0 0 0
0 0 0
0 0 0
0 0 0
0 0 0
0 0 0
0 0 0
0 0 0
0 0 0
0 0 0
0 0 0
0 0 0
0 0 0
0 0 0
0 0 0
0 0 0
0 0 0
0 0 0
0 0 0
0 0 0
0 0 0
0 0 0
0 0 0
0 0 0
0 0 0
0 0 0
0 0 0
0 0 0
0 0 0
0 0 0
0 0 0
0 0 0
0 0 0
0 0 0
0 0 0
0 0 0
0 0 0
0 0 0
0 0 0
0 0 0
0 0 0
0 0 0
0 0 0
0 0 0
0 0 0
0 0 0
0 0 0
0 0 0
0 0 0
0 0 0
0 0 0
0 0 0
0 0 0
0 0 0
0 0 0
0 0 0
0 0 0
0 0 0
0 0 0
0 0 0
0 0 0
0 0 0
0 0 0
0 0 0
0 0 0
0 0 0
0 0 0
0 0 0
0 0 0
0 0 0
0 0 0
0 0 0
0 0 0
0 0 0
0 0 0
0 0 0
0 0 0
0 0 0
0 0 0
0 0 0
0 0 0
0 0 0
0 0 0
0 0 0
0 0 0
0 0 0
0 0 0
0 0 0
0 0 0
0 0 0
0 0 0
0 0 0
0 0 0
0 0 0
0 0 0
0 0 0
0 0 0
0 0 0
0 0 0
0 0 0
0 0 0
0 0 0
0 0 0
0 0 0
0 0 0
0 0 0
0 0 0
0 0 0
0 0 0
0 0 0
0 0 0
0 0 0
0 0 0
0 0 0
0 0 0
0 0 0
0 0 0
0 0 0
0 0 0
0 0 0
0 0 0
0 0 0
0 0 0
0 0 0
0 0 0
0 0 0
0 0 0
0 0 0
0 0 0
0 0 0
0 0 0
0 0 0
0 0 0
0 0 0
0 0 0
0 0 0
0 0 0
0 0 0
0 0 0
0 0 0
0 0 0
0 0 0
0 0 0
0 0 0
0 0 0
0 0 0
0 0 0
0 0 0
0 0 0
0 0 0
0 0 0
0 0 0
0 0 0
0 0 0
0 0 0
0 0 0
0 0 0
0 0 0
0 0 0
0 0 0
0 0 0
0 0 0
0 0 0
0 0 0
0 0 0
0 0 0
0 0 0
0 0 0
0 0 0
0 0 0
0 0 0
0 0 0
0 0 0
0 0 0
0 0 0
0 0 0
0 0 0
0 0 0
0 0 0
0 0 0
0 0 0
0 0 0
0 0 0
0 0 0
0 0 0
0 0 0
0 0 0
0 0 0
0 0 0
0 0 0
0 0 0
0 0 0
0 0 0
0 0 0
0 0 0
0 0 0
0 0 0
0 0 0
0 0 0
0 0 0
0 0 0
0 0 0
0 0 0
0 0 0
0 0 0
0 0 0
0 0 0
0 0 0
0 0 0
0 0 0
0 0 0
0 0 0
0 0 0
0 0 0
0 0 0
0 0 0
0 0 0
0 0 0
0 0 0
0 0 0
0 0 0
0 0 0
0 0 0
0 0 0
0 0 0
0 0 0
0 0 0
0 0 0
0 0 0
0 0 0
0 0 0
0 0 0
0 0 0
0 0 0
0 0 0
0 0 0
0 0 0
0 0 0
0 0 0
0 0 0
0 0 0
0 0 0
0 0 0
0 0 0
0 0 0
0 0 0
0 0 0
0 0 0
0 0 0
0 0 0
0 0 0
0 0 0
0 0 0
0 0 0
0 0 0
0 0 0
0 0 0
0 0 0
0 0 0
0 0 0
0 0 0
0 0 0
0 0 0
0 0 0
0 0 0
0 0 0
0 0 0
0 0 0
0 0 0
0 0 0
0 0 0
0 0 0
0 0 0
0 0 0
0 0 0
0 0 0
0 0 0
255 255 255
255 255 255
255 255 255
255 255 255
255 255 255
255 255 255
255 255 255
255 255 255
255 255 255
255 255 255
255 255 255
255 255 255
255 255 255
255 255 255
255 255 255
255 255 255
255 255 255
255 255 255
255 255 255
255 255 255
255 255 255
255 255 255
255 255 255
255 255 255
255 255 255
255 255 255
255 255 255
255 255 255
255 255 255
255 255 255
255 255 255
255 255 255
255 255 255
255 255 255
255 255 255
255 255 255
255 255 255
255 255 255
255 255 255
255 255 255
255 255 255
255 255 255
255 255 255
255 255 255
255 255 255
255 255 255
255 255 255
255 255 255
255 255 255
255 255 255
255 255 255
255 255 255
255 255 255
255 255 255
255 255 255
255 255 255
255 255 255
255 255 255
255 255 255
255 255 255
0 0 0
0 0 0
0 0 0
0 0 0
0 0 0
0 0 0
0 0 0
0 0 0
0 0 0
0 0 0
0 0 0
0 0 0
0 0 0
0 0 0
0 0 0
0 0 0
0 0 0
0 0 0
0 0 0
0 0 0
0 0 0
0 0 0
0 0 0
0 0 0
0 0 0
0 0 0
0 0 0
0 0 0
0 0 0
0 0 0
0 0 0
0 0 0
0 0 0
0 0 0
0 0 0
0 0 0
0 0 0
0 0 0
0 0 0
0 0 0
0 0 0
0 0 0
0 0 0
0 0 0
0 0 0
0 0 0
0 0 0
0 0 0
0 0 0
0 0 0
0 0 0
0 0 0
0 0 0
0 0 0
0 0 0
0 0 0
0 0 0
0 0 0
0 0 0
0 0 0
0 0 0
0 0 0
0 0 0
0 0 0
0 0 0
0 0 0
0 0 0
0 0 0
0 0 0
0 0 0
0 0 0
0 0 0
0 0 0
0 0 0
0 0 0
0 0 0
0 0 0
57 57 57
240 240 240
255 255 255
255 255 255
255 255 255
0 0 0
0 0 0
0 0 0
0 0 0
0 0 0
0 0 0
0 0 0
0 0 0
0 0 0
0 0 0
0 0 0
0 0 0
0 0 0
0 0 0
0 0 0
0 0 0
0 0 0
0 0 0
0 0 0
0 0 0
0 0 0
0 0 0
0 0 0
0 0 0
0 0 0
0 0 0
0 0 0
0 0 0
0 0 0
0 0 0
0 0 0
0 0 0
0 0 0
0 0 0
0 0 0
0 0 0
0 0 0
0 0 0
0 0 0
0 0 0
0 0 0
0 0 0
0 0 0
0 0 0
0 0 0
0 0 0
0 0 0
0 0 0
0 0 0
0 0 0
0 0 0
0 0 0
0 0 0
0 0 0
0 0 0
0 0 0
0 0 0
0 0 0
0 0 0
0 0 0
0 0 0
0 0 0
0 0 0
0 0 0
0 0 0
0 0 0
0 0 0
0 0 0
0 0 0
0 0 0
0 0 0
0 0 0
0 0 0
0 0 0
0 0 0
0 0 0
0 0 0
0 0 0
0 0 0
0 0 0
0 0 0
0 0 0
0 0 0
0 0 0
0 0 0
0 0 0
0 0 0
0 0 0
0 0 0
0 0 0
0 0 0
0 0 0
0 0 0
0 0 0
0 0 0
0 0 0
0 0 0
0 0 0
0 0 0
0 0 0
0 0 0
0 0 0
0 0 0
0 0 0
0 0 0
0 0 0
0 0 0
0 0 0
0 0 0
0 0 0
0 0 0
0 0 0
0 0 0
0 0 0
0 0 0
0 0 0
0 0 0
0 0 0
0 0 0
0 0 0
0 0 0
0 0 0
0 0 0
0 0 0
0 0 0
0 0 0
0 0 0
0 0 0
0 0 0
0 0 0
0 0 0
0 0 0
0 0 0
0 0 0
0 0 0
0 0 0
0 0 0
0 0 0
0 0 0
0 0 0
0 0 0
0 0 0
0 0 0
0 0 0
0 0 0
0 0 0
0 0 0
0 0 0
0 0 0
0 0 0
0 0 0
0 0 0
0 0 0
0 0 0
0 0 0
0 0 0
0 0 0
0 0 0
0 0 0
0 0 0
0 0 0
0 0 0
0 0 0
0 0 0
0 0 0
0 0 0
0 0 0
0 0 0
0 0 0
0 0 0
0 0 0
0 0 0
0 0 0
0 0 0
0 0 0
0 0 0
0 0 0
0 0 0
0 0 0
0 0 0
0 0 0
0 0 0
0 0 0
0 0 0
0 0 0
0 0 0
0 0 0
0 0 0
0 0 0
0 0 0
0 0 0
0 0 0
0 0 0
0 0 0
0 0 0
0 0 0
0 0 0
0 0 0
0 0 0
0 0 0
0 0 0
0 0 0
0 0 0
0 0 0
0 0 0
0 0 0
0 0 0
0 0 0
0 0 0
0 0 0
0 0 0
0 0 0
0 0 0
0 0 0
0 0 0
0 0 0
0 0 0
0 0 0
0 0 0
0 0 0
0 0 0
0 0 0
0 0 0
0 0 0
0 0 0
0 0 0
0 0 0
0 0 0
0 0 0
0 0 0
0 0 0
0 0 0
0 0 0
0 0 0
0 0 0
0 0 0
0 0 0
0 0 0
0 0 0
0 0 0
0 0 0
0 0 0
0 0 0
0 0 0
0 0 0
0 0 0
0 0 0
0 0 0
0 0 0
0 0 0
0 0 0
0 0 0
0 0 0
0 0 0
0 0 0
0 0 0
0 0 0
0 0 0
0 0 0
255 255 255
255 255 255
255 255 255
255 255 255
255 255 255
255 255 255
255 255 255
255 255 255
255 255 255
255 255 255
255 255 255
255 255 255
255 255 255
255 255 255
255 255 255
255 255 255
255 255 255
255 255 255
255 255 255
255 255 255
255 255 255
255 255 255
255 255 255
255 255 255
255 255 255
255 255 255
255 255 255
255 255 255
255 255 255
255 255 255
255 255 255
255 255 255
255 255 255
255 255 255
255 255 255
255 255 255
255 255 255
255 255 255
255 255 255
255 255 255
255 255 255
255 255 255
255 255 255
255 255 255
255 255 255
255 255 255
255 255 255
255 255 255
255 255 255
255 255 255
255 255 255
255 255 255
255 255 255
255 255 255
255 255 255
255 255 255
255 255 255
255 255 255
0 0 0
0 0 0
0 0 0
0 0 0
0 0 0
0 0 0
0 0 0
0 0 0
0 0 0
0 0 0
0 0 0
0 0 0
0 0 0
0 0 0
0 0 0
0 0 0
0 0 0
0 0 0
0 0 0
0 0 0
0 0 0
0 0 0
0 0 0
0 0 0
0 0 0
0 0 0
0 0 0
0 0 0
0 0 0
0 0 0
0 0 0
0 0 0
0 0 0
0 0 0
0 0 0
0 0 0
0 0 0
0 0 0
0 0 0
0 0 0
0 0 0
0 0 0
0 0 0
0 0 0
0 0 0
0 0 0
0 0 0
0 0 0
0 0 0
0 0 0
0 0 0
0 0 0
0 0 0
0 0 0
0 0 0
0 0 0
0 0 0
0 0 0
0 0 0
0 0 0
0 0 0
0 0 0
0 0 0
0 0 0
0 0 0
0 0 0
0 0 0
0 0 0
0 0 0
0 0 0
117 117 117
255 255 255
255 255 255
255 255 255
255 255 255
255 255 255
255 255 255
255 255 255
255 255 255
255 255 255
255 255 255
255 255 255
255 255 255
0 0 0
0 0 0
0 0 0
0 0 0
0 0 0
0 0 0
0 0 0
0 0 0
0 0 0
0 0 0
0 0 0
0 0 0
0 0 0
0 0 0
0 0 0
0 0 0
0 0 0
0 0 0
0 0 0
0 0 0
0 0 0
0 0 0
0 0 0
0 0 0
0 0 0
0 0 0
0 0 0
0 0 0
0 0 0
0 0 0
0 0 0
0 0 0
0 0 0
0 0 0
0 0 0
0 0 0
0 0 0
0 0 0
0 0 0
0 0 0
0 0 0
0 0 0
0 0 0
0 0 0
0 0 0
0 0 0
0 0 0
0 0 0
0 0 0
0 0 0
0 0 0
0 0 0
0 0 0
0 0 0
0 0 0
0 0 0
0 0 0
0 0 0
0 0 0
0 0 0
0 0 0
0 0 0
0 0 0
0 0 0
0 0 0
0 0 0
0 0 0
0 0 0
0 0 0
0 0 0
0 0 0
0 0 0
0 0 0
0 0 0
0 0 0
0 0 0
0 0 0
0 0 0
0 0 0
0 0 0
0 0 0
0 0 0
0 0 0
0 0 0
0 0 0
0 0 0
0 0 0
0 0 0
0 0 0
0 0 0
0 0 0
0 0 0
0 0 0
0 0 0
0 0 0
0 0 0
0 0 0
0 0 0
0 0 0
0 0 0
0 0 0
0 0 0
0 0 0
0 0 0
0 0 0
0 0 0
0 0 0
0 0 0
0 0 0
0 0 0
0 0 0
0 0 0
0 0 0
0 0 0
0 0 0
0 0 0
0 0 0
0 0 0
0 0 0
0 0 0
0 0 0
0 0 0
0 0 0
0 0 0
0 0 0
0 0 0
0 0 0
0 0 0
0 0 0
0 0 0
0 0 0
0 0 0
0 0 0
0 0 0
0 0 0
0 0 0
0 0 0
0 0 0
0 0 0
0 0 0
0 0 0
0 0 0
0 0 0
0 0 0
0 0 0
0 0 0
0 0 0
0 0 0
0 0 0
0 0 0
0 0 0
0 0 0
0 0 0
0 0 0
0 0 0
0 0 0
0 0 0
0 0 0
0 0 0
0 0 0
0 0 0
0 0 0
0 0 0
0 0 0
0 0 0
0 0 0
0 0 0
0 0 0
0 0 0
0 0 0
0 0 0
0 0 0
0 0 0
0 0 0
0 0 0
0 0 0
0 0 0
0 0 0
0 0 0
0 0 0
0 0 0
0 0 0
0 0 0
0 0 0
0 0 0
0 0 0
0 0 0
0 0 0
0 0 0
0 0 0
0 0 0
0 0 0
0 0 0
0 0 0
0 0 0
0 0 0
0 0 0
0 0 0
0 0 0
0 0 0
0 0 0
0 0 0
0 0 0
0 0 0
0 0 0
0 0 0
0 0 0
0 0 0
0 0 0
0 0 0
0 0 0
0 0 0
0 0 0
0 0 0
0 0 0
0 0 0
0 0 0
0 0 0
0 0 0
0 0 0
0 0 0
0 0 0
0 0 0
0 0 0
0 0 0
0 0 0
0 0 0
0 0 0
0 0 0
0 0 0
0 0 0
0 0 0
0 0 0
0 0 0
0 0 0
0 0 0
0 0 0
0 0 0
0 0 0
0 0 0
0 0 0
0 0 0
0 0 0
0 0 0
0 0 0
0 0 0
0 0 0
0 0 0
0 0 0
0 0 0
0 0 0
0 0 0
0 0 0
0 0 0
0 0 0
0 0 0
0 0 0
0 0 0
0 0 0
255 255 255
255 255 255
255 255 255
255 255 255
255 255 255
255 255 255
255 255 255
255 255 255
255 255 255
255 255 255
255 255 255
255 255 255
255 255 255
255 255 255
255 255 255
255 255 255
255 255 255
255 255 255
255 255 255
255 255 255
255 255 255
255 255 255
255 255 255
255 255 255
255 255 255
255 255 255
255 255 255
255 255 255
255 255 255
255 255 255
255 255 255
255 255 255
255 255 255
255 255 255
255 255 255
255 255 255
255 255 255
255 255 255
255 255 255
255 255 255
255 255 255
255 255 255
255 255 255
255 255 255
255 255 255
255 255 255
255 255 255
255 255 255
255 255 255
255 255 255
255 255 255
255 255 255
255 255 255
255 255 255
255 255 255
255 255 255
255 255 255
255 255 255
0 0 0
0 0 0
0 0 0
0 0 0
0 0 0
0 0 0
0 0 0
0 0 0
0 0 0
0 0 0
0 0 0
0 0 0
0 0 0
0 0 0
0 0 0
0 0 0
0 0 0
0 0 0
0 0 0
0 0 0
0 0 0
0 0 0
0 0 0
0 0 0
0 0 0
0 0 0
0 0 0
0 0 0
0 0 0
0 0 0
0 0 0
0 0 0
0 0 0
0 0 0
0 0 0
0 0 0
0 0 0
0 0 0
0 0 0
0 0 0
0 0 0
0 0 0
0 0 0
0 0 0
0 0 0
0 0 0
0 0 0
0 0 0
0 0 0
0 0 0
0 0 0
0 0 0
0 0 0
0 0 0
0 0 0
0 0 0
0 0 0
0 0 0
0 0 0
0 0 0
0 0 0
0 0 0
182 182 182
255 255 255
255 255 255
255 255 255
255 255 255
255 255 255
255 255 255
255 255 255
255 255 255
255 255 255
255 255 255
255 255 255
255 255 255
255 255 255
255 255 255
255 255 255
255 255 255
255 255 255
255 255 255
255 255 255
255 255 255
0 0 0
0 0 0
0 0 0
0 0 0
0 0 0
0 0 0
0 0 0
0 0 0
0 0 0
0 0 0
0 0 0
0 0 0
0 0 0
0 0 0
0 0 0
0 0 0
0 0 0
0 0 0
0 0 0
0 0 0
0 0 0
0 0 0
0 0 0
0 0 0
0 0 0
0 0 0
0 0 0
0 0 0
0 0 0
0 0 0
0 0 0
0 0 0
0 0 0
0 0 0
0 0 0
0 0 0
0 0 0
0 0 0
0 0 0
0 0 0
0 0 0
0 0 0
0 0 0
0 0 0
0 0 0
0 0 0
0 0 0
0 0 0
0 0 0
0 0 0
0 0 0
0 0 0
0 0 0
0 0 0
0 0 0
0 0 0
0 0 0
0 0 0
0 0 0
0 0 0
0 0 0
0 0 0
0 0 0
0 0 0
0 0 0
0 0 0
0 0 0
0 0 0
0 0 0
0 0 0
0 0 0
0 0 0
0 0 0
0 0 0
0 0 0
0 0 0
0 0 0
0 0 0
0 0 0
0 0 0
0 0 0
0 0 0
0 0 0
0 0 0
0 0 0
0 0 0
0 0 0
0 0 0
0 0 0
0 0 0
0 0 0
0 0 0
0 0 0
0 0 0
0 0 0
0 0 0
0 0 0
0 0 0
0 0 0
0 0 0
0 0 0
0 0 0
0 0 0
0 0 0
0 0 0
0 0 0
0 0 0
0 0 0
0 0 0
0 0 0
0 0 0
0 0 0
0 0 0
0 0 0
0 0 0
0 0 0
0 0 0
0 0 0
0 0 0
0 0 0
0 0 0
0 0 0
0 0 0
0 0 0
0 0 0
0 0 0
0 0 0
0 0 0
0 0 0
0 0 0
0 0 0
0 0 0
0 0 0
0 0 0
0 0 0
0 0 0
0 0 0
0 0 0
0 0 0
0 0 0
0 0 0
0 0 0
0 0 0
0 0 0
0 0 0
0 0 0
0 0 0
0 0 0
0 0 0
0 0 0
0 0 0
0 0 0
0 0 0
0 0 0
0 0 0
0 0 0
0 0 0
0 0 0
0 0 0
0 0 0
0 0 0
0 0 0
0 0 0
0 0 0
0 0 0
0 0 0
0 0 0
0 0 0
0 0 0
0 0 0
0 0 0
0 0 0
0 0 0
0 0 0
0 0 0
0 0 0
0 0 0
0 0 0
0 0 0
0 0 0
0 0 0
0 0 0
0 0 0
0 0 0
0 0 0
0 0 0
0 0 0
0 0 0
0 0 0
0 0 0
0 0 0
0 0 0
0 0 0
0 0 0
0 0 0
0 0 0
0 0 0
0 0 0
0 0 0
0 0 0
0 0 0
0 0 0
0 0 0
0 0 0
0 0 0
0 0 0
0 0 0
0 0 0
0 0 0
0 0 0
0 0 0
0 0 0
0 0 0
0 0 0
0 0 0
0 0 0
0 0 0
0 0 0
0 0 0
0 0 0
0 0 0
0 0 0
0 0 0
0 0 0
0 0 0
0 0 0
0 0 0
0 0 0
0 0 0
0 0 0
0 0 0
0 0 0
0 0 0
0 0 0
0 0 0
0 0 0
0 0 0
0 0 0
0 0 0
0 0 0
0 0 0
0 0 0
0 0 0
0 0 0
0 0 0
0 0 0
0 0 0
0 0 0
0 0 0
0 0 0
0 0 0
0 0 0
0 0 0
0 0 0
0 0 0
0 0 0
0 0 0
0 0 0
0 0 0
189 189 189
255 255 255
255 255 255
255 255 255
255 255 255
255 255 255
255 255 255
255 255 255
255 255 255
255 255 255
255 255 255
255 255 255
255 255 255
255 255 255
255 255 255
255 255 255
255 255 255
255 255 255
255 255 255
255 255 255
255 255 255
255 255 255
255 255 255
255 255 255
255 255 255
255 255 255
255 255 255
255 255 255
255 255 255
255 255 255
255 255 255
255 255 255
255 255 255
255 255 255
255 255 255
255 255 255
255 255 255
255 255 255
255 255 255
255 255 255
255 255 255
255 255 255
255 255 255
255 255 255
255 255 255
255 255 255
255 255 255
255 255 255
255 255 255
255 255 255
255 255 255
255 255 255
255 255 255
255 255 255
255 255 255
255 255 255
255 255 255
159 159 159
0 0 0
0 0 0
0 0 0
0 0 0
0 0 0
0 0 0
0 0 0
0 0 0
0 0 0
0 0 0
0 0 0
0 0 0
0 0 0
0 0 0
0 0 0
0 0 0
0 0 0
0 0 0
0 0 0
0 0 0
0 0 0
0 0 0
0 0 0
0 0 0
0 0 0
0 0 0
0 0 0
0 0 0
0 0 0
0 0 0
0 0 0
0 0 0
0 0 0
0 0 0
0 0 0
0 0 0
0 0 0
0 0 0
0 0 0
0 0 0
0 0 0
0 0 0
0 0 0
0 0 0
0 0 0
0 0 0
0 0 0
0 0 0
0 0 0
0 0 0
0 0 0
0 0 0
0 0 0
57 57 57
255 255 255
255 255 255
255 255 255
255 255 255
255 255 255
255 255 255
255 255 255
255 255 255
255 255 255
255 255 255
255 255 255
255 255 255
255 255 255
255 255 255
255 255 255
255 255 255
255 255 255
255 255 255
255 255 255
255 255 255
255 255 255
255 255 255
255 255 255
255 255 255
255 255 255
255 255 255
255 255 255
255 255 255
255 255 255
0 0 0
0 0 0
0 0 0
0 0 0
0 0 0
0 0 0
0 0 0
0 0 0
0 0 0
0 0 0
0 0 0
0 0 0
0 0 0
0 0 0
0 0 0
0 0 0
0 0 0
0 0 0
0 0 0
0 0 0
0 0 0
0 0 0
0 0 0
0 0 0
0 0 0
0 0 0
0 0 0
0 0 0
0 0 0
0 0 0
0 0 0
0 0 0
0 0 0
0 0 0
0 0 0
0 0 0
0 0 0
0 0 0
0 0 0
0 0 0
0 0 0
0 0 0
0 0 0
0 0 0
0 0 0
0 0 0
0 0 0
0 0 0
0 0 0
0 0 0
0 0 0
0 0 0
0 0 0
0 0 0
0 0 0
0 0 0
0 0 0
0 0 0
0 0 0
0 0 0
0 0 0
0 0 0
0 0 0
0 0 0
0 0 0
0 0 0
0 0 0
0 0 0
0 0 0
0 0 0
0 0 0
0 0 0
0 0 0
0 0 0
0 0 0
0 0 0
0 0 0
0 0 0
0 0 0
0 0 0
0 0 0
0 0 0
0 0 0
0 0 0
0 0 0
0 0 0
0 0 0
0 0 0
0 0 0
0 0 0
0 0 0
0 0 0
0 0 0
0 0 0
0 0 0
0 0 0
0 0 0
0 0 0
0 0 0
0 0 0
0 0 0
0 0 0
0 0 0
0 0 0
0 0 0
0 0 0
0 0 0
0 0 0
0 0 0
0 0 0
0 0 0
0 0 0
0 0 0
0 0 0
0 0 0
0 0 0
0 0 0
0 0 0
0 0 0
0 0 0
0 0 0
0 0 0
0 0 0
0 0 0
0 0 0
0 0 0
0 0 0
0 0 0
0 0 0
0 0 0
0 0 0
0 0 0
0 0 0
0 0 0
0 0 0
0 0 0
0 0 0
0 0 0
0 0 0
0 0 0
0 0 0
0 0 0
0 0 0
0 0 0
0 0 0
0 0 0
0 0 0
0 0 0
0 0 0
0 0 0
0 0 0
0 0 0
0 0 0
0 0 0
0 0 0
0 0 0
0 0 0
0 0 0
0 0 0
0 0 0
0 0 0
0 0 0
0 0 0
0 0 0
0 0 0
0 0 0
0 0 0
0 0 0
0 0 0
0 0 0
0 0 0
0 0 0
0 0 0
0 0 0
0 0 0
0 0 0
0 0 0
0 0 0
0 0 0
0 0 0
0 0 0
0 0 0
0 0 0
0 0 0
0 0 0
0 0 0
0 0 0
0 0 0
0 0 0
0 0 0
0 0 0
0 0 0
0 0 0
0 0 0
0 0 0
0 0 0
0 0 0
0 0 0
0 0 0
0 0 0
0 0 0
0 0 0
0 0 0
0 0 0
0 0 0
0 0 0
0 0 0
0 0 0
0 0 0
0 0 0
0 0 0
0 0 0
0 0 0
0 0 0
0 0 0
0 0 0
0 0 0
0 0 0
0 0 0
0 0 0
0 0 0
0 0 0
0 0 0
0 0 0
0 0 0
0 0 0
0 0 0
0 0 0
0 0 0
0 0 0
0 0 0
0 0 0
0 0 0
0 0 0
0 0 0
0 0 0
0 0 0
0 0 0
0 0 0
0 0 0
0 0 0
0 0 0
0 0 0
0 0 0
0 0 0
0 0 0
0 0 0
0 0 0
0 0 0
0 0 0
0 0 0
0 0 0
0 0 0
0 0 0
0 0 0
0 0 0
0 0 0
0 0 0
0 0 0
0 0 0
255 255 255
255 255 255
255 255 255
255 255 255
255 255 255
255 255 255
255 255 255
255 255 255
255 255 255
255 255 255
255 255 255
255 255 255
255 255 255
255 255 255
255 255 255
255 255 255
255 255 255
255 255 255
255 255 255
255 255 255
255 255 255
255 255 255
255 255 255
255 255 255
255 255 255
255 255 255
255 255 255
255 255 255
255 255 255
255 255 255
255 255 255
255 255 255
255 255 255
255 255 255
255 255 255
255 255 255
255 255 255
255 255 255
255 255 255
255 255 255
255 255 255
255 255 255
255 255 255
255 255 255
255 255 255
255 255 255
255 255 255
255 255 255
255 255 255
255 255 255
255 255 255
255 255 255
255 255 255
255 255 255
255 255 255
255 255 255
0 0 0
0 0 0
0 0 0
0 0 0
0 0 0
0 0 0
0 0 0
0 0 0
0 0 0
0 0 0
0 0 0
0 0 0
0 0 0
0 0 0
0 0 0
0 0 0
0 0 0
0 0 0
0 0 0
0 0 0
0 0 0
0 0 0
0 0 0
0 0 0
0 0 0
0 0 0
0 0 0
0 0 0
0 0 0
0 0 0
0 0 0
0 0 0
0 0 0
0 0 0
0 0 0
0 0 0
0 0 0
0 0 0
0 0 0
0 0 0
0 0 0
0 0 0
0 0 0
0 0 0
0 0 0
0 0 0
0 0 0
255 255 255
255 255 255
255 255 255
255 255 255
255 255 255
255 255 255
255 255 255
255 255 255
255 255 255
255 255 255
255 255 255
255 255 255
255 255 255
255 255 255
255 255 255
255 255 255
255 255 255
255 255 255
255 255 255
255 255 255
255 255 255
255 255 255
255 255 255
255 255 255
255 255 255
255 255 255
255 255 255
255 255 255
255 255 255
255 255 255
255 255 255
255 255 255
255 255 255
255 255 255
255 255 255
255 255 255
255 255 255
0 0 0
0 0 0
0 0 0
0 0 0
0 0 0
0 0 0
0 0 0
0 0 0
0 0 0
0 0 0
0 0 0
0 0 0
0 0 0
0 0 0
0 0 0
0 0 0
0 0 0
0 0 0
0 0 0
0 0 0
0 0 0
0 0 0
0 0 0
0 0 0
0 0 0
0 0 0
0 0 0
0 0 0
0 0 0
0 0 0
0 0 0
0 0 0
0 0 0
0 0 0
0 0 0
0 0 0
0 0 0
0 0 0
0 0 0
0 0 0
0 0 0
0 0 0
0 0 0
0 0 0
0 0 0
0 0 0
0 0 0
0 0 0
0 0 0
0 0 0
0 0 0
0 0 0
0 0 0
0 0 0
0 0 0
0 0 0
0 0 0
0 0 0
0 0 0
0 0 0
0 0 0
0 0 0
0 0 0
0 0 0
0 0 0
0 0 0
0 0 0
0 0 0
0 0 0
0 0 0
0 0 0
0 0 0
0 0 0
0 0 0
0 0 0
0 0 0
0 0 0
0 0 0
0 0 0
0 0 0
0 0 0
0 0 0
0 0 0
0 0 0
0 0 0
0 0 0
0 0 0
0 0 0
0 0 0
0 0 0
0 0 0
0 0 0
0 0 0
0 0 0
0 0 0
0 0 0
0 0 0
0 0 0
0 0 0
0 0 0
0 0 0
0 0 0
0 0 0
0 0 0
0 0 0
0 0 0
0 0 0
0 0 0
0 0 0
0 0 0
0 0 0
0 0 0
0 0 0
0 0 0
0 0 0
0 0 0
0 0 0
0 0 0
0 0 0
0 0 0
0 0 0
0 0 0
0 0 0
0 0 0
0 0 0
0 0 0
0 0 0
0 0 0
0 0 0
0 0 0
0 0 0
0 0 0
0 0 0
0 0 0
0 0 0
0 0 0
0 0 0
0 0 0
0 0 0
0 0 0
0 0 0
0 0 0
0 0 0
0 0 0
0 0 0
0 0 0
0 0 0
0 0 0
0 0 0
0 0 0
0 0 0
0 0 0
0 0 0
0 0 0
0 0 0
0 0 0
0 0 0
0 0 0
0 0 0
0 0 0
0 0 0
0 0 0
0 0 0
0 0 0
0 0 0
0 0 0
0 0 0
0 0 0
0 0 0
0 0 0
0 0 0
0 0 0
0 0 0
0 0 0
0 0 0
0 0 0
0 0 0
0 0 0
0 0 0
0 0 0
0 0 0
0 0 0
0 0 0
0 0 0
0 0 0
0 0 0
0 0 0
0 0 0
0 0 0
0 0 0
0 0 0
0 0 0
0 0 0
0 0 0
0 0 0
0 0 0
0 0 0
0 0 0
0 0 0
0 0 0
0 0 0
0 0 0
0 0 0
0 0 0
0 0 0
0 0 0
0 0 0
0 0 0
0 0 0
0 0 0
0 0 0
0 0 0
0 0 0
0 0 0
0 0 0
0 0 0
0 0 0
0 0 0
0 0 0
0 0 0
0 0 0
0 0 0
0 0 0
0 0 0
0 0 0
0 0 0
0 0 0
0 0 0
0 0 0
0 0 0
0 0 0
0 0 0
0 0 0
0 0 0
0 0 0
0 0 0
0 0 0
0 0 0
0 0 0
0 0 0
0 0 0
0 0 0
0 0 0
0 0 0
0 0 0
0 0 0
0 0 0
0 0 0
0 0 0
0 0 0
0 0 0
0 0 0
0 0 0
0 0 0
0 0 0
0 0 0
0 0 0
0 0 0
0 0 0
0 0 0
179 179 179
255 255 255
255 255 255
255 255 255
255 255 255
255 255 255
255 255 255
255 255 255
255 255 255
255 255 255
255 255 255
255 255 255
255 255 255
255 255 255
255 255 255
255 255 255
255 255 255
255 255 255
255 255 255
255 255 255
255 255 255
255 255 255
255 255 255
255 255 255
255 255 255
255 255 255
255 255 255
255 255 255
255 255 255
255 255 255
255 255 255
255 255 255
255 255 255
255 255 255
255 255 255
255 255 255
255 255 255
255 255 255
255 255 255
255 255 255
255 255 255
255 255 255
255 255 255
255 255 255
255 255 255
255 255 255
255 255 255
255 255 255
255 255 255
255 255 255
255 255 255
255 255 255
255 255 255
255 255 255
255 255 255
186 186 186
0 0 0
0 0 0
0 0 0
0 0 0
0 0 0
0 0 0
0 0 0
0 0 0
0 0 0
0 0 0
0 0 0
0 0 0
0 0 0
0 0 0
0 0 0
0 0 0
0 0 0
0 0 0
0 0 0
0 0 0
0 0 0
0 0 0
0 0 0
0 0 0
0 0 0
0 0 0
0 0 0
0 0 0
0 0 0
0 0 0
0 0 0
0 0 0
0 0 0
0 0 0
0 0 0
0 0 0
0 0 0
0 0 0
0 0 0
0 0 0
0 0 0
0 0 0
0 0 0
0 0 0
0 0 0
0 0 0
0 0 0
255 255 255
255 255 255
255 255 255
255 255 255
255 255 255
255 255 255
255 255 255
255 255 255
255 255 255
255 255 255
255 255 255
255 255 255
255 255 255
255 255 255
255 255 255
255 255 255
255 255 255
255 255 255
255 255 255
255 255 255
255 255 255
255 255 255
255 255 255
255 255 255
255 255 255
255 255 255
255 255 255
255 255 255
255 255 255
255 255 255
255 255 255
255 255 255
255 255 255
255 255 255
255 255 255
255 255 255
255 255 255
0 0 0
0 0 0
0 0 0
0 0 0
0 0 0
0 0 0
0 0 0
0 0 0
0 0 0
0 0 0
0 0 0
0 0 0
0 0 0
0 0 0
0 0 0
0 0 0
0 0 0
0 0 0
0 0 0
0 0 0
0 0 0
0 0 0
0 0 0
0 0 0
0 0 0
0 0 0
0 0 0
0 0 0
0 0 0
0 0 0
0 0 0
0 0 0
0 0 0
0 0 0
0 0 0
0 0 0
0 0 0
0 0 0
0 0 0
0 0 0
0 0 0
0 0 0
0 0 0
0 0 0
0 0 0
0 0 0
0 0 0
0 0 0
0 0 0
0 0 0
0 0 0
0 0 0
0 0 0
0 0 0
0 0 0
0 0 0
0 0 0
0 0 0
0 0 0
0 0 0
0 0 0
0 0 0
0 0 0
0 0 0
0 0 0
0 0 0
0 0 0
0 0 0
0 0 0
0 0 0
0 0 0
0 0 0
0 0 0
0 0 0
0 0 0
0 0 0
0 0 0
0 0 0
0 0 0
0 0 0
0 0 0
0 0 0
0 0 0
0 0 0
0 0 0
0 0 0
0 0 0
0 0 0
0 0 0
0 0 0
0 0 0
0 0 0
0 0 0
0 0 0
0 0 0
0 0 0
0 0 0
0 0 0
0 0 0
0 0 0
0 0 0
0 0 0
0 0 0
0 0 0
0 0 0
0 0 0
0 0 0
0 0 0
0 0 0
0 0 0
0 0 0
0 0 0
0 0 0
0 0 0
0 0 0
0 0 0
0 0 0
0 0 0
0 0 0
0 0 0
0 0 0
0 0 0
0 0 0
0 0 0
0 0 0
0 0 0
0 0 0
0 0 0
0 0 0
0 0 0
0 0 0
0 0 0
0 0 0
0 0 0
0 0 0
0 0 0
0 0 0
0 0 0
0 0 0
0 0 0
0 0 0
0 0 0
0 0 0
0 0 0
0 0 0
0 0 0
0 0 0
0 0 0
0 0 0
0 0 0
0 0 0
0 0 0
0 0 0
0 0 0
0 0 0
0 0 0
0 0 0
0 0 0
0 0 0
0 0 0
0 0 0
0 0 0
0 0 0
0 0 0
0 0 0
0 0 0
0 0 0
0 0 0
0 0 0
0 0 0
0 0 0
0 0 0
0 0 0
0 0 0
0 0 0
0 0 0
0 0 0
0 0 0
0 0 0
0 0 0
0 0 0
0 0 0
0 0 0
0 0 0
0 0 0
0 0 0
0 0 0
0 0 0
0 0 0
0 0 0
0 0 0
0 0 0
0 0 0
0 0 0
0 0 0
0 0 0
0 0 0
0 0 0
0 0 0
0 0 0
0 0 0
0 0 0
0 0 0
0 0 0
0 0 0
0 0 0
0 0 0
0 0 0
0 0 0
0 0 0
0 0 0
0 0 0
0 0 0
0 0 0
0 0 0
0 0 0
0 0 0
0 0 0
0 0 0
0 0 0
0 0 0
0 0 0
0 0 0
0 0 0
0 0 0
0 0 0
0 0 0
0 0 0
0 0 0
0 0 0
0 0 0
0 0 0
0 0 0
0 0 0
0 0 0
0 0 0
0 0 0
0 0 0
0 0 0
0 0 0
0 0 0
0 0 0
0 0 0
0 0 0
0 0 0
0 0 0
0 0 0
0 0 0
0 0 0
0 0 0
0 0 0
0 0 0
0 0 0
0 0 0
0 0 0
0 0 0
0 0 0
0 0 0
0 0 0
0 0 0
0 0 0
255 255 255
255 255 255
255 255 255
255 255 255
255 255 255
255 255 255
255 255 255
255 255 255
255 255 255
255 255 255
255 255 255
255 255 255
255 255 255
255 255 255
255 255 255
255 255 255
255 255 255
255 255 255
255 255 255
255 255 255
255 255 255
255 255 255
255 255 255
255 255 255
255 255 255
255 255 255
255 255 255
255 255 255
255 255 255
255 255 255
255 255 255
255 255 255
255 255 255
255 255 255
255 255 255
255 255 255
255 255 255
255 255 255
255 255 255
255 255 255
255 255 255
255 255 255
255 255 255
255 255 255
255 255 255
255 255 255
255 255 255
255 255 255
255 255 255
255 255 255
255 255 255
255 255 255
255 255 255
255 255 255
0 0 0
0 0 0
0 0 0
0 0 0
0 0 0
0 0 0
0 0 0
0 0 0
0 0 0
0 0 0
0 0 0
0 0 0
0 0 0
0 0 0
0 0 0
0 0 0
0 0 0
0 0 0
0 0 0
0 0 0
0 0 0
0 0 0
0 0 0
0 0 0
0 0 0
0 0 0
0 0 0
0 0 0
0 0 0
0 0 0
0 0 0
0 0 0
0 0 0
0 0 0
0 0 0
0 0 0
0 0 0
0 0 0
0 0 0
0 0 0
0 0 0
0 0 0
0 0 0
0 0 0
0 0 0
0 0 0
0 0 0
0 0 0
255 255 255
255 255 255
255 255 255
255 255 255
255 255 255
255 255 255
255 255 255
255 255 255
255 255 255
255 255 255
255 255 255
255 255 255
255 255 255
255 255 255
255 255 255
255 255 255
255 255 255
255 255 255
255 255 255
255 255 255
255 255 255
255 255 255
255 255 255
255 255 255
255 255 255
255 255 255
255 255 255
255 255 255
255 255 255
255 255 255
255 255 255
255 255 255
255 255 255
255 255 255
255 255 255
255 255 255
255 255 255
0 0 0
0 0 0
0 0 0
0 0 0
0 0 0
0 0 0
0 0 0
0 0 0
0 0 0
0 0 0
0 0 0
0 0 0
0 0 0
0 0 0
0 0 0
0 0 0
0 0 0
0 0 0
0 0 0
0 0 0
0 0 0
0 0 0
0 0 0
0 0 0
0 0 0
0 0 0
0 0 0
0 0 0
0 0 0
0 0 0
0 0 0
0 0 0
0 0 0
0 0 0
0 0 0
0 0 0
0 0 0
0 0 0
0 0 0
0 0 0
0 0 0
0 0 0
0 0 0
0 0 0
0 0 0
0 0 0
0 0 0
0 0 0
0 0 0
0 0 0
0 0 0
0 0 0
0 0 0
0 0 0
0 0 0
0 0 0
0 0 0
0 0 0
0 0 0
0 0 0
0 0 0
0 0 0
0 0 0
0 0 0
0 0 0
0 0 0
0 0 0
0 0 0
0 0 0
0 0 0
0 0 0
0 0 0
0 0 0
0 0 0
0 0 0
0 0 0
0 0 0
0 0 0
0 0 0
0 0 0
0 0 0
0 0 0
0 0 0
0 0 0
0 0 0
0 0 0
0 0 0
0 0 0
0 0 0
0 0 0
0 0 0
0 0 0
0 0 0
0 0 0
0 0 0
0 0 0
0 0 0
0 0 0
0 0 0
0 0 0
0 0 0
0 0 0
0 0 0
0 0 0
0 0 0
0 0 0
0 0 0
0 0 0
0 0 0
0 0 0
0 0 0
0 0 0
0 0 0
0 0 0
0 0 0
0 0 0
0 0 0
0 0 0
0 0 0
0 0 0
0 0 0
0 0 0
0 0 0
0 0 0
0 0 0
0 0 0
0 0 0
0 0 0
0 0 0
0 0 0
0 0 0
0 0 0
0 0 0
0 0 0
0 0 0
0 0 0
0 0 0
0 0 0
0 0 0
0 0 0
0 0 0
0 0 0
0 0 0
0 0 0
0 0 0
0 0 0
0 0 0
0 0 0
0 0 0
0 0 0
0 0 0
0 0 0
0 0 0
0 0 0
0 0 0
0 0 0
0 0 0
0 0 0
0 0 0
0 0 0
0 0 0
0 0 0
0 0 0
0 0 0
0 0 0
0 0 0
0 0 0
0 0 0
0 0 0
0 0 0
0 0 0
0 0 0
0 0 0
0 0 0
0 0 0
0 0 0
0 0 0
0 0 0
0 0 0
0 0 0
0 0 0
0 0 0
0 0 0
0 0 0
0 0 0
0 0 0
0 0 0
0 0 0
0 0 0
0 0 0
0 0 0
0 0 0
0 0 0
0 0 0
0 0 0
0 0 0
0 0 0
0 0 0
0 0 0
0 0 0
0 0 0
0 0 0
0 0 0
0 0 0
0 0 0
0 0 0
0 0 0
0 0 0
0 0 0
0 0 0
0 0 0
0 0 0
0 0 0
0 0 0
0 0 0
0 0 0
0 0 0
0 0 0
0 0 0
0 0 0
0 0 0
0 0 0
0 0 0
0 0 0
0 0 0
0 0 0
0 0 0
0 0 0
0 0 0
0 0 0
0 0 0
0 0 0
0 0 0
0 0 0
0 0 0
0 0 0
0 0 0
0 0 0
0 0 0
0 0 0
0 0 0
0 0 0
0 0 0
0 0 0
0 0 0
0 0 0
0 0 0
0 0 0
0 0 0
0 0 0
0 0 0
0 0 0
0 0 0
0 0 0
0 0 0
0 0 0
0 0 0
0 0 0
0 0 0
0 0 0
0 0 0
80 80 80
255 255 255
255 255 255
255 255 255
255 255 255
255 255 255
255 255 255
255 255 255
255 255 255
255 255 255
255 255 255
255 255 255
255 255 255
255 255 255
255 255 255
255 255 255
255 255 255
255 255 255
255 255 255
255 255 255
255 255 255
255 255 255
255 255 255
255 255 255
255 255 255
255 255 255
255 255 255
255 255 255
255 255 255
255 255 255
255 255 255
255 255 255
255 255 255
255 255 255
255 255 255
255 255 255
255 255 255
255 255 255
255 255 255
255 255 255
255 255 255
255 255 255
255 255 255
255 255 255
255 255 255
255 255 255
255 255 255
255 255 255
255 255 255
255 255 255
255 255 255
255 255 255
255 255 255
72 72 72
0 0 0
0 0 0
0 0 0
0 0 0
0 0 0
0 0 0
0 0 0
0 0 0
0 0 0
0 0 0
0 0 0
0 0 0
0 0 0
0 0 0
0 0 0
0 0 0
0 0 0
0 0 0
0 0 0
0 0 0
0 0 0
0 0 0
0 0 0
0 0 0
0 0 0
0 0 0
0 0 0
0 0 0
0 0 0
0 0 0
0 0 0
0 0 0
0 0 0
0 0 0
0 0 0
0 0 0
0 0 0
0 0 0
0 0 0
0 0 0
0 0 0
0 0 0
0 0 0
0 0 0
0 0 0
0 0 0
0 0 0
0 0 0
255 255 255
255 255 255
255 255 255
255 255 255
255 255 255
255 255 255
255 255 255
255 255 255
255 255 255
255 255 255
255 255 255
255 255 255
255 255 255
255 255 255
255 255 255
255 255 255
255 255 255
255 255 255
255 255 255
255 255 255
255 255 255
255 255 255
255 255 255
255 255 255
255 255 255
255 255 255
255 255 255
255 255 255
255 255 255
255 255 255
255 255 255
255 255 255
255 255 255
255 255 255
255 255 255
255 255 255
255 255 255
0 0 0
0 0 0
0 0 0
0 0 0
0 0 0
0 0 0
0 0 0
0 0 0
0 0 0
0 0 0
0 0 0
0 0 0
0 0 0
0 0 0
0 0 0
0 0 0
0 0 0
0 0 0
0 0 0
0 0 0
0 0 0
0 0 0
0 0 0
0 0 0
0 0 0
0 0 0
0 0 0
0 0 0
0 0 0
0 0 0
0 0 0
0 0 0
0 0 0
0 0 0
0 0 0
0 0 0
0 0 0
0 0 0
0 0 0
0 0 0
0 0 0
0 0 0
0 0 0
0 0 0
0 0 0
0 0 0
0 0 0
0 0 0
0 0 0
0 0 0
0 0 0
0 0 0
0 0 0
0 0 0
0 0 0
0 0 0
0 0 0
0 0 0
0 0 0
0 0 0
0 0 0
0 0 0
0 0 0
0 0 0
0 0 0
0 0 0
0 0 0
0 0 0
0 0 0
0 0 0
0 0 0
0 0 0
0 0 0
0 0 0
0 0 0
0 0 0
0 0 0
0 0 0
0 0 0
0 0 0
0 0 0
0 0 0
0 0 0
0 0 0
0 0 0
0 0 0
0 0 0
0 0 0
0 0 0
0 0 0
0 0 0
0 0 0
0 0 0
0 0 0
0 0 0
0 0 0
0 0 0
0 0 0
0 0 0
0 0 0
0 0 0
0 0 0
0 0 0
0 0 0
0 0 0
0 0 0
0 0 0
0 0 0
0 0 0
0 0 0
0 0 0
0 0 0
0 0 0
0 0 0
0 0 0
0 0 0
0 0 0
0 0 0
0 0 0
0 0 0
0 0 0
0 0 0
0 0 0
0 0 0
0 0 0
0 0 0
0 0 0
0 0 0
0 0 0
0 0 0
0 0 0
0 0 0
0 0 0
0 0 0
0 0 0
0 0 0
0 0 0
0 0 0
0 0 0
0 0 0
0 0 0
0 0 0
0 0 0
0 0 0
0 0 0
0 0 0
0 0 0
0 0 0
0 0 0
0 0 0
0 0 0
0 0 0
0 0 0
0 0 0
0 0 0
0 0 0
0 0 0
0 0 0
0 0 0
0 0 0
0 0 0
0 0 0
0 0 0
0 0 0
0 0 0
0 0 0
0 0 0
0 0 0
0 0 0
0 0 0
0 0 0
0 0 0
0 0 0
0 0 0
0 0 0
0 0 0
0 0 0
0 0 0
0 0 0
0 0 0
0 0 0
0 0 0
0 0 0
0 0 0
0 0 0
0 0 0
0 0 0
0 0 0
0 0 0
0 0 0
0 0 0
0 0 0
0 0 0
0 0 0
0 0 0
0 0 0
0 0 0
0 0 0
0 0 0
0 0 0
0 0 0
0 0 0
0 0 0
0 0 0
0 0 0
0 0 0
0 0 0
0 0 0
0 0 0
0 0 0
0 0 0
0 0 0
0 0 0
0 0 0
0 0 0
0 0 0
0 0 0
0 0 0
0 0 0
0 0 0
0 0 0
0 0 0
0 0 0
0 0 0
0 0 0
0 0 0
0 0 0
0 0 0
0 0 0
0 0 0
0 0 0
0 0 0
0 0 0
0 0 0
0 0 0
0 0 0
0 0 0
0 0 0
0 0 0
0 0 0
0 0 0
0 0 0
0 0 0
0 0 0
0 0 0
0 0 0
0 0 0
0 0 0
0 0 0
0 0 0
0 0 0
0 0 0
0 0 0
0 0 0
0 0 0
0 0 0
0 0 0
0 0 0
0 0 0
0 0 0
0 0 0
0 0 0
255 255 255
255 255 255
255 255 255
255 255 255
255 255 255
255 255 255
255 255 255
255 255 255
255 255 255
255 255 255
255 255 255
255 255 255
255 255 255
255 255 255
255 255 255
255 255 255
255 255 255
255 255 255
255 255 255
255 255 255
255 255 255
255 255 255
255 255 255
255 255 255
255 255 255
255 255 255
255 255 255
255 255 255
255 255 255
255 255 255
255 255 255
255 255 255
255 255 255
255 255 255
255 255 255
255 255 255
255 255 255
255 255 255
255 255 255
255 255 255
255 255 255
255 255 255
255 255 255
255 255 255
255 255 255
255 255 255
255 255 255
255 255 255
255 255 255
255 255 255
255 255 255
255 255 255
0 0 0
0 0 0
0 0 0
0 0 0
0 0 0
0 0 0
0 0 0
0 0 0
0 0 0
0 0 0
0 0 0
0 0 0
0 0 0
0 0 0
0 0 0
0 0 0
0 0 0
0 0 0
0 0 0
0 0 0
0 0 0
0 0 0
0 0 0
0 0 0
0 0 0
0 0 0
0 0 0
0 0 0
0 0 0
0 0 0
0 0 0
0 0 0
0 0 0
0 0 0
0 0 0
0 0 0
0 0 0
0 0 0
0 0 0
0 0 0
0 0 0
0 0 0
0 0 0
0 0 0
0 0 0
0 0 0
0 0 0
0 0 0
0 0 0
255 255 255
255 255 255
255 255 255
255 255 255
255 255 255
255 255 255
255 255 255
255 255 255
255 255 255
255 255 255
255 255 255
255 255 255
255 255 255
255 255 255
255 255 255
255 255 255
255 255 255
255 255 255
255 255 255
255 255 255
255 255 255
255 255 255
255 255 255
255 255 255
255 255 255
255 255 255
255 255 255
255 255 255
255 255 255
255 255 255
255 255 255
255 255 255
255 255 255
255 255 255
255 255 255
255 255 255
255 255 255
0 0 0
0 0 0
0 0 0
0 0 0
0 0 0
0 0 0
0 0 0
0 0 0
0 0 0
0 0 0
0 0 0
0 0 0
0 0 0
0 0 0
0 0 0
0 0 0
0 0 0
0 0 0
0 0 0
0 0 0
0 0 0
0 0 0
0 0 0
0 0 0
0 0 0
0 0 0
0 0 0
0 0 0
0 0 0
0 0 0
0 0 0
0 0 0
0 0 0
0 0 0
0 0 0
0 0 0
0 0 0
0 0 0
0 0 0
0 0 0
0 0 0
0 0 0
0 0 0
0 0 0
0 0 0
0 0 0
0 0 0
0 0 0
0 0 0
0 0 0
0 0 0
0 0 0
0 0 0
0 0 0
0 0 0
0 0 0
0 0 0
0 0 0
0 0 0
0 0 0
0 0 0
0 0 0
0 0 0
0 0 0
0 0 0
0 0 0
0 0 0
0 0 0
0 0 0
0 0 0
0 0 0
0 0 0
0 0 0
0 0 0
0 0 0
0 0 0
0 0 0
0 0 0
0 0 0
0 0 0
0 0 0
0 0 0
0 0 0
0 0 0
0 0 0
0 0 0
0 0 0
0 0 0
0 0 0
0 0 0
0 0 0
0 0 0
0 0 0
0 0 0
0 0 0
0 0 0
0 0 0
0 0 0
0 0 0
0 0 0
0 0 0
0 0 0
0 0 0
0 0 0
0 0 0
0 0 0
0 0 0
0 0 0
0 0 0
0 0 0
0 0 0
0 0 0
0 0 0
0 0 0
0 0 0
0 0 0
0 0 0
0 0 0
0 0 0
0 0 0
0 0 0
0 0 0
0 0 0
0 0 0
0 0 0
0 0 0
0 0 0
0 0 0
0 0 0
0 0 0
0 0 0
0 0 0
0 0 0
0 0 0
0 0 0
0 0 0
0 0 0
0 0 0
0 0 0
0 0 0
0 0 0
0 0 0
0 0 0
0 0 0
0 0 0
0 0 0
0 0 0
0 0 0
0 0 0
0 0 0
0 0 0
0 0 0
0 0 0
0 0 0
0 0 0
0 0 0
0 0 0
0 0 0
0 0 0
0 0 0
0 0 0
0 0 0
0 0 0
0 0 0
0 0 0
0 0 0
0 0 0
0 0 0
0 0 0
0 0 0
0 0 0
0 0 0
0 0 0
0 0 0
0 0 0
0 0 0
0 0 0
0 0 0
0 0 0
0 0 0
0 0 0
0 0 0
0 0 0
0 0 0
0 0 0
0 0 0
0 0 0
0 0 0
0 0 0
0 0 0
0 0 0
0 0 0
0 0 0
0 0 0
0 0 0
0 0 0
0 0 0
0 0 0
0 0 0
0 0 0
0 0 0
0 0 0
0 0 0
0 0 0
0 0 0
0 0 0
0 0 0
0 0 0
0 0 0
0 0 0
0 0 0
0 0 0
0 0 0
0 0 0
0 0 0
0 0 0
0 0 0
0 0 0
0 0 0
0 0 0
0 0 0
0 0 0
0 0 0
0 0 0
0 0 0
0 0 0
0 0 0
0 0 0
0 0 0
0 0 0
0 0 0
0 0 0
0 0 0
0 0 0
0 0 0
0 0 0
0 0 0
0 0 0
0 0 0
0 0 0
0 0 0
0 0 0
0 0 0
0 0 0
0 0 0
0 0 0
0 0 0
0 0 0
0 0 0
0 0 0
0 0 0
0 0 0
0 0 0
0 0 0
0 0 0
0 0 0
0 0 0
0 0 0
0 0 0
0 0 0
0 0 0
0 0 0
0 0 0
255 255 255
255 255 255
255 255 255
255 255 255
255 255 255
255 255 255
255 255 255
255 255 255
255 255 255
255 255 255
255 255 255
255 255 255
255 255 255
255 255 255
255 255 255
255 255 255
255 255 255
255 255 255
255 255 255
255 255 255
255 255 255
255 255 255
255 255 255
255 255 255
255 255 255
255 255 255
255 255 255
255 255 255
255 255 255
255 255 255
255 255 255
255 255 255
255 255 255
255 255 255
255 255 255
255 255 255
255 255 255
255 255 255
255 255 255
255 255 255
255 255 255
255 255 255
255 255 255
255 255 255
255 255 255
255 255 255
255 255 255
255 255 255
255 255 255
255 255 255
0 0 0
0 0 0
0 0 0
0 0 0
0 0 0
0 0 0
0 0 0
0 0 0
0 0 0
0 0 0
0 0 0
0 0 0
0 0 0
0 0 0
0 0 0
0 0 0
0 0 0
0 0 0
0 0 0
0 0 0
0 0 0
0 0 0
0 0 0
0 0 0
0 0 0
0 0 0
0 0 0
0 0 0
0 0 0
0 0 0
0 0 0
0 0 0
0 0 0
0 0 0
0 0 0
0 0 0
0 0 0
0 0 0
0 0 0
0 0 0
0 0 0
0 0 0
0 0 0
0 0 0
0 0 0
0 0 0
0 0 0
0 0 0
0 0 0
0 0 0
255 255 255
255 255 255
255 255 255
255 255 255
255 255 255
255 255 255
255 255 255
255 255 255
255 255 255
255 255 255
255 255 255
255 255 255
255 255 255
255 255 255
255 255 255
255 255 255
255 255 255
255 255 255
255 255 255
255 255 255
255 255 255
255 255 255
255 255 255
255 255 255
255 255 255
255 255 255
255 255 255
255 255 255
255 255 255
255 255 255
255 255 255
255 255 255
255 255 255
255 255 255
255 255 255
255 255 255
255 255 255
0 0 0
0 0 0
0 0 0
0 0 0
0 0 0
0 0 0
0 0 0
0 0 0
0 0 0
0 0 0
0 0 0
0 0 0
0 0 0
0 0 0
0 0 0
0 0 0
0 0 0
0 0 0
0 0 0
0 0 0
0 0 0
0 0 0
0 0 0
0 0 0
0 0 0
0 0 0
0 0 0
0 0 0
0 0 0
0 0 0
0 0 0
0 0 0
0 0 0
0 0 0
0 0 0
0 0 0
0 0 0
0 0 0
0 0 0
0 0 0
0 0 0
0 0 0
0 0 0
0 0 0
0 0 0
0 0 0
0 0 0
0 0 0
0 0 0
0 0 0
0 0 0
0 0 0
0 0 0
0 0 0
0 0 0
0 0 0
0 0 0
0 0 0
0 0 0
0 0 0
0 0 0
0 0 0
0 0 0
0 0 0
0 0 0
0 0 0
0 0 0
0 0 0
0 0 0
0 0 0
0 0 0
0 0 0
0 0 0
0 0 0
0 0 0
0 0 0
0 0 0
0 0 0
0 0 0
0 0 0
0 0 0
0 0 0
0 0 0
0 0 0
0 0 0
0 0 0
0 0 0
0 0 0
0 0 0
0 0 0
0 0 0
0 0 0
0 0 0
0 0 0
0 0 0
0 0 0
0 0 0
0 0 0
0 0 0
0 0 0
0 0 0
0 0 0
0 0 0
0 0 0
0 0 0
0 0 0
0 0 0
0 0 0
0 0 0
0 0 0
0 0 0
0 0 0
0 0 0
0 0 0
0 0 0
0 0 0
0 0 0
0 0 0
0 0 0
0 0 0
0 0 0
0 0 0
0 0 0
0 0 0
0 0 0
0 0 0
0 0 0
0 0 0
0 0 0
0 0 0
0 0 0
0 0 0
0 0 0
0 0 0
0 0 0
0 0 0
0 0 0
0 0 0
0 0 0
0 0 0
0 0 0
0 0 0
0 0 0
0 0 0
0 0 0
0 0 0
0 0 0
0 0 0
0 0 0
0 0 0
0 0 0
0 0 0
0 0 0
0 0 0
0 0 0
0 0 0
0 0 0
0 0 0
0 0 0
0 0 0
0 0 0
0 0 0
0 0 0
0 0 0
0 0 0
0 0 0
0 0 0
0 0 0
0 0 0
0 0 0
0 0 0
0 0 0
0 0 0
0 0 0
0 0 0
0 0 0
0 0 0
0 0 0
0 0 0
0 0 0
0 0 0
0 0 0
0 0 0
0 0 0
0 0 0
0 0 0
0 0 0
0 0 0
0 0 0
0 0 0
0 0 0
0 0 0
0 0 0
0 0 0
0 0 0
0 0 0
0 0 0
0 0 0
0 0 0
0 0 0
0 0 0
0 0 0
0 0 0
0 0 0
0 0 0
0 0 0
0 0 0
0 0 0
0 0 0
0 0 0
0 0 0
0 0 0
0 0 0
0 0 0
0 0 0
0 0 0
0 0 0
0 0 0
0 0 0
0 0 0
0 0 0
0 0 0
0 0 0
0 0 0
0 0 0
0 0 0
0 0 0
0 0 0
0 0 0
0 0 0
0 0 0
0 0 0
0 0 0
0 0 0
0 0 0
0 0 0
0 0 0
0 0 0
0 0 0
0 0 0
0 0 0
0 0 0
0 0 0
0 0 0
0 0 0
0 0 0
0 0 0
0 0 0
0 0 0
0 0 0
0 0 0
0 0 0
0 0 0
0 0 0
0 0 0
0 0 0
0 0 0
0 0 0
0 0 0
0 0 0
0 0 0
0 0 0
0 0 0
0 0 0
255 255 255
255 255 255
255 255 255
255 255 255
255 255 255
255 255 255
255 255 255
255 255 255
255 255 255
255 255 255
255 255 255
255 255 255
255 255 255
255 255 255
255 255 255
255 255 255
255 255 255
255 255 255
255 255 255
255 255 255
255 255 255
255 255 255
255 255 255
255 255 255
255 255 255
255 255 255
255 255 255
255 255 255
255 255 255
255 255 255
255 255 255
255 255 255
255 255 255
255 255 255
255 255 255
255 255 255
255 255 255
255 255 255
255 255 255
255 255 255
255 255 255
255 255 255
255 255 255
255 255 255
255 255 255
255 255 255
255 255 255
255 255 255
0 0 0
0 0 0
0 0 0
0 0 0
0 0 0
0 0 0
0 0 0
0 0 0
0 0 0
0 0 0
0 0 0
0 0 0
0 0 0
0 0 0
0 0 0
0 0 0
0 0 0
0 0 0
0 0 0
0 0 0
0 0 0
0 0 0
0 0 0
0 0 0
0 0 0
0 0 0
0 0 0
0 0 0
0 0 0
0 0 0
0 0 0
0 0 0
0 0 0
0 0 0
0 0 0
0 0 0
0 0 0
0 0 0
0 0 0
0 0 0
0 0 0
0 0 0
0 0 0
0 0 0
0 0 0
0 0 0
0 0 0
0 0 0
0 0 0
0 0 0
0 0 0
255 255 255
255 255 255
255 255 255
255 255 255
255 255 255
255 255 255
255 255 255
255 255 255
255 255 255
255 255 255
255 255 255
255 255 255
255 255 255
255 255 255
255 255 255
255 255 255
255 255 255
255 255 255
255 255 255
255 255 255
255 255 255
255 255 255
255 255 255
255 255 255
255 255 255
255 255 255
255 255 255
255 255 255
255 255 255
255 255 255
255 255 255
255 255 255
255 255 255
255 255 255
255 255 255
255 255 255
255 255 255
0 0 0
0 0 0
0 0 0
0 0 0
0 0 0
0 0 0
0 0 0
0 0 0
0 0 0
0 0 0
0 0 0
0 0 0
0 0 0
0 0 0
0 0 0
0 0 0
0 0 0
0 0 0
0 0 0
0 0 0
0 0 0
0 0 0
0 0 0
0 0 0
0 0 0
0 0 0
0 0 0
0 0 0
0 0 0
0 0 0
0 0 0
0 0 0
0 0 0
0 0 0
0 0 0
0 0 0
0 0 0
0 0 0
0 0 0
0 0 0
0 0 0
0 0 0
0 0 0
0 0 0
0 0 0
0 0 0
0 0 0
0 0 0
0 0 0
0 0 0
0 0 0
0 0 0
0 0 0
0 0 0
0 0 0
0 0 0
0 0 0
0 0 0
0 0 0
0 0 0
0 0 0
0 0 0
0 0 0
0 0 0
0 0 0
0 0 0
0 0 0
0 0 0
0 0 0
0 0 0
0 0 0
0 0 0
0 0 0
0 0 0
0 0 0
0 0 0
0 0 0
0 0 0
0 0 0
0 0 0
0 0 0
0 0 0
0 0 0
0 0 0
0 0 0
0 0 0
0 0 0
0 0 0
0 0 0
0 0 0
0 0 0
0 0 0
0 0 0
0 0 0
0 0 0
0 0 0
0 0 0
0 0 0
0 0 0
0 0 0
0 0 0
0 0 0
0 0 0
0 0 0
0 0 0
0 0 0
0 0 0
0 0 0
0 0 0
0 0 0
0 0 0
0 0 0
0 0 0
0 0 0
0 0 0
0 0 0
0 0 0
0 0 0
0 0 0
0 0 0
0 0 0
0 0 0
0 0 0
0 0 0
0 0 0
0 0 0
0 0 0
0 0 0
0 0 0
0 0 0
0 0 0
0 0 0
0 0 0
0 0 0
0 0 0
0 0 0
0 0 0
0 0 0
0 0 0
0 0 0
0 0 0
0 0 0
0 0 0
0 0 0
0 0 0
0 0 0
0 0 0
0 0 0
0 0 0
0 0 0
0 0 0
0 0 0
0 0 0
0 0 0
0 0 0
0 0 0
0 0 0
0 0 0
0 0 0
0 0 0
0 0 0
0 0 0
0 0 0
0 0 0
0 0 0
0 0 0
0 0 0
0 0 0
0 0 0
0 0 0
0 0 0
0 0 0
0 0 0
0 0 0
0 0 0
0 0 0
0 0 0
0 0 0
0 0 0
0 0 0
0 0 0
0 0 0
0 0 0
0 0 0
0 0 0
0 0 0
0 0 0
0 0 0
0 0 0
0 0 0
0 0 0
0 0 0
0 0 0
0 0 0
0 0 0
0 0 0
0 0 0
0 0 0
0 0 0
0 0 0
0 0 0
0 0 0
0 0 0
0 0 0
0 0 0
0 0 0
0 0 0
0 0 0
0 0 0
0 0 0
0 0 0
0 0 0
0 0 0
0 0 0
0 0 0
0 0 0
0 0 0
0 0 0
0 0 0
0 0 0
0 0 0
0 0 0
0 0 0
0 0 0
0 0 0
0 0 0
0 0 0
0 0 0
0 0 0
0 0 0
0 0 0
0 0 0
0 0 0
0 0 0
0 0 0
0 0 0
0 0 0
0 0 0
0 0 0
0 0 0
0 0 0
0 0 0
0 0 0
0 0 0
0 0 0
0 0 0
0 0 0
0 0 0
0 0 0
0 0 0
0 0 0
0 0 0
0 0 0
0 0 0
0 0 0
0 0 0
0 0 0
0 0 0
0 0 0
0 0 0
0 0 0
0 0 0
0 0 0
0 0 0
125 125 125
255 255 255
255 255 255
255 255 255
255 255 255
255 255 255
255 255 255
255 255 255
255 255 255
255 255 255
255 255 255
255 255 255
255 255 255
255 255 255
255 255 255
255 255 255
255 255 255
255 255 255
255 255 255
255 255 255
255 255 255
255 255 255
255 255 255
255 255 255
255 255 255
255 255 255
255 255 255
255 255 255
255 255 255
255 255 255
255 255 255
255 255 255
255 255 255
255 255 255
255 255 255
255 255 255
255 255 255
255 255 255
255 255 255
255 255 255
255 255 255
255 255 255
255 255 255
255 255 255
255 255 255
255 255 255
255 255 255
120 120 120
0 0 0
0 0 0
0 0 0
0 0 0
0 0 0
0 0 0
0 0 0
0 0 0
0 0 0
0 0 0
0 0 0
0 0 0
0 0 0
0 0 0
0 0 0
0 0 0
0 0 0
0 0 0
0 0 0
0 0 0
0 0 0
0 0 0
0 0 0
0 0 0
0 0 0
0 0 0
0 0 0
0 0 0
0 0 0
0 0 0
0 0 0
0 0 0
0 0 0
0 0 0
0 0 0
0 0 0
0 0 0
0 0 0
0 0 0
0 0 0
0 0 0
0 0 0
0 0 0
0 0 0
0 0 0
0 0 0
0 0 0
0 0 0
0 0 0
0 0 0
0 0 0
255 255 255
255 255 255
255 255 255
255 255 255
255 255 255
255 255 255
255 255 255
255 255 255
255 255 255
255 255 255
255 255 255
255 255 255
255 255 255
255 255 255
255 255 255
255 255 255
255 255 255
255 255 255
255 255 255
255 255 255
255 255 255
255 255 255
255 255 255
255 255 255
255 255 255
255 255 255
255 255 255
255 255 255
255 255 255
255 255 255
255 255 255
255 255 255
255 255 255
255 255 255
255 255 255
255 255 255
255 255 255
0 0 0
0 0 0
0 0 0
0 0 0
0 0 0
0 0 0
0 0 0
0 0 0
0 0 0
0 0 0
0 0 0
0 0 0
0 0 0
0 0 0
0 0 0
0 0 0
0 0 0
0 0 0
0 0 0
0 0 0
0 0 0
0 0 0
0 0 0
0 0 0
0 0 0
0 0 0
0 0 0
0 0 0
0 0 0
0 0 0
0 0 0
0 0 0
0 0 0
0 0 0
0 0 0
0 0 0
0 0 0
0 0 0
0 0 0
0 0 0
0 0 0
0 0 0
0 0 0
0 0 0
0 0 0
0 0 0
0 0 0
0 0 0
0 0 0
0 0 0
0 0 0
0 0 0
0 0 0
0 0 0
0 0 0
0 0 0
0 0 0
0 0 0
0 0 0
0 0 0
0 0 0
0 0 0
0 0 0
0 0 0
0 0 0
0 0 0
0 0 0
0 0 0
0 0 0
0 0 0
0 0 0
0 0 0
0 0 0
0 0 0
0 0 0
0 0 0
0 0 0
0 0 0
0 0 0
0 0 0
0 0 0
0 0 0
0 0 0
0 0 0
0 0 0
0 0 0
0 0 0
0 0 0
0 0 0
0 0 0
0 0 0
0 0 0
0 0 0
0 0 0
0 0 0
0 0 0
0 0 0
0 0 0
0 0 0
0 0 0
0 0 0
0 0 0
0 0 0
0 0 0
0 0 0
0 0 0
0 0 0
0 0 0
0 0 0
0 0 0
0 0 0
0 0 0
0 0 0
0 0 0
0 0 0
0 0 0
0 0 0
0 0 0
0 0 0
0 0 0
0 0 0
0 0 0
0 0 0
0 0 0
0 0 0
0 0 0
0 0 0
0 0 0
0 0 0
0 0 0
0 0 0
0 0 0
0 0 0
0 0 0
0 0 0
0 0 0
0 0 0
0 0 0
0 0 0
0 0 0
0 0 0
0 0 0
0 0 0
0 0 0
0 0 0
0 0 0
0 0 0
0 0 0
0 0 0
0 0 0
0 0 0
0 0 0
0 0 0
0 0 0
0 0 0
0 0 0
0 0 0
0 0 0
0 0 0
0 0 0
0 0 0
0 0 0
0 0 0
0 0 0
0 0 0
0 0 0
0 0 0
0 0 0
0 0 0
0 0 0
0 0 0
0 0 0
0 0 0
0 0 0
0 0 0
0 0 0
0 0 0
0 0 0
0 0 0
0 0 0
0 0 0
0 0 0
0 0 0
0 0 0
0 0 0
0 0 0
0 0 0
0 0 0
0 0 0
0 0 0
0 0 0
0 0 0
0 0 0
0 0 0
0 0 0
0 0 0
0 0 0
0 0 0
0 0 0
0 0 0
0 0 0
0 0 0
0 0 0
0 0 0
0 0 0
0 0 0
0 0 0
0 0 0
0 0 0
0 0 0
0 0 0
0 0 0
0 0 0
0 0 0
0 0 0
0 0 0
0 0 0
0 0 0
0 0 0
0 0 0
0 0 0
0 0 0
0 0 0
0 0 0
0 0 0
0 0 0
0 0 0
0 0 0
0 0 0
0 0 0
0 0 0
0 0 0
0 0 0
0 0 0
0 0 0
0 0 0
0 0 0
0 0 0
0 0 0
0 0 0
0 0 0
0 0 0
0 0 0
0 0 0
0 0 0
0 0 0
0 0 0
0 0 0
0 0 0
0 0 0
0 0 0
0 0 0
0 0 0
0 0 0
0 0 0
0 0 0
0 0 0
0 0 0
0 0 0
0 0 0
0 0 0
0 0 0
0 0 0
0 0 0
0 0 0
157 157 157
255 255 255
255 255 255
255 255 255
255 255 255
255 255 255
255 255 255
255 255 255
255 255 255
255 255 255
255 255 255
255 255 255
255 255 255
255 255 255
255 255 255
255 255 255
255 255 255
255 255 255
255 255 255
255 255 255
255 255 255
255 255 255
255 255 255
255 255 255
255 255 255
255 255 255
255 255 255
255 255 255
255 255 255
255 255 255
255 255 255
255 255 255
255 255 255
255 255 255
255 255 255
255 255 255
255 255 255
255 255 255
255 255 255
255 255 255
255 255 255
255 255 255
255 255 255
255 255 255
255 255 255
149 149 149
0 0 0
0 0 0
0 0 0
0 0 0
0 0 0
0 0 0
0 0 0
0 0 0
0 0 0
0 0 0
0 0 0
0 0 0
0 0 0
0 0 0
0 0 0
0 0 0
0 0 0
0 0 0
0 0 0
0 0 0
0 0 0
0 0 0
0 0 0
0 0 0
0 0 0
0 0 0
0 0 0
0 0 0
0 0 0
0 0 0
0 0 0
0 0 0
0 0 0
0 0 0
0 0 0
0 0 0
0 0 0
0 0 0
0 0 0
0 0 0
0 0 0
0 0 0
0 0 0
0 0 0
0 0 0
0 0 0
0 0 0
0 0 0
0 0 0
0 0 0
0 0 0
0 0 0
255 255 255
255 255 255
255 255 255
255 255 255
255 255 255
255 255 255
255 255 255
255 255 255
255 255 255
255 255 255
255 255 255
255 255 255
255 255 255
255 255 255
255 255 255
255 255 255
255 255 255
255 255 255
255 255 255
255 255 255
255 255 255
255 255 255
255 255 255
255 255 255
255 255 255
255 255 255
255 255 255
255 255 255
255 255 255
255 255 255
255 255 255
255 255 255
255 255 255
255 255 255
255 255 255
255 255 255
255 255 255
0 0 0
0 0 0
0 0 0
0 0 0
0 0 0
0 0 0
0 0 0
0 0 0
0 0 0
0 0 0
0 0 0
0 0 0
0 0 0
0 0 0
0 0 0
0 0 0
0 0 0
0 0 0
0 0 0
0 0 0
0 0 0
0 0 0
0 0 0
0 0 0
0 0 0
0 0 0
0 0 0
0 0 0
0 0 0
0 0 0
0 0 0
0 0 0
0 0 0
0 0 0
0 0 0
0 0 0
0 0 0
0 0 0
0 0 0
0 0 0
0 0 0
0 0 0
0 0 0
0 0 0
0 0 0
0 0 0
0 0 0
0 0 0
0 0 0
0 0 0
0 0 0
0 0 0
0 0 0
0 0 0
0 0 0
0 0 0
0 0 0
0 0 0
0 0 0
0 0 0
0 0 0
0 0 0
0 0 0
0 0 0
0 0 0
0 0 0
0 0 0
0 0 0
0 0 0
0 0 0
0 0 0
0 0 0
0 0 0
0 0 0
0 0 0
0 0 0
0 0 0
0 0 0
0 0 0
0 0 0
0 0 0
0 0 0
0 0 0
0 0 0
0 0 0
0 0 0
0 0 0
0 0 0
0 0 0
0 0 0
0 0 0
0 0 0
0 0 0
0 0 0
0 0 0
0 0 0
0 0 0
0 0 0
0 0 0
0 0 0
0 0 0
0 0 0
0 0 0
0 0 0
0 0 0
0 0 0
0 0 0
0 0 0
0 0 0
0 0 0
0 0 0
0 0 0
0 0 0
0 0 0
0 0 0
0 0 0
0 0 0
0 0 0
0 0 0
0 0 0
0 0 0
0 0 0
0 0 0
0 0 0
0 0 0
0 0 0
0 0 0
0 0 0
0 0 0
0 0 0
0 0 0
0 0 0
0 0 0
0 0 0
0 0 0
0 0 0
0 0 0
0 0 0
0 0 0
0 0 0
0 0 0
0 0 0
0 0 0
0 0 0
0 0 0
0 0 0
0 0 0
0 0 0
0 0 0
0 0 0
0 0 0
0 0 0
0 0 0
0 0 0
0 0 0
0 0 0
0 0 0
0 0 0
0 0 0
0 0 0
0 0 0
0 0 0
0 0 0
0 0 0
0 0 0
0 0 0
0 0 0
0 0 0
0 0 0
0 0 0
0 0 0
0 0 0
0 0 0
0 0 0
0 0 0
0 0 0
0 0 0
0 0 0
0 0 0
0 0 0
0 0 0
0 0 0
0 0 0
0 0 0
0 0 0
0 0 0
0 0 0
0 0 0
0 0 0
0 0 0
0 0 0
0 0 0
0 0 0
0 0 0
0 0 0
0 0 0
0 0 0
0 0 0
0 0 0
0 0 0
0 0 0
0 0 0
0 0 0
0 0 0
0 0 0
0 0 0
0 0 0
0 0 0
0 0 0
0 0 0
0 0 0
0 0 0
0 0 0
0 0 0
0 0 0
0 0 0
0 0 0
0 0 0
0 0 0
0 0 0
0 0 0
0 0 0
0 0 0
0 0 0
0 0 0
0 0 0
0 0 0
0 0 0
0 0 0
0 0 0
0 0 0
0 0 0
0 0 0
0 0 0
0 0 0
0 0 0
0 0 0
0 0 0
0 0 0
0 0 0
0 0 0
0 0 0
0 0 0
0 0 0
0 0 0
0 0 0
0 0 0
0 0 0
0 0 0
0 0 0
0 0 0
0 0 0
0 0 0
0 0 0
0 0 0
0 0 0
0 0 0
0 0 0
0 0 0
0 0 0
0 0 0
0 0 0
0 0 0
0 0 0
0 0 0
0 0 0
142 142 142
255 255 255
255 255 255
255 255 255
255 255 255
255 255 255
255 255 255
255 255 255
255 255 255
255 255 255
255 255 255
255 255 255
255 255 255
255 255 255
255 255 255
255 255 255
255 255 255
255 255 255
255 255 255
255 255 255
255 255 255
255 255 255
255 255 255
255 255 255
255 255 255
255 255 255
255 255 255
255 255 255
255 255 255
255 255 255
255 255 255
255 255 255
255 255 255
255 255 255
255 255 255
255 255 255
255 255 255
255 255 255
255 255 255
255 255 255
255 255 255
255 255 255
255 255 255
140 140 140
0 0 0
0 0 0
0 0 0
0 0 0
0 0 0
0 0 0
0 0 0
0 0 0
0 0 0
0 0 0
0 0 0
0 0 0
0 0 0
0 0 0
0 0 0
0 0 0
0 0 0
0 0 0
0 0 0
0 0 0
0 0 0
0 0 0
0 0 0
0 0 0
0 0 0
0 0 0
0 0 0
0 0 0
0 0 0
0 0 0
0 0 0
0 0 0
0 0 0
0 0 0
0 0 0
0 0 0
0 0 0
0 0 0
0 0 0
0 0 0
0 0 0
0 0 0
0 0 0
0 0 0
0 0 0
0 0 0
0 0 0
0 0 0
0 0 0
0 0 0
0 0 0
0 0 0
0 0 0
255 255 255
255 255 255
255 255 255
255 255 255
255 255 255
255 255 255
255 255 255
255 255 255
255 255 255
255 255 255
255 255 255
255 255 255
255 255 255
255 255 255
255 255 255
255 255 255
255 255 255
255 255 255
255 255 255
255 255 255
255 255 255
255 255 255
255 255 255
255 255 255
255 255 255
255 255 255
255 255 255
255 255 255
255 255 255
255 255 255
255 255 255
255 255 255
255 255 255
255 255 255
255 255 255
255 255 255
255 255 255
0 0 0
0 0 0
0 0 0
0 0 0
0 0 0
0 0 0
0 0 0
0 0 0
0 0 0
0 0 0
0 0 0
0 0 0
0 0 0
0 0 0
0 0 0
0 0 0
0 0 0
0 0 0
0 0 0
0 0 0
0 0 0
0 0 0
0 0 0
0 0 0
0 0 0
0 0 0
0 0 0
0 0 0
0 0 0
0 0 0
0 0 0
0 0 0
0 0 0
0 0 0
0 0 0
0 0 0
0 0 0
0 0 0
0 0 0
0 0 0
0 0 0
0 0 0
0 0 0
0 0 0
0 0 0
0 0 0
0 0 0
0 0 0
0 0 0
0 0 0
0 0 0
0 0 0
0 0 0
0 0 0
0 0 0
0 0 0
0 0 0
0 0 0
0 0 0
0 0 0
0 0 0
0 0 0
0 0 0
0 0 0
0 0 0
0 0 0
0 0 0
0 0 0
0 0 0
0 0 0
0 0 0
0 0 0
0 0 0
0 0 0
0 0 0
0 0 0
0 0 0
0 0 0
0 0 0
0 0 0
0 0 0
0 0 0
0 0 0
0 0 0
0 0 0
0 0 0
0 0 0
0 0 0
0 0 0
0 0 0
0 0 0
0 0 0
0 0 0
0 0 0
0 0 0
0 0 0
0 0 0
0 0 0
0 0 0
0 0 0
0 0 0
0 0 0
0 0 0
0 0 0
0 0 0
0 0 0
0 0 0
0 0 0
0 0 0
0 0 0
0 0 0
0 0 0
0 0 0
0 0 0
0 0 0
0 0 0
0 0 0
0 0 0
0 0 0
0 0 0
0 0 0
0 0 0
0 0 0
0 0 0
0 0 0
0 0 0
0 0 0
0 0 0
0 0 0
0 0 0
0 0 0
0 0 0
0 0 0
0 0 0
0 0 0
0 0 0
0 0 0
0 0 0
0 0 0
0 0 0
0 0 0
0 0 0
0 0 0
0 0 0
0 0 0
0 0 0
0 0 0
0 0 0
0 0 0
0 0 0
0 0 0
0 0 0
0 0 0
0 0 0
0 0 0
0 0 0
0 0 0
0 0 0
0 0 0
0 0 0
0 0 0
0 0 0
0 0 0
0 0 0
0 0 0
0 0 0
0 0 0
0 0 0
0 0 0
0 0 0
0 0 0
0 0 0
0 0 0
0 0 0
0 0 0
0 0 0
0 0 0
0 0 0
0 0 0
0 0 0
0 0 0
0 0 0
0 0 0
0 0 0
0 0 0
0 0 0
0 0 0
0 0 0
0 0 0
0 0 0
0 0 0
0 0 0
0 0 0
0 0 0
0 0 0
0 0 0
0 0 0
0 0 0
0 0 0
0 0 0
0 0 0
0 0 0
0 0 0
0 0 0
0 0 0
0 0 0
0 0 0
0 0 0
0 0 0
0 0 0
0 0 0
0 0 0
0 0 0
0 0 0
0 0 0
0 0 0
0 0 0
0 0 0
0 0 0
0 0 0
0 0 0
0 0 0
0 0 0
0 0 0
0 0 0
0 0 0
0 0 0
0 0 0
0 0 0
0 0 0
0 0 0
0 0 0
0 0 0
0 0 0
0 0 0
0 0 0
0 0 0
0 0 0
0 0 0
0 0 0
0 0 0
0 0 0
0 0 0
0 0 0
0 0 0
0 0 0
0 0 0
0 0 0
0 0 0
0 0 0
0 0 0
0 0 0
0 0 0
0 0 0
0 0 0
0 0 0
0 0 0
0 0 0
0 0 0
0 0 0
0 0 0
0 0 0
0 0 0
0 0 0
0 0 0
0 0 0
0 0 0
95 95 95
255 255 255
255 255 255
255 255 255
255 255 255
255 255 255
255 255 255
255 255 255
255 255 255
255 255 255
255 255 255
255 255 255
255 255 255
255 255 255
255 255 255
255 255 255
255 255 255
255 255 255
255 255 255
255 255 255
255 255 255
255 255 255
255 255 255
255 255 255
255 255 255
255 255 255
255 255 255
255 255 255
255 255 255
255 255 255
255 255 255
255 255 255
255 255 255
255 255 255
255 255 255
255 255 255
255 255 255
255 255 255
255 255 255
255 255 255
255 255 255
125 125 125
0 0 0
0 0 0
0 0 0
0 0 0
0 0 0
0 0 0
0 0 0
0 0 0
0 0 0
0 0 0
0 0 0
0 0 0
0 0 0
0 0 0
0 0 0
0 0 0
0 0 0
0 0 0
0 0 0
0 0 0
0 0 0
0 0 0
0 0 0
0 0 0
0 0 0
0 0 0
0 0 0
0 0 0
0 0 0
0 0 0
0 0 0
0 0 0
0 0 0
0 0 0
0 0 0
0 0 0
0 0 0
0 0 0
0 0 0
0 0 0
0 0 0
0 0 0
0 0 0
0 0 0
0 0 0
0 0 0
0 0 0
0 0 0
0 0 0
0 0 0
0 0 0
0 0 0
0 0 0
0 0 0
255 255 255
255 255 255
255 255 255
255 255 255
255 255 255
255 255 255
255 255 255
255 255 255
255 255 255
255 255 255
255 255 255
255 255 255
255 255 255
255 255 255
255 255 255
255 255 255
255 255 255
255 255 255
255 255 255
255 255 255
255 255 255
255 255 255
255 255 255
255 255 255
255 255 255
255 255 255
255 255 255
255 255 255
255 255 255
255 255 255
255 255 255
255 255 255
255 255 255
255 255 255
255 255 255
255 255 255
255 255 255
0 0 0
0 0 0
0 0 0
0 0 0
0 0 0
0 0 0
0 0 0
0 0 0
0 0 0
0 0 0
0 0 0
0 0 0
0 0 0
0 0 0
0 0 0
0 0 0
0 0 0
0 0 0
0 0 0
0 0 0
0 0 0
0 0 0
0 0 0
0 0 0
0 0 0
0 0 0
0 0 0
0 0 0
0 0 0
0 0 0
0 0 0
0 0 0
0 0 0
0 0 0
0 0 0
0 0 0
0 0 0
0 0 0
0 0 0
0 0 0
0 0 0
0 0 0
0 0 0
0 0 0
0 0 0
0 0 0
0 0 0
0 0 0
0 0 0
0 0 0
0 0 0
0 0 0
0 0 0
0 0 0
0 0 0
0 0 0
0 0 0
0 0 0
0 0 0
0 0 0
0 0 0
0 0 0
0 0 0
0 0 0
0 0 0
0 0 0
0 0 0
0 0 0
0 0 0
0 0 0
0 0 0
0 0 0
0 0 0
0 0 0
0 0 0
0 0 0
0 0 0
0 0 0
0 0 0
0 0 0
0 0 0
0 0 0
0 0 0
0 0 0
0 0 0
0 0 0
0 0 0
0 0 0
0 0 0
0 0 0
0 0 0
0 0 0
0 0 0
0 0 0
0 0 0
0 0 0
0 0 0
0 0 0
0 0 0
0 0 0
0 0 0
0 0 0
0 0 0
0 0 0
0 0 0
0 0 0
0 0 0
0 0 0
0 0 0
0 0 0
0 0 0
0 0 0
0 0 0
0 0 0
0 0 0
0 0 0
0 0 0
0 0 0
0 0 0
0 0 0
0 0 0
0 0 0
0 0 0
0 0 0
0 0 0
0 0 0
0 0 0
0 0 0
0 0 0
0 0 0
0 0 0
0 0 0
0 0 0
0 0 0
0 0 0
0 0 0
0 0 0
0 0 0
0 0 0
0 0 0
0 0 0
0 0 0
0 0 0
0 0 0
0 0 0
0 0 0
0 0 0
0 0 0
0 0 0
0 0 0
0 0 0
0 0 0
0 0 0
0 0 0
0 0 0
0 0 0
0 0 0
0 0 0
0 0 0
0 0 0
0 0 0
0 0 0
0 0 0
0 0 0
0 0 0
0 0 0
0 0 0
0 0 0
0 0 0
0 0 0
0 0 0
0 0 0
0 0 0
0 0 0
0 0 0
0 0 0
0 0 0
0 0 0
0 0 0
0 0 0
0 0 0
0 0 0
0 0 0
0 0 0
0 0 0
0 0 0
0 0 0
0 0 0
0 0 0
0 0 0
0 0 0
0 0 0
0 0 0
0 0 0
0 0 0
0 0 0
0 0 0
0 0 0
0 0 0
0 0 0
0 0 0
0 0 0
0 0 0
0 0 0
0 0 0
0 0 0
0 0 0
0 0 0
0 0 0
0 0 0
0 0 0
0 0 0
0 0 0
0 0 0
0 0 0
0 0 0
0 0 0
0 0 0
0 0 0
0 0 0
0 0 0
0 0 0
0 0 0
0 0 0
0 0 0
0 0 0
0 0 0
0 0 0
0 0 0
0 0 0
0 0 0
0 0 0
0 0 0
0 0 0
0 0 0
0 0 0
0 0 0
0 0 0
0 0 0
0 0 0
0 0 0
0 0 0
0 0 0
0 0 0
0 0 0
0 0 0
0 0 0
0 0 0
0 0 0
0 0 0
0 0 0
0 0 0
0 0 0
0 0 0
0 0 0
0 0 0
0 0 0
0 0 0
0 0 0
0 0 0
0 0 0
0 0 0
0 0 0
0 0 0
0 0 0
0 0 0
0 0 0
0 0 0
0 0 0
255 255 255
255 255 255
255 255 255
255 255 255
255 255 255
255 255 255
255 255 255
255 255 255
255 255 255
255 255 255
255 255 255
255 255 255
255 255 255
255 255 255
255 255 255
255 255 255
255 255 255
255 255 255
255 255 255
255 255 255
255 255 255
255 255 255
255 255 255
255 255 255
255 255 255
255 255 255
255 255 255
255 255 255
255 255 255
255 255 255
255 255 255
255 255 255
255 255 255
255 255 255
255 255 255
255 255 255
255 255 255
255 255 255
0 0 0
0 0 0
0 0 0
0 0 0
0 0 0
0 0 0
0 0 0
0 0 0
0 0 0
0 0 0
0 0 0
0 0 0
0 0 0
0 0 0
0 0 0
0 0 0
0 0 0
0 0 0
0 0 0
0 0 0
0 0 0
0 0 0
0 0 0
0 0 0
0 0 0
0 0 0
0 0 0
0 0 0
0 0 0
0 0 0
0 0 0
0 0 0
0 0 0
0 0 0
0 0 0
0 0 0
0 0 0
0 0 0
0 0 0
0 0 0
0 0 0
0 0 0
0 0 0
0 0 0
0 0 0
0 0 0
0 0 0
0 0 0
0 0 0
0 0 0
0 0 0
0 0 0
0 0 0
0 0 0
0 0 0
36 36 36
255 255 255
255 255 255
255 255 255
255 255 255
255 255 255
255 255 255
255 255 255
255 255 255
255 255 255
255 255 255
255 255 255
255 255 255
255 255 255
255 255 255
255 255 255
255 255 255
255 255 255
255 255 255
255 255 255
255 255 255
255 255 255
255 255 255
255 255 255
255 255 255
255 255 255
255 255 255
255 255 255
255 255 255
255 255 255
255 255 255
255 255 255
255 255 255
255 255 255
255 255 255
255 255 255
255 255 255
255 255 255
0 0 0
0 0 0
0 0 0
0 0 0
0 0 0
0 0 0
0 0 0
0 0 0
0 0 0
0 0 0
0 0 0
0 0 0
0 0 0
0 0 0
0 0 0
0 0 0
0 0 0
0 0 0
0 0 0
0 0 0
0 0 0
0 0 0
0 0 0
0 0 0
0 0 0
0 0 0
0 0 0
0 0 0
0 0 0
0 0 0
0 0 0
0 0 0
0 0 0
0 0 0
0 0 0
0 0 0
0 0 0
0 0 0
0 0 0
0 0 0
0 0 0
0 0 0
0 0 0
0 0 0
0 0 0
0 0 0
0 0 0
0 0 0
0 0 0
0 0 0
0 0 0
0 0 0
0 0 0
0 0 0
0 0 0
0 0 0
0 0 0
0 0 0
0 0 0
0 0 0
0 0 0
0 0 0
0 0 0
0 0 0
0 0 0
0 0 0
0 0 0
0 0 0
0 0 0
0 0 0
0 0 0
0 0 0
0 0 0
0 0 0
0 0 0
0 0 0
0 0 0
0 0 0
0 0 0
0 0 0
0 0 0
0 0 0
0 0 0
0 0 0
0 0 0
0 0 0
0 0 0
0 0 0
0 0 0
0 0 0
0 0 0
0 0 0
0 0 0
0 0 0
0 0 0
0 0 0
0 0 0
0 0 0
0 0 0
0 0 0
0 0 0
0 0 0
0 0 0
0 0 0
0 0 0
0 0 0
0 0 0
0 0 0
0 0 0
0 0 0
0 0 0
0 0 0
0 0 0
0 0 0
0 0 0
0 0 0
0 0 0
0 0 0
0 0 0
0 0 0
0 0 0
0 0 0
0 0 0
0 0 0
0 0 0
0 0 0
0 0 0
0 0 0
0 0 0
0 0 0
0 0 0
0 0 0
0 0 0
0 0 0
0 0 0
0 0 0
0 0 0
0 0 0
0 0 0
0 0 0
0 0 0
0 0 0
0 0 0
0 0 0
0 0 0
0 0 0
0 0 0
0 0 0
0 0 0
0 0 0
0 0 0
0 0 0
0 0 0
0 0 0
0 0 0
0 0 0
0 0 0
0 0 0
0 0 0
0 0 0
0 0 0
0 0 0
0 0 0
0 0 0
0 0 0
0 0 0
0 0 0
0 0 0
0 0 0
0 0 0
0 0 0
0 0 0
0 0 0
0 0 0
0 0 0
0 0 0
0 0 0
0 0 0
0 0 0
0 0 0
0 0 0
0 0 0
0 0 0
0 0 0
0 0 0
0 0 0
0 0 0
0 0 0
0 0 0
0 0 0
0 0 0
0 0 0
0 0 0
0 0 0
0 0 0
0 0 0
0 0 0
0 0 0
0 0 0
0 0 0
0 0 0
0 0 0
0 0 0
0 0 0
0 0 0
0 0 0
0 0 0
0 0 0
0 0 0
0 0 0
0 0 0
0 0 0
0 0 0
0 0 0
0 0 0
0 0 0
0 0 0
0 0 0
0 0 0
0 0 0
0 0 0
0 0 0
0 0 0
0 0 0
0 0 0
0 0 0
0 0 0
0 0 0
0 0 0
0 0 0
0 0 0
0 0 0
0 0 0
0 0 0
0 0 0
0 0 0
0 0 0
0 0 0
0 0 0
0 0 0
0 0 0
0 0 0
0 0 0
0 0 0
0 0 0
0 0 0
0 0 0
0 0 0
0 0 0
0 0 0
0 0 0
0 0 0
0 0 0
0 0 0
0 0 0
0 0 0
0 0 0
0 0 0
0 0 0
0 0 0
0 0 0
0 0 0
0 0 0
0 0 0
0 0 0
0 0 0
0 0 0
0 0 0
0 0 0
0 0 0
255 255 255
255 255 255
255 255 255
255 255 255
255 255 255
255 255 255
255 255 255
255 255 255
255 255 255
255 255 255
255 255 255
255 255 255
255 255 255
255 255 255
255 255 255
255 255 255
255 255 255
255 255 255
255 255 255
255 255 255
255 255 255
255 255 255
255 255 255
255 255 255
255 255 255
255 255 255
255 255 255
255 255 255
255 255 255
255 255 255
255 255 255
255 255 255
255 255 255
255 255 255
255 255 255
255 255 255
0 0 0
0 0 0
0 0 0
0 0 0
0 0 0
0 0 0
0 0 0
0 0 0
0 0 0
0 0 0
0 0 0
0 0 0
0 0 0
0 0 0
0 0 0
0 0 0
0 0 0
0 0 0
0 0 0
0 0 0
0 0 0
0 0 0
0 0 0
0 0 0
0 0 0
0 0 0
0 0 0
0 0 0
0 0 0
0 0 0
0 0 0
0 0 0
0 0 0
0 0 0
0 0 0
0 0 0
0 0 0
0 0 0
0 0 0
0 0 0
0 0 0
0 0 0
0 0 0
0 0 0
0 0 0
0 0 0
0 0 0
0 0 0
0 0 0
0 0 0
0 0 0
0 0 0
0 0 0
0 0 0
0 0 0
0 0 0
76 76 76
255 255 255
255 255 255
255 255 255
255 255 255
255 255 255
255 255 255
255 255 255
255 255 255
255 255 255
255 255 255
255 255 255
255 255 255
255 255 255
255 255 255
255 255 255
255 255 255
255 255 255
255 255 255
255 255 255
255 255 255
255 255 255
255 255 255
255 255 255
255 255 255
255 255 255
255 255 255
255 255 255
255 255 255
255 255 255
255 255 255
255 255 255
255 255 255
255 255 255
255 255 255
255 255 255
255 255 255
255 255 255
0 0 0
0 0 0
0 0 0
0 0 0
0 0 0
0 0 0
0 0 0
0 0 0
0 0 0
0 0 0
0 0 0
0 0 0
0 0 0
0 0 0
0 0 0
0 0 0
0 0 0
0 0 0
0 0 0
0 0 0
0 0 0
0 0 0
0 0 0
0 0 0
0 0 0
0 0 0
0 0 0
0 0 0
0 0 0
0 0 0
0 0 0
0 0 0
0 0 0
0 0 0
0 0 0
0 0 0
0 0 0
0 0 0
0 0 0
0 0 0
0 0 0
0 0 0
0 0 0
0 0 0
0 0 0
0 0 0
0 0 0
0 0 0
0 0 0
0 0 0
0 0 0
0 0 0
0 0 0
0 0 0
0 0 0
0 0 0
0 0 0
0 0 0
0 0 0
0 0 0
0 0 0
0 0 0
0 0 0
0 0 0
0 0 0
0 0 0
0 0 0
0 0 0
0 0 0
0 0 0
0 0 0
0 0 0
0 0 0
0 0 0
0 0 0
0 0 0
0 0 0
0 0 0
0 0 0
0 0 0
0 0 0
0 0 0
0 0 0
0 0 0
0 0 0
0 0 0
0 0 0
0 0 0
0 0 0
0 0 0
0 0 0
0 0 0
0 0 0
0 0 0
0 0 0
0 0 0
0 0 0
0 0 0
0 0 0
0 0 0
0 0 0
0 0 0
0 0 0
0 0 0
0 0 0
0 0 0
0 0 0
0 0 0
0 0 0
0 0 0
0 0 0
0 0 0
0 0 0
0 0 0
0 0 0
0 0 0
0 0 0
0 0 0
0 0 0
0 0 0
0 0 0
0 0 0
0 0 0
0 0 0
0 0 0
0 0 0
0 0 0
0 0 0
0 0 0
0 0 0
0 0 0
0 0 0
0 0 0
0 0 0
0 0 0
0 0 0
0 0 0
0 0 0
0 0 0
0 0 0
0 0 0
0 0 0
0 0 0
0 0 0
0 0 0
0 0 0
0 0 0
0 0 0
0 0 0
0 0 0
0 0 0
0 0 0
0 0 0
0 0 0
0 0 0
0 0 0
0 0 0
0 0 0
0 0 0
0 0 0
0 0 0
0 0 0
0 0 0
0 0 0
0 0 0
0 0 0
0 0 0
0 0 0
0 0 0
0 0 0
0 0 0
0 0 0
0 0 0
0 0 0
0 0 0
0 0 0
0 0 0
0 0 0
0 0 0
0 0 0
0 0 0
0 0 0
0 0 0
0 0 0
0 0 0
0 0 0
0 0 0
0 0 0
0 0 0
0 0 0
0 0 0
0 0 0
0 0 0
0 0 0
0 0 0
0 0 0
0 0 0
0 0 0
0 0 0
0 0 0
0 0 0
0 0 0
0 0 0
0 0 0
0 0 0
0 0 0
0 0 0
0 0 0
0 0 0
0 0 0
0 0 0
0 0 0
0 0 0
0 0 0
0 0 0
0 0 0
0 0 0
0 0 0
0 0 0
0 0 0
0 0 0
0 0 0
0 0 0
0 0 0
0 0 0
0 0 0
0 0 0
0 0 0
0 0 0
0 0 0
0 0 0
0 0 0
0 0 0
0 0 0
0 0 0
0 0 0
0 0 0
0 0 0
0 0 0
0 0 0
0 0 0
0 0 0
0 0 0
0 0 0
0 0 0
0 0 0
0 0 0
0 0 0
0 0 0
0 0 0
0 0 0
0 0 0
0 0 0
0 0 0
0 0 0
0 0 0
0 0 0
0 0 0
0 0 0
0 0 0
0 0 0
0 0 0
0 0 0
0 0 0
0 0 0
0 0 0
0 0 0
0 0 0
0 0 0
0 0 0
0 0 0
67 67 67
255 255 255
255 255 255
255 255 255
255 255 255
255 255 255
255 255 255
255 255 255
255 255 255
255 255 255
255 255 255
255 255 255
255 255 255
255 255 255
255 255 255
255 255 255
255 255 255
255 255 255
255 255 255
255 255 255
255 255 255
255 255 255
255 255 255
255 255 255
255 255 255
255 255 255
255 255 255
255 255 255
255 255 255
255 255 255
255 255 255
255 255 255
255 255 255
102 102 102
0 0 0
0 0 0
0 0 0
0 0 0
0 0 0
0 0 0
0 0 0
0 0 0
0 0 0
0 0 0
0 0 0
0 0 0
0 0 0
0 0 0
0 0 0
0 0 0
0 0 0
0 0 0
0 0 0
0 0 0
0 0 0
0 0 0
0 0 0
0 0 0
0 0 0
0 0 0
0 0 0
0 0 0
0 0 0
0 0 0
0 0 0
0 0 0
0 0 0
0 0 0
0 0 0
0 0 0
0 0 0
0 0 0
0 0 0
0 0 0
0 0 0
0 0 0
0 0 0
0 0 0
0 0 0
0 0 0
0 0 0
0 0 0
0 0 0
0 0 0
0 0 0
0 0 0
0 0 0
0 0 0
0 0 0
0 0 0
0 0 0
84 84 84
255 255 255
255 255 255
255 255 255
255 255 255
255 255 255
255 255 255
255 255 255
255 255 255
255 255 255
255 255 255
255 255 255
255 255 255
255 255 255
255 255 255
255 255 255
255 255 255
255 255 255
255 255 255
255 255 255
255 255 255
255 255 255
255 255 255
255 255 255
255 255 255
255 255 255
255 255 255
255 255 255
255 255 255
255 255 255
255 255 255
255 255 255
255 255 255
255 255 255
255 255 255
255 255 255
255 255 255
255 255 255
0 0 0
0 0 0
0 0 0
0 0 0
0 0 0
0 0 0
0 0 0
0 0 0
0 0 0
0 0 0
0 0 0
0 0 0
0 0 0
0 0 0
0 0 0
0 0 0
0 0 0
0 0 0
0 0 0
0 0 0
0 0 0
0 0 0
0 0 0
0 0 0
0 0 0
0 0 0
0 0 0
0 0 0
0 0 0
0 0 0
0 0 0
0 0 0
0 0 0
0 0 0
0 0 0
0 0 0
0 0 0
0 0 0
0 0 0
0 0 0
0 0 0
0 0 0
0 0 0
0 0 0
0 0 0
0 0 0
0 0 0
0 0 0
0 0 0
0 0 0
0 0 0
0 0 0
0 0 0
0 0 0
0 0 0
0 0 0
0 0 0
0 0 0
0 0 0
0 0 0
0 0 0
0 0 0
0 0 0
0 0 0
0 0 0
0 0 0
0 0 0
0 0 0
0 0 0
0 0 0
0 0 0
0 0 0
0 0 0
0 0 0
0 0 0
0 0 0
0 0 0
0 0 0
0 0 0
0 0 0
0 0 0
0 0 0
0 0 0
0 0 0
0 0 0
0 0 0
0 0 0
0 0 0
0 0 0
0 0 0
0 0 0
0 0 0
0 0 0
0 0 0
0 0 0
0 0 0
0 0 0
0 0 0
0 0 0
0 0 0
0 0 0
0 0 0
0 0 0
0 0 0
0 0 0
0 0 0
0 0 0
0 0 0
0 0 0
0 0 0
0 0 0
0 0 0
0 0 0
0 0 0
0 0 0
0 0 0
0 0 0
0 0 0
0 0 0
0 0 0
0 0 0
0 0 0
0 0 0
0 0 0
0 0 0
0 0 0
0 0 0
0 0 0
0 0 0
0 0 0
0 0 0
0 0 0
0 0 0
0 0 0
0 0 0
0 0 0
0 0 0
0 0 0
0 0 0
0 0 0
0 0 0
0 0 0
0 0 0
0 0 0
0 0 0
0 0 0
0 0 0
0 0 0
0 0 0
0 0 0
0 0 0
0 0 0
0 0 0
0 0 0
0 0 0
0 0 0
0 0 0
0 0 0
0 0 0
0 0 0
0 0 0
0 0 0
0 0 0
0 0 0
0 0 0
0 0 0
0 0 0
0 0 0
0 0 0
0 0 0
0 0 0
0 0 0
0 0 0
0 0 0
0 0 0
0 0 0
0 0 0
0 0 0
0 0 0
0 0 0
0 0 0
0 0 0
0 0 0
0 0 0
0 0 0
0 0 0
0 0 0
0 0 0
0 0 0
0 0 0
0 0 0
0 0 0
0 0 0
0 0 0
0 0 0
0 0 0
0 0 0
0 0 0
0 0 0
0 0 0
0 0 0
0 0 0
0 0 0
0 0 0
0 0 0
0 0 0
0 0 0
0 0 0
0 0 0
0 0 0
0 0 0
0 0 0
0 0 0
0 0 0
0 0 0
0 0 0
0 0 0
0 0 0
0 0 0
0 0 0
0 0 0
0 0 0
0 0 0
0 0 0
0 0 0
0 0 0
0 0 0
0 0 0
0 0 0
0 0 0
0 0 0
0 0 0
0 0 0
0 0 0
0 0 0
0 0 0
0 0 0
0 0 0
0 0 0
0 0 0
0 0 0
0 0 0
0 0 0
0 0 0
0 0 0
0 0 0
0 0 0
0 0 0
0 0 0
0 0 0
0 0 0
0 0 0
0 0 0
0 0 0
0 0 0
0 0 0
0 0 0
0 0 0
0 0 0
0 0 0
0 0 0
0 0 0
0 0 0
0 0 0
0 0 0
0 0 0
0 0 0
0 0 0
0 0 0
0 0 0
0 0 0
0 0 0
0 0 0
191 191 191
255 255 255
255 255 255
255 255 255
255 255 255
255 255 255
255 255 255
255 255 255
255 255 255
255 255 255
255 255 255
255 255 255
255 255 255
255 255 255
255 255 255
255 255 255
255 255 255
255 255 255
255 255 255
255 255 255
255 255 255
255 255 255
255 255 255
255 255 255
255 255 255
255 255 255
255 255 255
255 255 255
255 255 255
163 163 163
0 0 0
0 0 0
0 0 0
0 0 0
0 0 0
0 0 0
0 0 0
0 0 0
0 0 0
0 0 0
0 0 0
0 0 0
0 0 0
0 0 0
0 0 0
0 0 0
0 0 0
0 0 0
0 0 0
0 0 0
0 0 0
0 0 0
0 0 0
0 0 0
0 0 0
0 0 0
0 0 0
0 0 0
0 0 0
0 0 0
0 0 0
0 0 0
0 0 0
0 0 0
0 0 0
0 0 0
0 0 0
0 0 0
0 0 0
0 0 0
0 0 0
0 0 0
0 0 0
0 0 0
0 0 0
0 0 0
0 0 0
0 0 0
0 0 0
0 0 0
0 0 0
0 0 0
0 0 0
0 0 0
0 0 0
0 0 0
0 0 0
0 0 0
0 0 0
76 76 76
255 255 255
255 255 255
255 255 255
255 255 255
255 255 255
255 255 255
255 255 255
255 255 255
255 255 255
255 255 255
255 255 255
255 255 255
255 255 255
255 255 255
255 255 255
255 255 255
255 255 255
255 255 255
255 255 255
255 255 255
255 255 255
255 255 255
255 255 255
255 255 255
255 255 255
255 255 255
255 255 255
255 255 255
255 255 255
255 255 255
255 255 255
255 255 255
255 255 255
255 255 255
255 255 255
255 255 255
255 255 255
0 0 0
0 0 0
0 0 0
0 0 0
0 0 0
0 0 0
0 0 0
0 0 0
0 0 0
0 0 0
0 0 0
0 0 0
0 0 0
0 0 0
0 0 0
0 0 0
0 0 0
0 0 0
0 0 0
0 0 0
0 0 0
0 0 0
0 0 0
0 0 0
0 0 0
0 0 0
0 0 0
0 0 0
0 0 0
0 0 0
0 0 0
0 0 0
0 0 0
0 0 0
0 0 0
0 0 0
0 0 0
0 0 0
0 0 0
0 0 0
0 0 0
0 0 0
0 0 0
0 0 0
0 0 0
0 0 0
0 0 0
0 0 0
0 0 0
0 0 0
0 0 0
0 0 0
0 0 0
0 0 0
0 0 0
0 0 0
0 0 0
0 0 0
0 0 0
0 0 0
0 0 0
0 0 0
0 0 0
0 0 0
0 0 0
0 0 0
0 0 0
0 0 0
0 0 0
0 0 0
0 0 0
0 0 0
0 0 0
0 0 0
0 0 0
0 0 0
0 0 0
0 0 0
0 0 0
0 0 0
0 0 0
0 0 0
0 0 0
0 0 0
0 0 0
0 0 0
0 0 0
0 0 0
0 0 0
0 0 0
0 0 0
0 0 0
0 0 0
0 0 0
0 0 0
0 0 0
0 0 0
0 0 0
0 0 0
0 0 0
0 0 0
0 0 0
0 0 0
0 0 0
0 0 0
0 0 0
0 0 0
0 0 0
0 0 0
0 0 0
0 0 0
0 0 0
0 0 0
0 0 0
0 0 0
0 0 0
0 0 0
0 0 0
0 0 0
0 0 0
0 0 0
0 0 0
0 0 0
0 0 0
0 0 0
0 0 0
0 0 0
0 0 0
0 0 0
0 0 0
0 0 0
0 0 0
0 0 0
0 0 0
0 0 0
0 0 0
0 0 0
0 0 0
0 0 0
0 0 0
0 0 0
0 0 0
0 0 0
0 0 0
0 0 0
0 0 0
0 0 0
0 0 0
0 0 0
0 0 0
0 0 0
0 0 0
0 0 0
0 0 0
0 0 0
0 0 0
0 0 0
0 0 0
0 0 0
0 0 0
0 0 0
0 0 0
0 0 0
0 0 0
0 0 0
0 0 0
0 0 0
0 0 0
0 0 0
0 0 0
0 0 0
0 0 0
0 0 0
0 0 0
0 0 0
0 0 0
0 0 0
0 0 0
0 0 0
0 0 0
0 0 0
0 0 0
0 0 0
0 0 0
0 0 0
0 0 0
0 0 0
0 0 0
0 0 0
0 0 0
0 0 0
0 0 0
0 0 0
0 0 0
0 0 0
0 0 0
0 0 0
0 0 0
0 0 0
0 0 0
0 0 0
0 0 0
0 0 0
0 0 0
0 0 0
0 0 0
0 0 0
0 0 0
0 0 0
0 0 0
0 0 0
0 0 0
0 0 0
0 0 0
0 0 0
0 0 0
0 0 0
0 0 0
0 0 0
0 0 0
0 0 0
0 0 0
0 0 0
0 0 0
0 0 0
0 0 0
0 0 0
0 0 0
0 0 0
0 0 0
0 0 0
0 0 0
0 0 0
0 0 0
0 0 0
0 0 0
0 0 0
0 0 0
0 0 0
0 0 0
0 0 0
0 0 0
0 0 0
0 0 0
0 0 0
0 0 0
0 0 0
0 0 0
0 0 0
0 0 0
0 0 0
0 0 0
0 0 0
0 0 0
0 0 0
0 0 0
0 0 0
0 0 0
0 0 0
0 0 0
0 0 0
0 0 0
0 0 0
0 0 0
0 0 0
0 0 0
0 0 0
0 0 0
0 0 0
0 0 0
0 0 0
0 0 0
0 0 0
0 0 0
0 0 0
144 144 144
255 255 255
255 255 255
255 255 255
255 255 255
255 255 255
255 255 255
255 255 255
255 255 255
255 255 255
255 255 255
255 255 255
255 255 255
255 255 255
255 255 255
255 255 255
255 255 255
255 255 255
255 255 255
255 255 255
255 255 255
255 255 255
255 255 255
255 255 255
255 255 255
144 144 144
0 0 0
0 0 0
0 0 0
0 0 0
0 0 0
0 0 0
0 0 0
0 0 0
0 0 0
0 0 0
0 0 0
0 0 0
0 0 0
0 0 0
0 0 0
0 0 0
0 0 0
0 0 0
0 0 0
0 0 0
0 0 0
0 0 0
0 0 0
0 0 0
0 0 0
0 0 0
0 0 0
0 0 0
0 0 0
0 0 0
0 0 0
0 0 0
0 0 0
0 0 0
0 0 0
0 0 0
0 0 0
0 0 0
0 0 0
0 0 0
0 0 0
0 0 0
0 0 0
0 0 0
0 0 0
0 0 0
0 0 0
0 0 0
0 0 0
0 0 0
0 0 0
0 0 0
0 0 0
0 0 0
0 0 0
0 0 0
0 0 0
0 0 0
0 0 0
0 0 0
0 0 0
111 111 111
255 255 255
255 255 255
255 255 255
255 255 255
255 255 255
255 255 255
255 255 255
255 255 255
255 255 255
255 255 255
255 255 255
255 255 255
255 255 255
255 255 255
255 255 255
255 255 255
255 255 255
255 255 255
255 255 255
255 255 255
255 255 255
255 255 255
255 255 255
255 255 255
255 255 255
255 255 255
255 255 255
255 255 255
255 255 255
255 255 255
255 255 255
255 255 255
255 255 255
255 255 255
255 255 255
255 255 255
255 255 255
0 0 0
0 0 0
0 0 0
0 0 0
0 0 0
0 0 0
0 0 0
0 0 0
0 0 0
0 0 0
0 0 0
0 0 0
0 0 0
0 0 0
0 0 0
0 0 0
0 0 0
0 0 0
0 0 0
0 0 0
0 0 0
0 0 0
0 0 0
0 0 0
0 0 0
0 0 0
0 0 0
0 0 0
0 0 0
0 0 0
0 0 0
0 0 0
0 0 0
0 0 0
0 0 0
0 0 0
0 0 0
0 0 0
0 0 0
0 0 0
0 0 0
0 0 0
0 0 0
0 0 0
0 0 0
0 0 0
0 0 0
0 0 0
0 0 0
0 0 0
0 0 0
0 0 0
0 0 0
0 0 0
0 0 0
0 0 0
0 0 0
0 0 0
0 0 0
0 0 0
0 0 0
0 0 0
0 0 0
0 0 0
0 0 0
0 0 0
0 0 0
0 0 0
0 0 0
0 0 0
0 0 0
0 0 0
0 0 0
0 0 0
0 0 0
0 0 0
0 0 0
0 0 0
0 0 0
0 0 0
0 0 0
0 0 0
0 0 0
0 0 0
0 0 0
0 0 0
0 0 0
0 0 0
0 0 0
0 0 0
0 0 0
0 0 0
0 0 0
0 0 0
0 0 0
0 0 0
0 0 0
0 0 0
0 0 0
0 0 0
0 0 0
0 0 0
0 0 0
0 0 0
0 0 0
0 0 0
0 0 0
0 0 0
0 0 0
0 0 0
0 0 0
0 0 0
0 0 0
0 0 0
0 0 0
0 0 0
0 0 0
0 0 0
0 0 0
0 0 0
0 0 0
0 0 0
0 0 0
0 0 0
0 0 0
0 0 0
0 0 0
0 0 0
0 0 0
0 0 0
0 0 0
0 0 0
0 0 0
0 0 0
0 0 0
0 0 0
0 0 0
0 0 0
0 0 0
0 0 0
0 0 0
0 0 0
0 0 0
0 0 0
0 0 0
0 0 0
0 0 0
0 0 0
0 0 0
0 0 0
0 0 0
0 0 0
0 0 0
0 0 0
0 0 0
0 0 0
0 0 0
0 0 0
0 0 0
0 0 0
0 0 0
0 0 0
0 0 0
0 0 0
0 0 0
0 0 0
0 0 0
0 0 0
0 0 0
0 0 0
0 0 0
0 0 0
0 0 0
0 0 0
0 0 0
0 0 0
0 0 0
0 0 0
0 0 0
0 0 0
0 0 0
0 0 0
0 0 0
0 0 0
0 0 0
0 0 0
0 0 0
0 0 0
0 0 0
0 0 0
0 0 0
0 0 0
0 0 0
0 0 0
0 0 0
0 0 0
0 0 0
0 0 0
0 0 0
0 0 0
0 0 0
0 0 0
0 0 0
0 0 0
0 0 0
0 0 0
0 0 0
0 0 0
0 0 0
0 0 0
0 0 0
0 0 0
0 0 0
0 0 0
0 0 0
0 0 0
0 0 0
0 0 0
0 0 0
0 0 0
0 0 0
0 0 0
0 0 0
0 0 0
0 0 0
0 0 0
0 0 0
0 0 0
0 0 0
0 0 0
0 0 0
0 0 0
0 0 0
0 0 0
0 0 0
0 0 0
0 0 0
0 0 0
0 0 0
0 0 0
0 0 0
0 0 0
0 0 0
0 0 0
0 0 0
0 0 0
0 0 0
0 0 0
0 0 0
0 0 0
0 0 0
0 0 0
0 0 0
0 0 0
0 0 0
0 0 0
0 0 0
0 0 0
0 0 0
0 0 0
0 0 0
0 0 0
0 0 0
0 0 0
0 0 0
0 0 0
0 0 0
0 0 0
0 0 0
0 0 0
0 0 0
0 0 0
0 0 0
0 0 0
0 0 0
0 0 0
0 0 0
0 0 0
252 252 252
255 255 255
255 255 255
255 255 255
255 255 255
255 255 255
255 255 255
255 255 255
255 255 255
255 255 255
255 255 255
255 255 255
255 255 255
255 255 255
255 255 255
255 255 255
255 255 255
255 255 255
255 255 255
255 255 255
0 0 0
0 0 0
0 0 0
0 0 0
0 0 0
0 0 0
0 0 0
0 0 0
0 0 0
0 0 0
0 0 0
0 0 0
0 0 0
0 0 0
0 0 0
0 0 0
0 0 0
0 0 0
0 0 0
0 0 0
0 0 0
0 0 0
0 0 0
0 0 0
0 0 0
0 0 0
0 0 0
0 0 0
0 0 0
0 0 0
0 0 0
0 0 0
0 0 0
0 0 0
0 0 0
0 0 0
0 0 0
0 0 0
0 0 0
0 0 0
0 0 0
0 0 0
0 0 0
0 0 0
0 0 0
0 0 0
0 0 0
0 0 0
0 0 0
0 0 0
0 0 0
0 0 0
0 0 0
0 0 0
0 0 0
0 0 0
0 0 0
0 0 0
0 0 0
0 0 0
0 0 0
0 0 0
0 0 0
0 0 0
147 147 147
255 255 255
255 255 255
255 255 255
255 255 255
255 255 255
255 255 255
255 255 255
255 255 255
255 255 255
255 255 255
255 255 255
255 255 255
255 255 255
255 255 255
255 255 255
255 255 255
255 255 255
255 255 255
255 255 255
255 255 255
255 255 255
255 255 255
255 255 255
255 255 255
255 255 255
255 255 255
255 255 255
255 255 255
255 255 255
255 255 255
255 255 255
255 255 255
255 255 255
255 255 255
255 255 255
255 255 255
255 255 255
0 0 0
0 0 0
0 0 0
0 0 0
0 0 0
0 0 0
0 0 0
0 0 0
0 0 0
0 0 0
0 0 0
0 0 0
0 0 0
0 0 0
0 0 0
0 0 0
0 0 0
0 0 0
0 0 0
0 0 0
0 0 0
0 0 0
0 0 0
0 0 0
0 0 0
0 0 0
0 0 0
0 0 0
0 0 0
0 0 0
0 0 0
0 0 0
0 0 0
0 0 0
0 0 0
0 0 0
0 0 0
0 0 0
0 0 0
0 0 0
0 0 0
0 0 0
0 0 0
0 0 0
0 0 0
0 0 0
0 0 0
0 0 0
0 0 0
0 0 0
0 0 0
0 0 0
0 0 0
0 0 0
0 0 0
0 0 0
0 0 0
0 0 0
0 0 0
0 0 0
0 0 0
0 0 0
0 0 0
0 0 0
0 0 0
0 0 0
0 0 0
0 0 0
0 0 0
0 0 0
0 0 0
0 0 0
0 0 0
0 0 0
0 0 0
0 0 0
0 0 0
0 0 0
0 0 0
0 0 0
0 0 0
0 0 0
0 0 0
0 0 0
0 0 0
0 0 0
0 0 0
0 0 0
0 0 0
0 0 0
0 0 0
0 0 0
0 0 0
0 0 0
0 0 0
0 0 0
0 0 0
0 0 0
0 0 0
0 0 0
0 0 0
0 0 0
0 0 0
0 0 0
0 0 0
0 0 0
0 0 0
0 0 0
0 0 0
0 0 0
0 0 0
0 0 0
0 0 0
0 0 0
0 0 0
0 0 0
0 0 0
0 0 0
0 0 0
0 0 0
0 0 0
0 0 0
0 0 0
0 0 0
0 0 0
0 0 0
0 0 0
0 0 0
0 0 0
0 0 0
0 0 0
0 0 0
0 0 0
0 0 0
0 0 0
0 0 0
0 0 0
0 0 0
0 0 0
0 0 0
0 0 0
0 0 0
0 0 0
0 0 0
0 0 0
0 0 0
0 0 0
0 0 0
0 0 0
0 0 0
0 0 0
0 0 0
0 0 0
0 0 0
0 0 0
0 0 0
0 0 0
0 0 0
0 0 0
0 0 0
0 0 0
0 0 0
0 0 0
0 0 0
0 0 0
0 0 0
0 0 0
0 0 0
0 0 0
0 0 0
0 0 0
0 0 0
0 0 0
0 0 0
0 0 0
0 0 0
0 0 0
0 0 0
0 0 0
0 0 0
0 0 0
0 0 0
0 0 0
0 0 0
0 0 0
0 0 0
0 0 0
0 0 0
0 0 0
0 0 0
0 0 0
0 0 0
0 0 0
0 0 0
0 0 0
0 0 0
0 0 0
0 0 0
0 0 0
0 0 0
0 0 0
0 0 0
0 0 0
0 0 0
0 0 0
0 0 0
0 0 0
0 0 0
0 0 0
0 0 0
0 0 0
0 0 0
0 0 0
0 0 0
0 0 0
0 0 0
0 0 0
0 0 0
0 0 0
0 0 0
0 0 0
0 0 0
0 0 0
0 0 0
0 0 0
0 0 0
0 0 0
0 0 0
0 0 0
0 0 0
0 0 0
0 0 0
0 0 0
0 0 0
0 0 0
0 0 0
0 0 0
0 0 0
0 0 0
0 0 0
0 0 0
0 0 0
0 0 0
0 0 0
0 0 0
0 0 0
0 0 0
0 0 0
0 0 0
0 0 0
0 0 0
0 0 0
0 0 0
0 0 0
0 0 0
0 0 0
0 0 0
0 0 0
0 0 0
0 0 0
0 0 0
0 0 0
0 0 0
0 0 0
0 0 0
0 0 0
0 0 0
0 0 0
0 0 0
0 0 0
0 0 0
0 0 0
0 0 0
0 0 0
0 0 0
0 0 0
0 0 0
0 0 0
0 0 0
0 0 0
0 0 0
25 25 25
255 255 255
255 255 255
255 255 255
255 255 255
255 255 255
255 255 255
255 255 255
255 255 255
255 255 255
255 255 255
255 255 255
255 255 255
25 25 25
0 0 0
0 0 0
0 0 0
0 0 0
0 0 0
0 0 0
0 0 0
0 0 0
0 0 0
0 0 0
0 0 0
0 0 0
0 0 0
0 0 0
0 0 0
0 0 0
0 0 0
0 0 0
0 0 0
0 0 0
0 0 0
0 0 0
0 0 0
0 0 0
0 0 0
0 0 0
0 0 0
0 0 0
0 0 0
0 0 0
0 0 0
0 0 0
0 0 0
0 0 0
0 0 0
0 0 0
0 0 0
0 0 0
0 0 0
0 0 0
0 0 0
0 0 0
0 0 0
0 0 0
0 0 0
0 0 0
0 0 0
0 0 0
0 0 0
0 0 0
0 0 0
0 0 0
0 0 0
0 0 0
0 0 0
0 0 0
0 0 0
0 0 0
0 0 0
0 0 0
0 0 0
0 0 0
0 0 0
0 0 0
0 0 0
0 0 0
0 0 0
149 149 149
255 255 255
255 255 255
255 255 255
255 255 255
255 255 255
255 255 255
255 255 255
255 255 255
255 255 255
255 255 255
255 255 255
255 255 255
255 255 255
255 255 255
255 255 255
255 255 255
255 255 255
255 255 255
255 255 255
255 255 255
255 255 255
255 255 255
255 255 255
255 255 255
255 255 255
255 255 255
255 255 255
255 255 255
255 255 255
255 255 255
255 255 255
255 255 255
255 255 255
255 255 255
255 255 255
255 255 255
255 255 255
0 0 0
0 0 0
0 0 0
0 0 0
0 0 0
0 0 0
0 0 0
0 0 0
0 0 0
0 0 0
0 0 0
0 0 0
0 0 0
0 0 0
0 0 0
0 0 0
0 0 0
0 0 0
0 0 0
0 0 0
0 0 0
0 0 0
0 0 0
0 0 0
0 0 0
0 0 0
0 0 0
0 0 0
0 0 0
0 0 0
0 0 0
0 0 0
0 0 0
0 0 0
0 0 0
0 0 0
0 0 0
0 0 0
0 0 0
0 0 0
0 0 0
0 0 0
0 0 0
0 0 0
0 0 0
0 0 0
0 0 0
0 0 0
0 0 0
0 0 0
0 0 0
0 0 0
0 0 0
0 0 0
0 0 0
0 0 0
0 0 0
0 0 0
0 0 0
0 0 0
0 0 0
0 0 0
0 0 0
0 0 0
0 0 0
0 0 0
0 0 0
0 0 0
0 0 0
0 0 0
0 0 0
0 0 0
0 0 0
0 0 0
0 0 0
0 0 0
0 0 0
0 0 0
0 0 0
0 0 0
0 0 0
0 0 0
0 0 0
0 0 0
0 0 0
0 0 0
0 0 0
0 0 0
0 0 0
0 0 0
0 0 0
0 0 0
0 0 0
0 0 0
0 0 0
0 0 0
0 0 0
0 0 0
0 0 0
0 0 0
0 0 0
0 0 0
0 0 0
0 0 0
0 0 0
0 0 0
0 0 0
0 0 0
0 0 0
0 0 0
0 0 0
0 0 0
0 0 0
0 0 0
0 0 0
0 0 0
0 0 0
0 0 0
0 0 0
0 0 0
0 0 0
0 0 0
0 0 0
0 0 0
0 0 0
0 0 0
0 0 0
0 0 0
0 0 0
0 0 0
0 0 0
0 0 0
0 0 0
0 0 0
0 0 0
0 0 0
0 0 0
0 0 0
0 0 0
0 0 0
0 0 0
0 0 0
0 0 0
0 0 0
0 0 0
0 0 0
0 0 0
0 0 0
0 0 0
0 0 0
0 0 0
0 0 0
0 0 0
0 0 0
0 0 0
0 0 0
0 0 0
0 0 0
0 0 0
0 0 0
0 0 0
0 0 0
0 0 0
0 0 0
0 0 0
0 0 0
0 0 0
0 0 0
0 0 0
0 0 0
0 0 0
0 0 0
0 0 0
0 0 0
0 0 0
0 0 0
0 0 0
0 0 0
0 0 0
0 0 0
0 0 0
0 0 0
0 0 0
0 0 0
0 0 0
0 0 0
0 0 0
0 0 0
0 0 0
0 0 0
0 0 0
0 0 0
0 0 0
0 0 0
0 0 0
0 0 0
0 0 0
0 0 0
0 0 0
0 0 0
0 0 0
0 0 0
0 0 0
0 0 0
0 0 0
0 0 0
0 0 0
0 0 0
0 0 0
0 0 0
0 0 0
0 0 0
0 0 0
0 0 0
0 0 0
0 0 0
0 0 0
0 0 0
0 0 0
0 0 0
0 0 0
0 0 0
0 0 0
0 0 0
0 0 0
0 0 0
0 0 0
0 0 0
0 0 0
0 0 0
0 0 0
0 0 0
0 0 0
0 0 0
0 0 0
0 0 0
0 0 0
0 0 0
0 0 0
0 0 0
0 0 0
0 0 0
0 0 0
0 0 0
0 0 0
0 0 0
0 0 0
0 0 0
0 0 0
0 0 0
0 0 0
0 0 0
0 0 0
0 0 0
0 0 0
0 0 0
0 0 0
0 0 0
0 0 0
0 0 0
0 0 0
0 0 0
0 0 0
0 0 0
0 0 0
0 0 0
0 0 0
0 0 0
0 0 0
0 0 0
0 0 0
0 0 0
0 0 0
0 0 0
0 0 0
0 0 0
0 0 0
0 0 0
0 0 0
0 0 0
0 0 0
0 0 0
0 0 0
0 0 0
0 0 0
0 0 0
0 0 0
0 0 0
0 0 0
0 0 0
0 0 0
0 0 0
0 0 0
0 0 0
0 0 0
0 0 0
0 0 0
0 0 0
0 0 0
0 0 0
0 0 0
0 0 0
0 0 0
0 0 0
0 0 0
0 0 0
0 0 0
0 0 0
0 0 0
0 0 0
0 0 0
0 0 0
0 0 0
0 0 0
0 0 0
0 0 0
0 0 0
0 0 0
0 0 0
0 0 0
0 0 0
0 0 0
0 0 0
0 0 0
0 0 0
0 0 0
0 0 0
0 0 0
0 0 0
0 0 0
0 0 0
0 0 0
0 0 0
0 0 0
0 0 0
0 0 0
0 0 0
0 0 0
0 0 0
0 0 0
0 0 0
0 0 0
0 0 0
0 0 0
0 0 0
0 0 0
0 0 0
0 0 0
0 0 0
0 0 0
0 0 0
0 0 0
0 0 0
0 0 0
0 0 0
0 0 0
0 0 0
0 0 0
0 0 0
0 0 0
0 0 0
0 0 0
159 159 159
255 255 255
255 255 255
255 255 255
255 255 255
255 255 255
255 255 255
255 255 255
255 255 255
255 255 255
255 255 255
255 255 255
255 255 255
255 255 255
255 255 255
255 255 255
255 255 255
255 255 255
255 255 255
255 255 255
255 255 255
255 255 255
255 255 255
255 255 255
255 255 255
255 255 255
255 255 255
255 255 255
255 255 255
255 255 255
255 255 255
255 255 255
255 255 255
255 255 255
255 255 255
255 255 255
255 255 255
255 255 255
0 0 0
0 0 0
0 0 0
0 0 0
0 0 0
0 0 0
0 0 0
0 0 0
0 0 0
0 0 0
0 0 0
0 0 0
0 0 0
0 0 0
0 0 0
0 0 0
0 0 0
0 0 0
0 0 0
0 0 0
0 0 0
0 0 0
0 0 0
0 0 0
0 0 0
0 0 0
0 0 0
0 0 0
0 0 0
0 0 0
0 0 0
0 0 0
0 0 0
0 0 0
0 0 0
0 0 0
0 0 0
0 0 0
0 0 0
0 0 0
0 0 0
0 0 0
0 0 0
0 0 0
0 0 0
0 0 0
0 0 0
0 0 0
0 0 0
0 0 0
0 0 0
0 0 0
0 0 0
0 0 0
0 0 0
0 0 0
0 0 0
0 0 0
0 0 0
0 0 0
0 0 0
0 0 0
0 0 0
0 0 0
0 0 0
0 0 0
0 0 0
0 0 0
0 0 0
0 0 0
0 0 0
0 0 0
0 0 0
0 0 0
0 0 0
0 0 0
0 0 0
0 0 0
0 0 0
0 0 0
0 0 0
0 0 0
0 0 0
0 0 0
0 0 0
0 0 0
0 0 0
0 0 0
0 0 0
0 0 0
0 0 0
0 0 0
0 0 0
0 0 0
0 0 0
0 0 0
0 0 0
0 0 0
0 0 0
0 0 0
0 0 0
0 0 0
0 0 0
0 0 0
0 0 0
0 0 0
0 0 0
0 0 0
0 0 0
0 0 0
0 0 0
0 0 0
0 0 0
0 0 0
0 0 0
0 0 0
0 0 0
0 0 0
0 0 0
0 0 0
0 0 0
0 0 0
0 0 0
0 0 0
0 0 0
0 0 0
0 0 0
0 0 0
0 0 0
0 0 0
0 0 0
0 0 0
0 0 0
0 0 0
0 0 0
0 0 0
0 0 0
0 0 0
0 0 0
0 0 0
0 0 0
0 0 0
0 0 0
0 0 0
0 0 0
0 0 0
0 0 0
0 0 0
0 0 0
0 0 0
0 0 0
0 0 0
0 0 0
0 0 0
0 0 0
0 0 0
0 0 0
0 0 0
0 0 0
0 0 0
0 0 0
0 0 0
0 0 0
0 0 0
0 0 0
0 0 0
0 0 0
0 0 0
0 0 0
0 0 0
0 0 0
0 0 0
0 0 0
0 0 0
0 0 0
0 0 0
0 0 0
0 0 0
0 0 0
0 0 0
0 0 0
0 0 0
0 0 0
0 0 0
0 0 0
0 0 0
0 0 0
0 0 0
0 0 0
0 0 0
0 0 0
0 0 0
0 0 0
0 0 0
0 0 0
0 0 0
0 0 0
0 0 0
0 0 0
0 0 0
0 0 0
0 0 0
0 0 0
0 0 0
0 0 0
0 0 0
0 0 0
0 0 0
0 0 0
0 0 0
0 0 0
0 0 0
0 0 0
0 0 0
0 0 0
0 0 0
0 0 0
0 0 0
0 0 0
0 0 0
0 0 0
0 0 0
0 0 0
0 0 0
0 0 0
0 0 0
0 0 0
0 0 0
0 0 0
0 0 0
0 0 0
0 0 0
0 0 0
0 0 0
0 0 0
0 0 0
0 0 0
0 0 0
0 0 0
0 0 0
0 0 0
0 0 0
0 0 0
0 0 0
0 0 0
0 0 0
0 0 0
0 0 0
0 0 0
0 0 0
0 0 0
0 0 0
0 0 0
0 0 0
0 0 0
0 0 0
0 0 0
0 0 0
0 0 0
0 0 0
0 0 0
0 0 0
0 0 0
0 0 0
0 0 0
0 0 0
0 0 0
0 0 0
0 0 0
0 0 0
0 0 0
0 0 0
0 0 0
0 0 0
0 0 0
0 0 0
0 0 0
0 0 0
0 0 0
0 0 0
0 0 0
0 0 0
0 0 0
0 0 0
0 0 0
0 0 0
0 0 0
0 0 0
0 0 0
0 0 0
0 0 0
0 0 0
0 0 0
0 0 0
0 0 0
0 0 0
0 0 0
0 0 0
0 0 0
0 0 0
0 0 0
0 0 0
0 0 0
0 0 0
0 0 0
0 0 0
0 0 0
0 0 0
0 0 0
0 0 0
0 0 0
0 0 0
0 0 0
0 0 0
0 0 0
0 0 0
0 0 0
0 0 0
0 0 0
0 0 0
0 0 0
0 0 0
0 0 0
0 0 0
0 0 0
0 0 0
0 0 0
0 0 0
0 0 0
0 0 0
0 0 0
0 0 0
0 0 0
0 0 0
0 0 0
0 0 0
0 0 0
0 0 0
0 0 0
0 0 0
0 0 0
0 0 0
0 0 0
0 0 0
0 0 0
0 0 0
0 0 0
0 0 0
0 0 0
0 0 0
0 0 0
0 0 0
0 0 0
0 0 0
0 0 0
0 0 0
0 0 0
0 0 0
0 0 0
0 0 0
0 0 0
0 0 0
184 184 184
255 255 255
255 255 255
255 255 255
255 255 255
255 255 255
255 255 255
255 255 255
255 255 255
255 255 255
255 255 255
255 255 255
255 255 255
255 255 255
255 255 255
255 255 255
255 255 255
255 255 255
255 255 255
255 255 255
255 255 255
255 255 255
255 255 255
255 255 255
255 255 255
255 255 255
255 255 255
255 255 255
255 255 255
255 255 255
255 255 255
255 255 255
255 255 255
255 255 255
255 255 255
255 255 255
255 255 255
255 255 255
0 0 0
0 0 0
0 0 0
0 0 0
0 0 0
0 0 0
0 0 0
0 0 0
0 0 0
0 0 0
0 0 0
0 0 0
0 0 0
0 0 0
0 0 0
0 0 0
0 0 0
0 0 0
0 0 0
0 0 0
0 0 0
0 0 0
0 0 0
0 0 0
0 0 0
0 0 0
0 0 0
0 0 0
0 0 0
0 0 0
0 0 0
0 0 0
0 0 0
0 0 0
0 0 0
0 0 0
0 0 0
0 0 0
0 0 0
0 0 0
0 0 0
0 0 0
0 0 0
0 0 0
0 0 0
0 0 0
0 0 0
0 0 0
0 0 0
0 0 0
0 0 0
0 0 0
0 0 0
0 0 0
0 0 0
0 0 0
0 0 0
0 0 0
0 0 0
0 0 0
0 0 0
0 0 0
0 0 0
0 0 0
0 0 0
0 0 0
0 0 0
0 0 0
0 0 0
0 0 0
0 0 0
0 0 0
0 0 0
0 0 0
0 0 0
0 0 0
0 0 0
0 0 0
0 0 0
0 0 0
0 0 0
0 0 0
0 0 0
0 0 0
0 0 0
0 0 0
0 0 0
0 0 0
0 0 0
0 0 0
0 0 0
0 0 0
0 0 0
0 0 0
0 0 0
0 0 0
0 0 0
0 0 0
0 0 0
0 0 0
0 0 0
0 0 0
0 0 0
0 0 0
0 0 0
0 0 0
0 0 0
0 0 0
0 0 0
0 0 0
0 0 0
0 0 0
0 0 0
0 0 0
0 0 0
0 0 0
0 0 0
0 0 0
0 0 0
0 0 0
0 0 0
0 0 0
0 0 0
0 0 0
0 0 0
0 0 0
0 0 0
0 0 0
0 0 0
0 0 0
0 0 0
0 0 0
0 0 0
0 0 0
0 0 0
0 0 0
0 0 0
0 0 0
0 0 0
0 0 0
0 0 0
0 0 0
0 0 0
0 0 0
0 0 0
0 0 0
0 0 0
0 0 0
0 0 0
0 0 0
0 0 0
0 0 0
0 0 0
0 0 0
0 0 0
0 0 0
0 0 0
0 0 0
0 0 0
0 0 0
0 0 0
0 0 0
0 0 0
0 0 0
0 0 0
0 0 0
0 0 0
0 0 0
0 0 0
0 0 0
0 0 0
0 0 0
0 0 0
0 0 0
0 0 0
0 0 0
0 0 0
0 0 0
0 0 0
0 0 0
0 0 0
0 0 0
0 0 0
0 0 0
0 0 0
0 0 0
0 0 0
0 0 0
0 0 0
0 0 0
0 0 0
0 0 0
0 0 0
0 0 0
0 0 0
0 0 0
0 0 0
0 0 0
0 0 0
0 0 0
0 0 0
0 0 0
0 0 0
0 0 0
0 0 0
0 0 0
0 0 0
0 0 0
0 0 0
0 0 0
0 0 0
0 0 0
0 0 0
0 0 0
0 0 0
0 0 0
0 0 0
0 0 0
0 0 0
0 0 0
0 0 0
0 0 0
0 0 0
0 0 0
0 0 0
0 0 0
0 0 0
0 0 0
0 0 0
0 0 0
0 0 0
0 0 0
0 0 0
0 0 0
0 0 0
0 0 0
0 0 0
0 0 0
0 0 0
0 0 0
0 0 0
0 0 0
0 0 0
0 0 0
0 0 0
0 0 0
0 0 0
0 0 0
0 0 0
0 0 0
0 0 0
0 0 0
0 0 0
0 0 0
0 0 0
0 0 0
0 0 0
0 0 0
0 0 0
0 0 0
0 0 0
0 0 0
0 0 0
0 0 0
0 0 0
0 0 0
0 0 0
0 0 0
0 0 0
0 0 0
0 0 0
0 0 0
0 0 0
0 0 0
0 0 0
0 0 0
0 0 0
0 0 0
0 0 0
0 0 0
0 0 0
0 0 0
0 0 0
0 0 0
0 0 0
0 0 0
0 0 0
0 0 0
0 0 0
0 0 0
0 0 0
0 0 0
0 0 0
0 0 0
0 0 0
0 0 0
0 0 0
0 0 0
0 0 0
0 0 0
0 0 0
0 0 0
0 0 0
0 0 0
0 0 0
0 0 0
0 0 0
0 0 0
0 0 0
0 0 0
0 0 0
0 0 0
0 0 0
0 0 0
0 0 0
0 0 0
0 0 0
0 0 0
0 0 0
0 0 0
0 0 0
0 0 0
0 0 0
0 0 0
0 0 0
0 0 0
0 0 0
0 0 0
0 0 0
0 0 0
0 0 0
0 0 0
0 0 0
0 0 0
0 0 0
0 0 0
0 0 0
0 0 0
0 0 0
0 0 0
0 0 0
0 0 0
0 0 0
0 0 0
0 0 0
0 0 0
0 0 0
0 0 0
0 0 0
0 0 0
0 0 0
0 0 0
0 0 0
0 0 0
0 0 0
0 0 0
0 0 0
0 0 0
0 0 0
0 0 0
0 0 0
0 0 0
181 181 181
255 255 255
255 255 255
255 255 255
255 255 255
255 255 255
255 255 255
255 255 255
255 255 255
255 255 255
255 255 255
255 255 255
255 255 255
255 255 255
255 255 255
255 255 255
255 255 255
255 255 255
255 255 255
255 255 255
255 255 255
255 255 255
255 255 255
255 255 255
255 255 255
255 255 255
255 255 255
255 255 255
255 255 255
255 255 255
255 255 255
255 255 255
255 255 255
255 255 255
255 255 255
255 255 255
255 255 255
255 255 255
0 0 0
0 0 0
0 0 0
0 0 0
0 0 0
0 0 0
0 0 0
0 0 0
0 0 0
0 0 0
0 0 0
0 0 0
0 0 0
0 0 0
0 0 0
0 0 0
0 0 0
0 0 0
0 0 0
0 0 0
0 0 0
0 0 0
0 0 0
0 0 0
0 0 0
0 0 0
0 0 0
0 0 0
0 0 0
0 0 0
0 0 0
0 0 0
0 0 0
0 0 0
0 0 0
0 0 0
0 0 0
0 0 0
0 0 0
0 0 0
0 0 0
0 0 0
0 0 0
0 0 0
0 0 0
0 0 0
0 0 0
0 0 0
0 0 0
0 0 0
0 0 0
0 0 0
0 0 0
0 0 0
0 0 0
0 0 0
0 0 0
0 0 0
0 0 0
0 0 0
0 0 0
0 0 0
0 0 0
0 0 0
0 0 0
0 0 0
0 0 0
0 0 0
0 0 0
0 0 0
0 0 0
0 0 0
0 0 0
0 0 0
0 0 0
0 0 0
0 0 0
0 0 0
0 0 0
0 0 0
0 0 0
0 0 0
0 0 0
0 0 0
0 0 0
0 0 0
0 0 0
0 0 0
0 0 0
0 0 0
0 0 0
0 0 0
0 0 0
0 0 0
0 0 0
0 0 0
0 0 0
0 0 0
0 0 0
0 0 0
0 0 0
0 0 0
0 0 0
0 0 0
0 0 0
0 0 0
0 0 0
0 0 0
0 0 0
0 0 0
0 0 0
0 0 0
0 0 0
0 0 0
0 0 0
0 0 0
0 0 0
0 0 0
0 0 0
0 0 0
0 0 0
0 0 0
0 0 0
0 0 0
0 0 0
0 0 0
0 0 0
0 0 0
0 0 0
0 0 0
0 0 0
0 0 0
0 0 0
0 0 0
0 0 0
0 0 0
0 0 0
0 0 0
0 0 0
0 0 0
0 0 0
0 0 0
0 0 0
0 0 0
0 0 0
0 0 0
0 0 0
0 0 0
0 0 0
0 0 0
0 0 0
0 0 0
0 0 0
0 0 0
0 0 0
0 0 0
0 0 0
0 0 0
0 0 0
0 0 0
0 0 0
0 0 0
0 0 0
0 0 0
0 0 0
0 0 0
0 0 0
0 0 0
0 0 0
0 0 0
0 0 0
0 0 0
0 0 0
0 0 0
0 0 0
0 0 0
0 0 0
0 0 0
0 0 0
0 0 0
0 0 0
0 0 0
0 0 0
0 0 0
0 0 0
0 0 0
0 0 0
0 0 0
0 0 0
0 0 0
0 0 0
0 0 0
0 0 0
0 0 0
0 0 0
0 0 0
0 0 0
0 0 0
0 0 0
0 0 0
0 0 0
0 0 0
0 0 0
0 0 0
0 0 0
0 0 0
0 0 0
0 0 0
0 0 0
0 0 0
0 0 0
0 0 0
0 0 0
0 0 0
0 0 0
0 0 0
0 0 0
0 0 0
0 0 0
0 0 0
0 0 0
0 0 0
0 0 0
0 0 0
0 0 0
0 0 0
0 0 0
0 0 0
0 0 0
0 0 0
0 0 0
0 0 0
0 0 0
0 0 0
0 0 0
0 0 0
0 0 0
0 0 0
0 0 0
0 0 0
0 0 0
0 0 0
0 0 0
0 0 0
0 0 0
0 0 0
0 0 0
0 0 0
0 0 0
0 0 0
0 0 0
0 0 0
0 0 0
0 0 0
0 0 0
0 0 0
0 0 0
0 0 0
0 0 0
0 0 0
0 0 0
0 0 0
0 0 0
0 0 0
0 0 0
0 0 0
0 0 0
0 0 0
0 0 0
0 0 0
0 0 0
0 0 0
0 0 0
0 0 0
0 0 0
0 0 0
0 0 0
0 0 0
0 0 0
0 0 0
0 0 0
0 0 0
0 0 0
0 0 0
0 0 0
0 0 0
0 0 0
0 0 0
0 0 0
0 0 0
0 0 0
0 0 0
0 0 0
0 0 0
0 0 0
0 0 0
0 0 0
0 0 0
0 0 0
0 0 0
0 0 0
0 0 0
0 0 0
0 0 0
0 0 0
0 0 0
0 0 0
0 0 0
0 0 0
0 0 0
0 0 0
0 0 0
0 0 0
0 0 0
0 0 0
0 0 0
0 0 0
0 0 0
0 0 0
0 0 0
0 0 0
0 0 0
0 0 0
0 0 0
0 0 0
0 0 0
0 0 0
0 0 0
0 0 0
0 0 0
0 0 0
0 0 0
0 0 0
0 0 0
0 0 0
0 0 0
0 0 0
0 0 0
0 0 0
0 0 0
0 0 0
0 0 0
0 0 0
0 0 0
0 0 0
0 0 0
0 0 0
0 0 0
0 0 0
0 0 0
0 0 0
0 0 0
0 0 0
0 0 0
0 0 0
0 0 0
0 0 0
0 0 0
0 0 0
0 0 0
0 0 0
0 0 0
193 193 193
255 255 255
255 255 255
255 255 255
255 255 255
255 255 255
255 255 255
255 255 255
255 255 255
255 255 255
255 255 255
255 255 255
255 255 255
255 255 255
255 255 255
255 255 255
255 255 255
255 255 255
255 255 255
255 255 255
255 255 255
255 255 255
255 255 255
255 255 255
255 255 255
255 255 255
255 255 255
255 255 255
255 255 255
255 255 255
255 255 255
255 255 255
255 255 255
255 255 255
255 255 255
255 255 255
255 255 255
255 255 255
0 0 0
0 0 0
0 0 0
0 0 0
0 0 0
0 0 0
0 0 0
0 0 0
0 0 0
0 0 0
0 0 0
0 0 0
0 0 0
0 0 0
0 0 0
0 0 0
0 0 0
0 0 0
0 0 0
0 0 0
0 0 0
0 0 0
0 0 0
0 0 0
0 0 0
0 0 0
0 0 0
0 0 0
0 0 0
0 0 0
0 0 0
0 0 0
0 0 0
0 0 0
0 0 0
0 0 0
0 0 0
0 0 0
0 0 0
0 0 0
0 0 0
0 0 0
0 0 0
0 0 0
0 0 0
0 0 0
0 0 0
0 0 0
0 0 0
0 0 0
0 0 0
0 0 0
0 0 0
0 0 0
0 0 0
0 0 0
0 0 0
0 0 0
0 0 0
0 0 0
0 0 0
0 0 0
0 0 0
0 0 0
0 0 0
0 0 0
0 0 0
0 0 0
0 0 0
0 0 0
0 0 0
0 0 0
0 0 0
0 0 0
0 0 0
0 0 0
0 0 0
0 0 0
0 0 0
0 0 0
0 0 0
0 0 0
0 0 0
0 0 0
0 0 0
0 0 0
0 0 0
0 0 0
0 0 0
0 0 0
0 0 0
0 0 0
0 0 0
0 0 0
0 0 0
0 0 0
0 0 0
0 0 0
0 0 0
0 0 0
0 0 0
0 0 0
0 0 0
0 0 0
0 0 0
0 0 0
0 0 0
0 0 0
0 0 0
0 0 0
0 0 0
0 0 0
0 0 0
0 0 0
0 0 0
0 0 0
0 0 0
0 0 0
0 0 0
0 0 0
0 0 0
0 0 0
0 0 0
0 0 0
0 0 0
0 0 0
0 0 0
0 0 0
0 0 0
0 0 0
0 0 0
0 0 0
0 0 0
0 0 0
0 0 0
0 0 0
0 0 0
0 0 0
0 0 0
0 0 0
0 0 0
0 0 0
0 0 0
0 0 0
0 0 0
0 0 0
0 0 0
0 0 0
0 0 0
0 0 0
0 0 0
0 0 0
0 0 0
0 0 0
0 0 0
0 0 0
0 0 0
0 0 0
0 0 0
0 0 0
0 0 0
0 0 0
0 0 0
0 0 0
0 0 0
0 0 0
0 0 0
0 0 0
0 0 0
0 0 0
0 0 0
0 0 0
0 0 0
0 0 0
0 0 0
0 0 0
0 0 0
0 0 0
0 0 0
0 0 0
0 0 0
0 0 0
0 0 0
0 0 0
0 0 0
0 0 0
0 0 0
0 0 0
0 0 0
0 0 0
0 0 0
0 0 0
0 0 0
0 0 0
0 0 0
0 0 0
0 0 0
0 0 0
0 0 0
0 0 0
0 0 0
0 0 0
0 0 0
0 0 0
0 0 0
0 0 0
0 0 0
0 0 0
0 0 0
0 0 0
0 0 0
0 0 0
0 0 0
0 0 0
0 0 0
0 0 0
0 0 0
0 0 0
0 0 0
0 0 0
0 0 0
0 0 0
0 0 0
0 0 0
0 0 0
0 0 0
0 0 0
0 0 0
0 0 0
0 0 0
0 0 0
0 0 0
0 0 0
0 0 0
0 0 0
0 0 0
0 0 0
0 0 0
0 0 0
0 0 0
0 0 0
0 0 0
0 0 0
0 0 0
0 0 0
0 0 0
0 0 0
0 0 0
0 0 0
0 0 0
0 0 0
0 0 0
0 0 0
0 0 0
0 0 0
0 0 0
0 0 0
0 0 0
0 0 0
0 0 0
0 0 0
0 0 0
0 0 0
0 0 0
0 0 0
0 0 0
0 0 0
0 0 0
0 0 0
0 0 0
0 0 0
0 0 0
0 0 0
0 0 0
0 0 0
0 0 0
0 0 0
0 0 0
0 0 0
0 0 0
0 0 0
0 0 0
0 0 0
0 0 0
0 0 0
0 0 0
0 0 0
0 0 0
0 0 0
0 0 0
0 0 0
0 0 0
0 0 0
0 0 0
0 0 0
0 0 0
0 0 0
0 0 0
0 0 0
0 0 0
0 0 0
0 0 0
0 0 0
0 0 0
0 0 0
0 0 0
0 0 0
0 0 0
0 0 0
0 0 0
0 0 0
0 0 0
0 0 0
0 0 0
0 0 0
0 0 0
0 0 0
0 0 0
0 0 0
0 0 0
0 0 0
0 0 0
0 0 0
0 0 0
0 0 0
0 0 0
0 0 0
0 0 0
0 0 0
0 0 0
0 0 0
0 0 0
0 0 0
0 0 0
0 0 0
0 0 0
0 0 0
0 0 0
0 0 0
0 0 0
0 0 0
0 0 0
0 0 0
0 0 0
0 0 0
0 0 0
0 0 0
0 0 0
0 0 0
0 0 0
0 0 0
0 0 0
0 0 0
0 0 0
0 0 0
0 0 0
0 0 0
0 0 0
0 0 0
0 0 0
0 0 0
0 0 0
181 181 181
255 255 255
255 255 255
255 255 255
255 255 255
255 255 255
255 255 255
255 255 255
255 255 255
255 255 255
255 255 255
255 255 255
255 255 255
255 255 255
255 255 255
255 255 255
255 255 255
255 255 255
255 255 255
255 255 255
255 255 255
255 255 255
255 255 255
255 255 255
255 255 255
255 255 255
255 255 255
255 255 255
255 255 255
255 255 255
255 255 255
255 255 255
255 255 255
255 255 255
255 255 255
255 255 255
255 255 255
255 255 255
0 0 0
0 0 0
0 0 0
0 0 0
0 0 0
0 0 0
0 0 0
0 0 0
0 0 0
0 0 0
0 0 0
0 0 0
0 0 0
0 0 0
0 0 0
0 0 0
0 0 0
0 0 0
0 0 0
0 0 0
0 0 0
0 0 0
0 0 0
0 0 0
0 0 0
0 0 0
0 0 0
0 0 0
0 0 0
0 0 0
0 0 0
0 0 0
0 0 0
0 0 0
0 0 0
0 0 0
0 0 0
0 0 0
0 0 0
0 0 0
0 0 0
0 0 0
0 0 0
0 0 0
0 0 0
0 0 0
0 0 0
0 0 0
0 0 0
0 0 0
0 0 0
0 0 0
0 0 0
0 0 0
0 0 0
0 0 0
0 0 0
0 0 0
0 0 0
0 0 0
0 0 0
0 0 0
0 0 0
0 0 0
0 0 0
0 0 0
0 0 0
0 0 0
0 0 0
0 0 0
0 0 0
0 0 0
0 0 0
0 0 0
0 0 0
0 0 0
0 0 0
0 0 0
0 0 0
0 0 0
0 0 0
0 0 0
0 0 0
0 0 0
0 0 0
0 0 0
0 0 0
0 0 0
0 0 0
0 0 0
0 0 0
0 0 0
0 0 0
0 0 0
0 0 0
0 0 0
0 0 0
0 0 0
0 0 0
0 0 0
0 0 0
0 0 0
0 0 0
0 0 0
0 0 0
0 0 0
0 0 0
0 0 0
0 0 0
0 0 0
0 0 0
0 0 0
0 0 0
0 0 0
0 0 0
0 0 0
0 0 0
0 0 0
0 0 0
0 0 0
0 0 0
0 0 0
0 0 0
0 0 0
0 0 0
0 0 0
0 0 0
0 0 0
0 0 0
0 0 0
0 0 0
0 0 0
0 0 0
0 0 0
0 0 0
0 0 0
0 0 0
0 0 0
0 0 0
0 0 0
0 0 0
0 0 0
0 0 0
0 0 0
0 0 0
0 0 0
0 0 0
0 0 0
0 0 0
0 0 0
0 0 0
0 0 0
0 0 0
0 0 0
0 0 0
0 0 0
0 0 0
0 0 0
0 0 0
0 0 0
0 0 0
0 0 0
0 0 0
0 0 0
0 0 0
0 0 0
0 0 0
0 0 0
0 0 0
0 0 0
0 0 0
0 0 0
0 0 0
0 0 0
0 0 0
0 0 0
0 0 0
0 0 0
0 0 0
0 0 0
0 0 0
0 0 0
0 0 0
0 0 0
0 0 0
0 0 0
0 0 0
0 0 0
0 0 0
0 0 0
0 0 0
0 0 0
0 0 0
0 0 0
0 0 0
0 0 0
0 0 0
0 0 0
0 0 0
0 0 0
0 0 0
0 0 0
0 0 0
0 0 0
0 0 0
0 0 0
0 0 0
0 0 0
0 0 0
0 0 0
0 0 0
0 0 0
0 0 0
0 0 0
0 0 0
0 0 0
0 0 0
0 0 0
0 0 0
0 0 0
0 0 0
0 0 0
0 0 0
0 0 0
0 0 0
0 0 0
0 0 0
0 0 0
0 0 0
0 0 0
0 0 0
0 0 0
0 0 0
0 0 0
0 0 0
0 0 0
0 0 0
0 0 0
0 0 0
0 0 0
0 0 0
0 0 0
0 0 0
0 0 0
0 0 0
0 0 0
0 0 0
0 0 0
0 0 0
0 0 0
0 0 0
0 0 0
0 0 0
0 0 0
0 0 0
0 0 0
0 0 0
0 0 0
0 0 0
0 0 0
0 0 0
0 0 0
0 0 0
0 0 0
0 0 0
0 0 0
0 0 0
0 0 0
0 0 0
0 0 0
0 0 0
0 0 0
0 0 0
0 0 0
0 0 0
0 0 0
0 0 0
0 0 0
0 0 0
0 0 0
0 0 0
0 0 0
0 0 0
0 0 0
0 0 0
0 0 0
0 0 0
0 0 0
0 0 0
0 0 0
0 0 0
0 0 0
0 0 0
0 0 0
0 0 0
0 0 0
0 0 0
0 0 0
0 0 0
0 0 0
0 0 0
0 0 0
0 0 0
0 0 0
0 0 0
0 0 0
0 0 0
0 0 0
0 0 0
0 0 0
0 0 0
0 0 0
0 0 0
0 0 0
0 0 0
0 0 0
0 0 0
0 0 0
0 0 0
0 0 0
0 0 0
0 0 0
0 0 0
0 0 0
0 0 0
0 0 0
0 0 0
0 0 0
0 0 0
0 0 0
0 0 0
0 0 0
0 0 0
0 0 0
0 0 0
0 0 0
0 0 0
0 0 0
0 0 0
0 0 0
0 0 0
0 0 0
0 0 0
0 0 0
0 0 0
0 0 0
0 0 0
0 0 0
0 0 0
0 0 0
0 0 0
0 0 0
0 0 0
0 0 0
0 0 0
0 0 0
0 0 0
0 0 0
0 0 0
0 0 0
0 0 0
0 0 0
207 207 207
255 255 255
255 255 255
255 255 255
255 255 255
255 255 255
255 255 255
255 255 255
255 255 255
255 255 255
255 255 255
255 255 255
255 255 255
255 255 255
255 255 255
255 255 255
255 255 255
255 255 255
255 255 255
255 255 255
255 255 255
255 255 255
255 255 255
255 255 255
255 255 255
255 255 255
255 255 255
255 255 255
255 255 255
255 255 255
255 255 255
255 255 255
255 255 255
255 255 255
255 255 255
255 255 255
255 255 255
255 255 255
0 0 0
0 0 0
0 0 0
0 0 0
0 0 0
0 0 0
0 0 0
0 0 0
0 0 0
0 0 0
0 0 0
0 0 0
0 0 0
0 0 0
0 0 0
0 0 0
0 0 0
0 0 0
0 0 0
0 0 0
0 0 0
0 0 0
0 0 0
0 0 0
0 0 0
0 0 0
0 0 0
0 0 0
0 0 0
0 0 0
0 0 0
0 0 0
0 0 0
0 0 0
0 0 0
0 0 0
0 0 0
0 0 0
0 0 0
0 0 0
0 0 0
0 0 0
0 0 0
0 0 0
0 0 0
0 0 0
0 0 0
0 0 0
0 0 0
0 0 0
0 0 0
0 0 0
0 0 0
0 0 0
0 0 0
0 0 0
0 0 0
0 0 0
0 0 0
0 0 0
0 0 0
0 0 0
0 0 0
0 0 0
0 0 0
0 0 0
0 0 0
0 0 0
0 0 0
0 0 0
0 0 0
0 0 0
0 0 0
0 0 0
0 0 0
0 0 0
0 0 0
0 0 0
0 0 0
0 0 0
0 0 0
0 0 0
0 0 0
0 0 0
0 0 0
0 0 0
0 0 0
0 0 0
0 0 0
0 0 0
0 0 0
0 0 0
0 0 0
0 0 0
0 0 0
0 0 0
0 0 0
0 0 0
0 0 0
0 0 0
0 0 0
0 0 0
0 0 0
0 0 0
0 0 0
0 0 0
0 0 0
0 0 0
0 0 0
0 0 0
0 0 0
0 0 0
0 0 0
0 0 0
0 0 0
0 0 0
0 0 0
0 0 0
0 0 0
0 0 0
0 0 0
0 0 0
0 0 0
0 0 0
0 0 0
0 0 0
0 0 0
0 0 0
0 0 0
0 0 0
0 0 0
0 0 0
0 0 0
0 0 0
0 0 0
0 0 0
0 0 0
0 0 0
0 0 0
0 0 0
0 0 0
0 0 0
0 0 0
0 0 0
0 0 0
0 0 0
0 0 0
0 0 0
0 0 0
0 0 0
0 0 0
0 0 0
0 0 0
0 0 0
0 0 0
0 0 0
0 0 0
0 0 0
0 0 0
0 0 0
0 0 0
0 0 0
0 0 0
0 0 0
0 0 0
0 0 0
0 0 0
0 0 0
0 0 0
0 0 0
0 0 0
0 0 0
0 0 0
0 0 0
0 0 0
0 0 0
0 0 0
0 0 0
0 0 0
0 0 0
0 0 0
0 0 0
0 0 0
0 0 0
0 0 0
0 0 0
0 0 0
0 0 0
0 0 0
0 0 0
0 0 0
0 0 0
0 0 0
0 0 0
0 0 0
0 0 0
0 0 0
0 0 0
0 0 0
0 0 0
0 0 0
0 0 0
0 0 0
0 0 0
0 0 0
0 0 0
0 0 0
0 0 0
0 0 0
0 0 0
0 0 0
0 0 0
0 0 0
0 0 0
0 0 0
0 0 0
0 0 0
0 0 0
0 0 0
0 0 0
0 0 0
0 0 0
0 0 0
0 0 0
0 0 0
0 0 0
0 0 0
0 0 0
0 0 0
0 0 0
0 0 0
0 0 0
0 0 0
0 0 0
0 0 0
0 0 0
0 0 0
0 0 0
0 0 0
0 0 0
0 0 0
0 0 0
0 0 0
0 0 0
0 0 0
0 0 0
0 0 0
0 0 0
0 0 0
0 0 0
0 0 0
0 0 0
0 0 0
0 0 0
0 0 0
0 0 0
0 0 0
0 0 0
0 0 0
0 0 0
0 0 0
0 0 0
0 0 0
0 0 0
0 0 0
0 0 0
0 0 0
0 0 0
0 0 0
0 0 0
0 0 0
0 0 0
0 0 0
0 0 0
0 0 0
0 0 0
0 0 0
0 0 0
0 0 0
0 0 0
0 0 0
0 0 0
0 0 0
0 0 0
0 0 0
0 0 0
0 0 0
0 0 0
0 0 0
0 0 0
0 0 0
0 0 0
0 0 0
0 0 0
0 0 0
0 0 0
0 0 0
0 0 0
0 0 0
0 0 0
0 0 0
0 0 0
0 0 0
0 0 0
0 0 0
0 0 0
0 0 0
0 0 0
0 0 0
0 0 0
0 0 0
0 0 0
0 0 0
0 0 0
0 0 0
0 0 0
0 0 0
0 0 0
0 0 0
0 0 0
0 0 0
0 0 0
0 0 0
0 0 0
0 0 0
0 0 0
0 0 0
0 0 0
0 0 0
0 0 0
0 0 0
0 0 0
0 0 0
0 0 0
0 0 0
0 0 0
0 0 0
0 0 0
0 0 0
0 0 0
0 0 0
0 0 0
0 0 0
0 0 0
0 0 0
0 0 0
0 0 0
0 0 0
0 0 0
0 0 0
0 0 0
0 0 0
0 0 0
0 0 0
0 0 0
0 0 0
0 0 0
0 0 0
0 0 0
0 0 0
0 0 0
0 0 0
218 218 218
255 255 255
255 255 255
255 255 255
255 255 255
255 255 255
255 255 255
255 255 255
255 255 255
255 255 255
255 255 255
255 255 255
255 255 255
255 255 255
255 255 255
255 255 255
255 255 255
255 255 255
255 255 255
255 255 255
255 255 255
255 255 255
255 255 255
255 255 255
255 255 255
255 255 255
255 255 255
255 255 255
255 255 255
255 255 255
255 255 255
255 255 255
255 255 255
255 255 255
255 255 255
255 255 255
255 255 255
255 255 255
0 0 0
0 0 0
0 0 0
0 0 0
0 0 0
0 0 0
0 0 0
0 0 0
0 0 0
0 0 0
0 0 0
0 0 0
0 0 0
0 0 0
0 0 0
0 0 0
0 0 0
0 0 0
0 0 0
0 0 0
0 0 0
0 0 0
0 0 0
0 0 0
0 0 0
0 0 0
0 0 0
0 0 0
0 0 0
0 0 0
0 0 0
0 0 0
0 0 0
0 0 0
0 0 0
0 0 0
0 0 0
0 0 0
0 0 0
0 0 0
0 0 0
0 0 0
0 0 0
0 0 0
0 0 0
0 0 0
0 0 0
0 0 0
0 0 0
0 0 0
0 0 0
0 0 0
0 0 0
0 0 0
0 0 0
0 0 0
0 0 0
0 0 0
0 0 0
0 0 0
0 0 0
0 0 0
0 0 0
0 0 0
0 0 0
0 0 0
0 0 0
0 0 0
0 0 0
0 0 0
0 0 0
0 0 0
0 0 0
0 0 0
0 0 0
0 0 0
0 0 0
0 0 0
0 0 0
0 0 0
0 0 0
0 0 0
0 0 0
0 0 0
0 0 0
0 0 0
0 0 0
0 0 0
0 0 0
0 0 0
0 0 0
0 0 0
0 0 0
0 0 0
0 0 0
0 0 0
0 0 0
0 0 0
0 0 0
0 0 0
0 0 0
0 0 0
0 0 0
0 0 0
0 0 0
0 0 0
0 0 0
0 0 0
0 0 0
0 0 0
0 0 0
0 0 0
0 0 0
0 0 0
0 0 0
0 0 0
0 0 0
0 0 0
0 0 0
0 0 0
0 0 0
0 0 0
0 0 0
0 0 0
0 0 0
0 0 0
0 0 0
0 0 0
0 0 0
0 0 0
0 0 0
0 0 0
0 0 0
0 0 0
0 0 0
0 0 0
0 0 0
0 0 0
0 0 0
0 0 0
0 0 0
0 0 0
0 0 0
0 0 0
0 0 0
0 0 0
0 0 0
0 0 0
0 0 0
0 0 0
0 0 0
0 0 0
0 0 0
0 0 0
0 0 0
0 0 0
0 0 0
0 0 0
0 0 0
0 0 0
0 0 0
0 0 0
0 0 0
0 0 0
0 0 0
0 0 0
0 0 0
0 0 0
0 0 0
0 0 0
0 0 0
0 0 0
0 0 0
0 0 0
0 0 0
0 0 0
0 0 0
0 0 0
0 0 0
0 0 0
0 0 0
0 0 0
0 0 0
0 0 0
0 0 0
0 0 0
0 0 0
0 0 0
0 0 0
0 0 0
0 0 0
0 0 0
0 0 0
0 0 0
0 0 0
0 0 0
0 0 0
0 0 0
0 0 0
0 0 0
0 0 0
0 0 0
0 0 0
0 0 0
0 0 0
0 0 0
0 0 0
0 0 0
0 0 0
0 0 0
0 0 0
0 0 0
0 0 0
0 0 0
0 0 0
0 0 0
0 0 0
0 0 0
0 0 0
0 0 0
0 0 0
0 0 0
0 0 0
0 0 0
0 0 0
0 0 0
0 0 0
0 0 0
0 0 0
0 0 0
0 0 0
0 0 0
0 0 0
0 0 0
0 0 0
0 0 0
0 0 0
0 0 0
0 0 0
0 0 0
0 0 0
0 0 0
0 0 0
0 0 0
0 0 0
0 0 0
0 0 0
0 0 0
0 0 0
0 0 0
0 0 0
0 0 0
0 0 0
0 0 0
0 0 0
0 0 0
0 0 0
0 0 0
0 0 0
0 0 0
0 0 0
0 0 0
0 0 0
0 0 0
0 0 0
0 0 0
0 0 0
0 0 0
0 0 0
0 0 0
0 0 0
0 0 0
0 0 0
0 0 0
0 0 0
0 0 0
0 0 0
0 0 0
0 0 0
0 0 0
0 0 0
0 0 0
0 0 0
0 0 0
0 0 0
0 0 0
0 0 0
0 0 0
0 0 0
0 0 0
0 0 0
0 0 0
0 0 0
0 0 0
0 0 0
0 0 0
0 0 0
0 0 0
0 0 0
0 0 0
0 0 0
0 0 0
0 0 0
0 0 0
0 0 0
0 0 0
0 0 0
0 0 0
0 0 0
0 0 0
0 0 0
0 0 0
0 0 0
0 0 0
0 0 0
0 0 0
0 0 0
0 0 0
0 0 0
0 0 0
0 0 0
0 0 0
0 0 0
0 0 0
0 0 0
0 0 0
0 0 0
0 0 0
0 0 0
0 0 0
0 0 0
0 0 0
0 0 0
0 0 0
0 0 0
0 0 0
0 0 0
0 0 0
0 0 0
0 0 0
0 0 0
0 0 0
0 0 0
0 0 0
0 0 0
0 0 0
0 0 0
0 0 0
0 0 0
0 0 0
0 0 0
0 0 0
0 0 0
0 0 0
0 0 0
0 0 0
0 0 0
0 0 0
0 0 0
0 0 0
0 0 0
0 0 0
220 220 220
255 255 255
255 255 255
255 255 255
255 255 255
255 255 255
255 255 255
255 255 255
255 255 255
255 255 255
255 255 255
255 255 255
255 255 255
255 255 255
255 255 255
255 255 255
255 255 255
255 255 255
255 255 255
255 255 255
255 255 255
255 255 255
255 255 255
255 255 255
255 255 255
255 255 255
255 255 255
255 255 255
255 255 255
255 255 255
255 255 255
255 255 255
255 255 255
255 255 255
255 255 255
255 255 255
255 255 255
255 255 255
0 0 0
0 0 0
0 0 0
0 0 0
0 0 0
0 0 0
0 0 0
0 0 0
0 0 0
0 0 0
0 0 0
0 0 0
0 0 0
0 0 0
0 0 0
0 0 0
0 0 0
0 0 0
0 0 0
0 0 0
0 0 0
0 0 0
0 0 0
0 0 0
0 0 0
0 0 0
0 0 0
0 0 0
0 0 0
0 0 0
0 0 0
0 0 0
0 0 0
0 0 0
0 0 0
0 0 0
0 0 0
0 0 0
0 0 0
0 0 0
0 0 0
0 0 0
0 0 0
0 0 0
0 0 0
0 0 0
0 0 0
0 0 0
0 0 0
0 0 0
0 0 0
0 0 0
0 0 0
0 0 0
0 0 0
0 0 0
0 0 0
0 0 0
0 0 0
0 0 0
0 0 0
0 0 0
0 0 0
0 0 0
0 0 0
0 0 0
0 0 0
0 0 0
0 0 0
0 0 0
0 0 0
0 0 0
0 0 0
0 0 0
0 0 0
0 0 0
0 0 0
0 0 0
0 0 0
0 0 0
0 0 0
0 0 0
0 0 0
0 0 0
0 0 0
0 0 0
0 0 0
0 0 0
0 0 0
0 0 0
0 0 0
0 0 0
0 0 0
0 0 0
0 0 0
0 0 0
0 0 0
0 0 0
0 0 0
0 0 0
0 0 0
0 0 0
0 0 0
0 0 0
0 0 0
0 0 0
0 0 0
0 0 0
0 0 0
0 0 0
0 0 0
0 0 0
0 0 0
0 0 0
0 0 0
0 0 0
0 0 0
0 0 0
0 0 0
0 0 0
0 0 0
0 0 0
0 0 0
0 0 0
0 0 0
0 0 0
0 0 0
0 0 0
0 0 0
0 0 0
0 0 0
0 0 0
0 0 0
0 0 0
0 0 0
0 0 0
0 0 0
0 0 0
0 0 0
0 0 0
0 0 0
0 0 0
0 0 0
0 0 0
0 0 0
0 0 0
0 0 0
0 0 0
0 0 0
0 0 0
0 0 0
0 0 0
0 0 0
0 0 0
0 0 0
0 0 0
0 0 0
0 0 0
0 0 0
0 0 0
0 0 0
0 0 0
0 0 0
0 0 0
0 0 0
0 0 0
0 0 0
0 0 0
0 0 0
0 0 0
0 0 0
0 0 0
0 0 0
0 0 0
0 0 0
0 0 0
0 0 0
0 0 0
0 0 0
0 0 0
0 0 0
0 0 0
0 0 0
0 0 0
0 0 0
0 0 0
0 0 0
0 0 0
0 0 0
0 0 0
0 0 0
0 0 0
0 0 0
0 0 0
0 0 0
0 0 0
0 0 0
0 0 0
0 0 0
0 0 0
0 0 0
0 0 0
0 0 0
0 0 0
0 0 0
0 0 0
0 0 0
0 0 0
0 0 0
0 0 0
0 0 0
0 0 0
0 0 0
0 0 0
0 0 0
0 0 0
0 0 0
0 0 0
0 0 0
0 0 0
0 0 0
0 0 0
0 0 0
0 0 0
0 0 0
0 0 0
0 0 0
0 0 0
0 0 0
0 0 0
0 0 0
0 0 0
0 0 0
0 0 0
0 0 0
0 0 0
0 0 0
0 0 0
0 0 0
0 0 0
0 0 0
0 0 0
0 0 0
0 0 0
0 0 0
0 0 0
0 0 0
0 0 0
0 0 0
0 0 0
0 0 0
0 0 0
0 0 0
0 0 0
0 0 0
0 0 0
0 0 0
0 0 0
0 0 0
0 0 0
0 0 0
0 0 0
0 0 0
0 0 0
0 0 0
0 0 0
0 0 0
0 0 0
0 0 0
0 0 0
0 0 0
0 0 0
0 0 0
0 0 0
0 0 0
0 0 0
0 0 0
0 0 0
0 0 0
0 0 0
0 0 0
0 0 0
0 0 0
0 0 0
0 0 0
0 0 0
0 0 0
0 0 0
0 0 0
0 0 0
0 0 0
0 0 0
0 0 0
0 0 0
0 0 0
0 0 0
0 0 0
0 0 0
0 0 0
0 0 0
0 0 0
0 0 0
0 0 0
0 0 0
0 0 0
0 0 0
0 0 0
0 0 0
0 0 0
0 0 0
0 0 0
0 0 0
0 0 0
0 0 0
0 0 0
0 0 0
0 0 0
0 0 0
0 0 0
0 0 0
0 0 0
0 0 0
0 0 0
0 0 0
0 0 0
0 0 0
0 0 0
0 0 0
0 0 0
0 0 0
0 0 0
0 0 0
0 0 0
0 0 0
0 0 0
0 0 0
0 0 0
0 0 0
0 0 0
0 0 0
0 0 0
0 0 0
0 0 0
0 0 0
0 0 0
0 0 0
0 0 0
0 0 0
0 0 0
0 0 0
0 0 0
0 0 0
0 0 0
0 0 0
0 0 0
0 0 0
0 0 0
0 0 0
0 0 0
0 0 0
0 0 0
0 0 0
249 249 249
255 255 255
255 255 255
255 255 255
255 255 255
255 255 255
255 255 255
255 255 255
255 255 255
255 255 255
255 255 255
255 255 255
255 255 255
255 255 255
255 255 255
255 255 255
255 255 255
255 255 255
255 255 255
255 255 255
255 255 255
255 255 255
255 255 255
255 255 255
255 255 255
255 255 255
255 255 255
255 255 255
255 255 255
255 255 255
255 255 255
255 255 255
255 255 255
255 255 255
255 255 255
255 255 255
255 255 255
255 255 255
0 0 0
0 0 0
0 0 0
0 0 0
0 0 0
0 0 0
0 0 0
0 0 0
0 0 0
0 0 0
0 0 0
0 0 0
0 0 0
0 0 0
0 0 0
0 0 0
0 0 0
0 0 0
0 0 0
0 0 0
0 0 0
0 0 0
0 0 0
0 0 0
0 0 0
0 0 0
0 0 0
0 0 0
0 0 0
0 0 0
0 0 0
0 0 0
0 0 0
0 0 0
0 0 0
0 0 0
0 0 0
0 0 0
0 0 0
0 0 0
0 0 0
0 0 0
0 0 0
0 0 0
0 0 0
0 0 0
0 0 0
0 0 0
0 0 0
0 0 0
0 0 0
0 0 0
0 0 0
0 0 0
0 0 0
0 0 0
0 0 0
0 0 0
0 0 0
0 0 0
0 0 0
0 0 0
0 0 0
0 0 0
0 0 0
0 0 0
0 0 0
0 0 0
0 0 0
0 0 0
0 0 0
0 0 0
0 0 0
0 0 0
0 0 0
0 0 0
0 0 0
0 0 0
0 0 0
0 0 0
0 0 0
0 0 0
0 0 0
0 0 0
0 0 0
0 0 0
0 0 0
0 0 0
0 0 0
0 0 0
0 0 0
0 0 0
0 0 0
0 0 0
0 0 0
0 0 0
0 0 0
0 0 0
0 0 0
0 0 0
0 0 0
0 0 0
0 0 0
0 0 0
0 0 0
0 0 0
0 0 0
0 0 0
0 0 0
0 0 0
0 0 0
0 0 0
0 0 0
0 0 0
0 0 0
0 0 0
0 0 0
0 0 0
0 0 0
0 0 0
0 0 0
0 0 0
0 0 0
0 0 0
0 0 0
0 0 0
0 0 0
0 0 0
0 0 0
0 0 0
0 0 0
0 0 0
0 0 0
0 0 0
0 0 0
0 0 0
0 0 0
0 0 0
0 0 0
0 0 0
0 0 0
0 0 0
0 0 0
0 0 0
0 0 0
0 0 0
0 0 0
0 0 0
0 0 0
0 0 0
0 0 0
0 0 0
0 0 0
0 0 0
0 0 0
0 0 0
0 0 0
0 0 0
0 0 0
0 0 0
0 0 0
0 0 0
0 0 0
0 0 0
0 0 0
0 0 0
0 0 0
0 0 0
0 0 0
0 0 0
0 0 0
0 0 0
0 0 0
0 0 0
0 0 0
0 0 0
0 0 0
0 0 0
0 0 0
0 0 0
0 0 0
0 0 0
0 0 0
0 0 0
0 0 0
0 0 0
0 0 0
0 0 0
0 0 0
0 0 0
0 0 0
0 0 0
0 0 0
0 0 0
0 0 0
0 0 0
0 0 0
0 0 0
0 0 0
0 0 0
0 0 0
0 0 0
0 0 0
0 0 0
0 0 0
0 0 0
0 0 0
0 0 0
0 0 0
0 0 0
0 0 0
0 0 0
0 0 0
0 0 0
0 0 0
0 0 0
0 0 0
0 0 0
0 0 0
0 0 0
0 0 0
0 0 0
0 0 0
0 0 0
0 0 0
0 0 0
0 0 0
0 0 0
0 0 0
0 0 0
0 0 0
0 0 0
0 0 0
0 0 0
0 0 0
0 0 0
0 0 0
0 0 0
0 0 0
0 0 0
0 0 0
0 0 0
0 0 0
0 0 0
0 0 0
0 0 0
0 0 0
0 0 0
0 0 0
0 0 0
0 0 0
0 0 0
0 0 0
0 0 0
0 0 0
0 0 0
0 0 0
0 0 0
0 0 0
0 0 0
0 0 0
0 0 0
0 0 0
0 0 0
0 0 0
0 0 0
0 0 0
0 0 0
0 0 0
0 0 0
0 0 0
0 0 0
0 0 0
0 0 0
0 0 0
0 0 0
0 0 0
0 0 0
0 0 0
0 0 0
0 0 0
0 0 0
0 0 0
0 0 0
0 0 0
0 0 0
0 0 0
0 0 0
0 0 0
0 0 0
0 0 0
0 0 0
0 0 0
0 0 0
0 0 0
0 0 0
0 0 0
0 0 0
0 0 0
0 0 0
0 0 0
0 0 0
0 0 0
0 0 0
0 0 0
0 0 0
0 0 0
0 0 0
0 0 0
0 0 0
0 0 0
0 0 0
0 0 0
0 0 0
0 0 0
0 0 0
0 0 0
0 0 0
0 0 0
0 0 0
0 0 0
0 0 0
0 0 0
0 0 0
0 0 0
0 0 0
0 0 0
0 0 0
0 0 0
0 0 0
0 0 0
0 0 0
0 0 0
0 0 0
0 0 0
0 0 0
0 0 0
0 0 0
0 0 0
0 0 0
0 0 0
0 0 0
0 0 0
0 0 0
0 0 0
0 0 0
0 0 0
0 0 0
0 0 0
0 0 0
0 0 0
0 0 0
0 0 0
0 0 0
0 0 0
0 0 0
0 0 0
0 0 0
0 0 0
0 0 0
0 0 0
0 0 0
231 231 231
255 255 255
255 255 255
255 255 255
255 255 255
255 255 255
255 255 255
255 255 255
255 255 255
255 255 255
255 255 255
255 255 255
255 255 255
255 255 255
255 255 255
255 255 255
255 255 255
255 255 255
255 255 255
255 255 255
255 255 255
255 255 255
255 255 255
255 255 255
255 255 255
255 255 255
255 255 255
255 255 255
255 255 255
255 255 255
255 255 255
255 255 255
255 255 255
255 255 255
255 255 255
255 255 255
255 255 255
255 255 255
0 0 0
0 0 0
0 0 0
0 0 0
0 0 0
0 0 0
0 0 0
0 0 0
0 0 0
0 0 0
0 0 0
0 0 0
0 0 0
0 0 0
0 0 0
0 0 0
0 0 0
0 0 0
0 0 0
0 0 0
0 0 0
0 0 0
0 0 0
0 0 0
0 0 0
0 0 0
0 0 0
0 0 0
0 0 0
0 0 0
0 0 0
0 0 0
0 0 0
0 0 0
0 0 0
0 0 0
0 0 0
0 0 0
0 0 0
0 0 0
0 0 0
0 0 0
0 0 0
0 0 0
0 0 0
0 0 0
0 0 0
0 0 0
0 0 0
0 0 0
0 0 0
0 0 0
0 0 0
0 0 0
0 0 0
0 0 0
0 0 0
0 0 0
0 0 0
0 0 0
0 0 0
0 0 0
0 0 0
0 0 0
0 0 0
0 0 0
0 0 0
0 0 0
0 0 0
0 0 0
0 0 0
0 0 0
0 0 0
0 0 0
0 0 0
0 0 0
0 0 0
0 0 0
0 0 0
0 0 0
0 0 0
0 0 0
0 0 0
0 0 0
0 0 0
0 0 0
0 0 0
0 0 0
0 0 0
0 0 0
0 0 0
0 0 0
0 0 0
0 0 0
0 0 0
0 0 0
0 0 0
0 0 0
0 0 0
0 0 0
0 0 0
0 0 0
0 0 0
0 0 0
0 0 0
0 0 0
0 0 0
0 0 0
0 0 0
0 0 0
0 0 0
0 0 0
0 0 0
0 0 0
0 0 0
0 0 0
0 0 0
0 0 0
0 0 0
0 0 0
0 0 0
0 0 0
0 0 0
0 0 0
0 0 0
0 0 0
0 0 0
0 0 0
0 0 0
0 0 0
0 0 0
0 0 0
0 0 0
0 0 0
0 0 0
0 0 0
0 0 0
0 0 0
0 0 0
0 0 0
0 0 0
0 0 0
0 0 0
0 0 0
0 0 0
0 0 0
0 0 0
0 0 0
0 0 0
0 0 0
0 0 0
0 0 0
0 0 0
0 0 0
0 0 0
0 0 0
0 0 0
0 0 0
0 0 0
0 0 0
0 0 0
0 0 0
0 0 0
0 0 0
0 0 0
0 0 0
0 0 0
0 0 0
0 0 0
0 0 0
0 0 0
0 0 0
0 0 0
0 0 0
0 0 0
0 0 0
0 0 0
0 0 0
0 0 0
0 0 0
0 0 0
0 0 0
0 0 0
0 0 0
0 0 0
0 0 0
0 0 0
0 0 0
0 0 0
0 0 0
0 0 0
0 0 0
0 0 0
0 0 0
0 0 0
0 0 0
0 0 0
0 0 0
0 0 0
0 0 0
0 0 0
0 0 0
0 0 0
0 0 0
0 0 0
0 0 0
0 0 0
0 0 0
0 0 0
0 0 0
0 0 0
0 0 0
0 0 0
0 0 0
0 0 0
0 0 0
0 0 0
0 0 0
0 0 0
0 0 0
0 0 0
0 0 0
0 0 0
0 0 0
0 0 0
0 0 0
0 0 0
0 0 0
0 0 0
0 0 0
0 0 0
0 0 0
0 0 0
0 0 0
0 0 0
0 0 0
0 0 0
0 0 0
0 0 0
0 0 0
0 0 0
0 0 0
0 0 0
0 0 0
0 0 0
0 0 0
0 0 0
0 0 0
0 0 0
0 0 0
0 0 0
0 0 0
0 0 0
0 0 0
0 0 0
0 0 0
0 0 0
0 0 0
0 0 0
0 0 0
0 0 0
0 0 0
0 0 0
0 0 0
0 0 0
0 0 0
0 0 0
0 0 0
0 0 0
0 0 0
0 0 0
0 0 0
0 0 0
0 0 0
0 0 0
0 0 0
0 0 0
0 0 0
0 0 0
0 0 0
0 0 0
0 0 0
0 0 0
0 0 0
0 0 0
0 0 0
0 0 0
0 0 0
0 0 0
0 0 0
0 0 0
0 0 0
0 0 0
0 0 0
0 0 0
0 0 0
0 0 0
0 0 0
0 0 0
0 0 0
0 0 0
0 0 0
0 0 0
0 0 0
0 0 0
0 0 0
0 0 0
0 0 0
0 0 0
0 0 0
0 0 0
0 0 0
0 0 0
0 0 0
0 0 0
0 0 0
0 0 0
0 0 0
0 0 0
0 0 0
0 0 0
0 0 0
0 0 0
0 0 0
0 0 0
0 0 0
0 0 0
0 0 0
0 0 0
0 0 0
0 0 0
0 0 0
0 0 0
0 0 0
0 0 0
0 0 0
0 0 0
0 0 0
0 0 0
0 0 0
0 0 0
0 0 0
0 0 0
0 0 0
0 0 0
0 0 0
0 0 0
0 0 0
0 0 0
0 0 0
0 0 0
0 0 0
0 0 0
0 0 0
0 0 0
0 0 0
0 0 0
0 0 0
0 0 0
0 0 0
0 0 0
0 0 0
250 250 250
255 255 255
255 255 255
255 255 255
255 255 255
255 255 255
255 255 255
255 255 255
255 255 255
255 255 255
255 255 255
255 255 255
255 255 255
255 255 255
255 255 255
255 255 255
255 255 255
255 255 255
255 255 255
255 255 255
255 255 255
255 255 255
255 255 255
255 255 255
255 255 255
255 255 255
255 255 255
255 255 255
255 255 255
255 255 255
255 255 255
255 255 255
255 255 255
255 255 255
255 255 255
255 255 255
255 255 255
255 255 255
0 0 0
0 0 0
0 0 0
0 0 0
0 0 0
0 0 0
0 0 0
0 0 0
0 0 0
0 0 0
0 0 0
0 0 0
0 0 0
0 0 0
0 0 0
0 0 0
0 0 0
0 0 0
0 0 0
0 0 0
0 0 0
0 0 0
0 0 0
0 0 0
0 0 0
0 0 0
0 0 0
0 0 0
0 0 0
0 0 0
0 0 0
0 0 0
0 0 0
0 0 0
0 0 0
0 0 0
0 0 0
0 0 0
0 0 0
0 0 0
0 0 0
0 0 0
0 0 0
0 0 0
0 0 0
0 0 0
0 0 0
0 0 0
0 0 0
0 0 0
0 0 0
0 0 0
0 0 0
0 0 0
0 0 0
0 0 0
0 0 0
0 0 0
0 0 0
0 0 0
0 0 0
0 0 0
0 0 0
0 0 0
0 0 0
0 0 0
0 0 0
0 0 0
0 0 0
0 0 0
0 0 0
0 0 0
0 0 0
0 0 0
0 0 0
0 0 0
0 0 0
0 0 0
0 0 0
0 0 0
0 0 0
0 0 0
0 0 0
0 0 0
0 0 0
0 0 0
0 0 0
0 0 0
0 0 0
0 0 0
0 0 0
0 0 0
0 0 0
0 0 0
0 0 0
0 0 0
0 0 0
0 0 0
0 0 0
0 0 0
0 0 0
0 0 0
0 0 0
0 0 0
0 0 0
0 0 0
0 0 0
0 0 0
0 0 0
0 0 0
0 0 0
0 0 0
0 0 0
0 0 0
0 0 0
0 0 0
0 0 0
0 0 0
0 0 0
0 0 0
0 0 0
0 0 0
0 0 0
0 0 0
0 0 0
0 0 0
0 0 0
0 0 0
0 0 0
0 0 0
0 0 0
0 0 0
0 0 0
0 0 0
0 0 0
0 0 0
0 0 0
0 0 0
0 0 0
0 0 0
0 0 0
0 0 0
0 0 0
0 0 0
0 0 0
0 0 0
0 0 0
0 0 0
0 0 0
0 0 0
0 0 0
0 0 0
0 0 0
0 0 0
0 0 0
0 0 0
0 0 0
0 0 0
0 0 0
0 0 0
0 0 0
0 0 0
0 0 0
0 0 0
0 0 0
0 0 0
0 0 0
0 0 0
0 0 0
0 0 0
0 0 0
0 0 0
0 0 0
0 0 0
0 0 0
0 0 0
0 0 0
0 0 0
0 0 0
0 0 0
0 0 0
0 0 0
0 0 0
0 0 0
0 0 0
0 0 0
0 0 0
0 0 0
0 0 0
0 0 0
0 0 0
0 0 0
0 0 0
0 0 0
0 0 0
0 0 0
0 0 0
0 0 0
0 0 0
0 0 0
0 0 0
0 0 0
0 0 0
0 0 0
0 0 0
0 0 0
0 0 0
0 0 0
0 0 0
0 0 0
0 0 0
0 0 0
0 0 0
0 0 0
0 0 0
0 0 0
0 0 0
0 0 0
0 0 0
0 0 0
0 0 0
0 0 0
0 0 0
0 0 0
0 0 0
0 0 0
0 0 0
0 0 0
0 0 0
0 0 0
0 0 0
0 0 0
0 0 0
0 0 0
0 0 0
0 0 0
0 0 0
0 0 0
0 0 0
0 0 0
0 0 0
0 0 0
0 0 0
0 0 0
0 0 0
0 0 0
0 0 0
0 0 0
0 0 0
0 0 0
0 0 0
0 0 0
0 0 0
0 0 0
0 0 0
0 0 0
0 0 0
0 0 0
0 0 0
0 0 0
0 0 0
0 0 0
0 0 0
0 0 0
0 0 0
0 0 0
0 0 0
0 0 0
0 0 0
0 0 0
0 0 0
0 0 0
0 0 0
0 0 0
0 0 0
0 0 0
0 0 0
0 0 0
0 0 0
0 0 0
0 0 0
0 0 0
0 0 0
0 0 0
0 0 0
0 0 0
0 0 0
0 0 0
0 0 0
0 0 0
0 0 0
0 0 0
0 0 0
0 0 0
0 0 0
0 0 0
0 0 0
0 0 0
0 0 0
0 0 0
0 0 0
0 0 0
0 0 0
0 0 0
0 0 0
0 0 0
0 0 0
0 0 0
0 0 0
0 0 0
0 0 0
0 0 0
0 0 0
0 0 0
0 0 0
0 0 0
0 0 0
0 0 0
0 0 0
0 0 0
0 0 0
0 0 0
0 0 0
0 0 0
0 0 0
0 0 0
0 0 0
0 0 0
0 0 0
0 0 0
0 0 0
0 0 0
0 0 0
0 0 0
0 0 0
0 0 0
0 0 0
0 0 0
0 0 0
0 0 0
0 0 0
0 0 0
0 0 0
0 0 0
0 0 0
0 0 0
0 0 0
0 0 0
0 0 0
0 0 0
0 0 0
0 0 0
0 0 0
0 0 0
0 0 0
0 0 0
0 0 0
0 0 0
0 0 0
0 0 0
0 0 0
0 0 0
255 255 255
255 255 255
255 255 255
255 255 255
255 255 255
255 255 255
255 255 255
255 255 255
255 255 255
255 255 255
255 255 255
255 255 255
255 255 255
255 255 255
255 255 255
255 255 255
255 255 255
255 255 255
255 255 255
255 255 255
255 255 255
255 255 255
255 255 255
255 255 255
255 255 255
255 255 255
255 255 255
255 255 255
255 255 255
255 255 255
255 255 255
255 255 255
255 255 255
255 255 255
255 255 255
255 255 255
255 255 255
255 255 255
0 0 0
0 0 0
0 0 0
0 0 0
0 0 0
0 0 0
0 0 0
0 0 0
0 0 0
0 0 0
0 0 0
0 0 0
0 0 0
0 0 0
0 0 0
0 0 0
0 0 0
0 0 0
0 0 0
0 0 0
0 0 0
0 0 0
0 0 0
0 0 0
0 0 0
0 0 0
0 0 0
0 0 0
0 0 0
0 0 0
0 0 0
0 0 0
0 0 0
0 0 0
0 0 0
0 0 0
0 0 0
0 0 0
0 0 0
0 0 0
0 0 0
0 0 0
0 0 0
0 0 0
0 0 0
0 0 0
0 0 0
0 0 0
0 0 0
0 0 0
0 0 0
0 0 0
0 0 0
0 0 0
0 0 0
0 0 0
0 0 0
0 0 0
0 0 0
0 0 0
0 0 0
0 0 0
0 0 0
0 0 0
0 0 0
0 0 0
0 0 0
0 0 0
0 0 0
0 0 0
0 0 0
0 0 0
0 0 0
0 0 0
0 0 0
0 0 0
0 0 0
0 0 0
0 0 0
0 0 0
0 0 0
0 0 0
0 0 0
0 0 0
0 0 0
0 0 0
0 0 0
0 0 0
0 0 0
0 0 0
0 0 0
0 0 0
0 0 0
0 0 0
0 0 0
0 0 0
0 0 0
0 0 0
0 0 0
0 0 0
0 0 0
0 0 0
0 0 0
0 0 0
0 0 0
0 0 0
0 0 0
0 0 0
0 0 0
0 0 0
0 0 0
0 0 0
0 0 0
0 0 0
0 0 0
0 0 0
0 0 0
0 0 0
0 0 0
0 0 0
0 0 0
0 0 0
0 0 0
0 0 0
0 0 0
0 0 0
0 0 0
0 0 0
0 0 0
0 0 0
0 0 0
0 0 0
0 0 0
0 0 0
0 0 0
0 0 0
0 0 0
0 0 0
0 0 0
0 0 0
0 0 0
0 0 0
0 0 0
0 0 0
0 0 0
0 0 0
0 0 0
0 0 0
0 0 0
0 0 0
0 0 0
0 0 0
0 0 0
0 0 0
0 0 0
0 0 0
0 0 0
0 0 0
0 0 0
0 0 0
0 0 0
0 0 0
0 0 0
0 0 0
0 0 0
0 0 0
0 0 0
0 0 0
0 0 0
0 0 0
0 0 0
0 0 0
0 0 0
0 0 0
0 0 0
0 0 0
0 0 0
0 0 0
0 0 0
0 0 0
0 0 0
0 0 0
0 0 0
0 0 0
0 0 0
0 0 0
0 0 0
0 0 0
0 0 0
0 0 0
0 0 0
0 0 0
0 0 0
0 0 0
0 0 0
0 0 0
0 0 0
0 0 0
0 0 0
0 0 0
0 0 0
0 0 0
0 0 0
0 0 0
0 0 0
0 0 0
0 0 0
0 0 0
0 0 0
0 0 0
0 0 0
0 0 0
0 0 0
0 0 0
0 0 0
0 0 0
0 0 0
0 0 0
0 0 0
0 0 0
0 0 0
0 0 0
0 0 0
0 0 0
0 0 0
0 0 0
0 0 0
0 0 0
0 0 0
0 0 0
0 0 0
0 0 0
0 0 0
0 0 0
0 0 0
0 0 0
0 0 0
0 0 0
0 0 0
0 0 0
0 0 0
0 0 0
0 0 0
0 0 0
0 0 0
0 0 0
0 0 0
0 0 0
0 0 0
0 0 0
0 0 0
0 0 0
0 0 0
0 0 0
0 0 0
0 0 0
0 0 0
0 0 0
0 0 0
0 0 0
0 0 0
0 0 0
0 0 0
0 0 0
0 0 0
0 0 0
0 0 0
0 0 0
0 0 0
0 0 0
0 0 0
0 0 0
0 0 0
0 0 0
0 0 0
0 0 0
0 0 0
0 0 0
0 0 0
0 0 0
0 0 0
0 0 0
0 0 0
0 0 0
0 0 0
0 0 0
0 0 0
0 0 0
0 0 0
0 0 0
0 0 0
0 0 0
0 0 0
0 0 0
0 0 0
0 0 0
0 0 0
0 0 0
0 0 0
0 0 0
0 0 0
0 0 0
0 0 0
0 0 0
0 0 0
0 0 0
0 0 0
0 0 0
0 0 0
0 0 0
0 0 0
0 0 0
0 0 0
0 0 0
0 0 0
0 0 0
0 0 0
0 0 0
0 0 0
0 0 0
0 0 0
0 0 0
0 0 0
0 0 0
0 0 0
0 0 0
0 0 0
0 0 0
0 0 0
0 0 0
0 0 0
0 0 0
0 0 0
0 0 0
0 0 0
0 0 0
0 0 0
0 0 0
0 0 0
0 0 0
0 0 0
0 0 0
0 0 0
0 0 0
0 0 0
0 0 0
0 0 0
0 0 0
0 0 0
0 0 0
0 0 0
0 0 0
0 0 0
0 0 0
0 0 0
0 0 0
0 0 0
0 0 0
0 0 0
0 0 0
0 0 0
0 0 0
255 255 255
255 255 255
255 255 255
255 255 255
255 255 255
255 255 255
255 255 255
255 255 255
255 255 255
255 255 255
255 255 255
255 255 255
255 255 255
255 255 255
255 255 255
255 255 255
255 255 255
255 255 255
255 255 255
255 255 255
255 255 255
255 255 255
255 255 255
255 255 255
255 255 255
255 255 255
255 255 255
255 255 255
255 255 255
255 255 255
255 255 255
255 255 255
255 255 255
255 255 255
255 255 255
255 255 255
255 255 255
245 245 245
0 0 0
0 0 0
0 0 0
0 0 0
0 0 0
0 0 0
0 0 0
0 0 0
0 0 0
0 0 0
0 0 0
0 0 0
0 0 0
0 0 0
0 0 0
0 0 0
0 0 0
0 0 0
0 0 0
0 0 0
0 0 0
0 0 0
0 0 0
0 0 0
0 0 0
0 0 0
0 0 0
0 0 0
0 0 0
0 0 0
0 0 0
0 0 0
0 0 0
0 0 0
0 0 0
0 0 0
0 0 0
0 0 0
0 0 0
0 0 0
0 0 0
0 0 0
0 0 0
0 0 0
0 0 0
0 0 0
0 0 0
0 0 0
0 0 0
0 0 0
0 0 0
0 0 0
0 0 0
0 0 0
0 0 0
0 0 0
0 0 0
0 0 0
0 0 0
0 0 0
0 0 0
0 0 0
0 0 0
0 0 0
0 0 0
0 0 0
0 0 0
0 0 0
0 0 0
0 0 0
0 0 0
0 0 0
0 0 0
0 0 0
0 0 0
0 0 0
0 0 0
0 0 0
0 0 0
0 0 0
0 0 0
0 0 0
0 0 0
0 0 0
0 0 0
0 0 0
0 0 0
0 0 0
0 0 0
0 0 0
0 0 0
0 0 0
0 0 0
0 0 0
0 0 0
0 0 0
0 0 0
0 0 0
0 0 0
0 0 0
0 0 0
0 0 0
0 0 0
0 0 0
0 0 0
0 0 0
0 0 0
0 0 0
0 0 0
0 0 0
0 0 0
0 0 0
0 0 0
0 0 0
0 0 0
0 0 0
0 0 0
0 0 0
0 0 0
0 0 0
0 0 0
0 0 0
0 0 0
0 0 0
0 0 0
0 0 0
0 0 0
0 0 0
0 0 0
0 0 0
0 0 0
0 0 0
0 0 0
0 0 0
0 0 0
0 0 0
0 0 0
0 0 0
0 0 0
0 0 0
0 0 0
0 0 0
0 0 0
0 0 0
0 0 0
0 0 0
0 0 0
0 0 0
0 0 0
0 0 0
0 0 0
0 0 0
0 0 0
0 0 0
0 0 0
0 0 0
0 0 0
0 0 0
0 0 0
0 0 0
0 0 0
0 0 0
0 0 0
0 0 0
0 0 0
0 0 0
0 0 0
0 0 0
0 0 0
0 0 0
0 0 0
0 0 0
0 0 0
0 0 0
0 0 0
0 0 0
0 0 0
0 0 0
0 0 0
0 0 0
0 0 0
0 0 0
0 0 0
0 0 0
0 0 0
0 0 0
0 0 0
0 0 0
0 0 0
0 0 0
0 0 0
0 0 0
0 0 0
0 0 0
0 0 0
0 0 0
0 0 0
0 0 0
0 0 0
0 0 0
0 0 0
0 0 0
0 0 0
0 0 0
0 0 0
0 0 0
0 0 0
0 0 0
0 0 0
0 0 0
0 0 0
0 0 0
0 0 0
0 0 0
0 0 0
0 0 0
0 0 0
0 0 0
0 0 0
0 0 0
0 0 0
0 0 0
0 0 0
0 0 0
0 0 0
0 0 0
0 0 0
0 0 0
0 0 0
0 0 0
0 0 0
0 0 0
0 0 0
0 0 0
0 0 0
0 0 0
0 0 0
0 0 0
0 0 0
0 0 0
0 0 0
0 0 0
0 0 0
0 0 0
0 0 0
0 0 0
0 0 0
0 0 0
0 0 0
0 0 0
0 0 0
0 0 0
0 0 0
0 0 0
0 0 0
0 0 0
0 0 0
0 0 0
0 0 0
0 0 0
0 0 0
0 0 0
0 0 0
0 0 0
0 0 0
0 0 0
0 0 0
0 0 0
0 0 0
0 0 0
0 0 0
0 0 0
0 0 0
0 0 0
0 0 0
0 0 0
0 0 0
0 0 0
0 0 0
0 0 0
0 0 0
0 0 0
0 0 0
0 0 0
0 0 0
0 0 0
0 0 0
0 0 0
0 0 0
0 0 0
0 0 0
0 0 0
0 0 0
0 0 0
0 0 0
0 0 0
0 0 0
0 0 0
0 0 0
0 0 0
0 0 0
0 0 0
0 0 0
0 0 0
0 0 0
0 0 0
0 0 0
0 0 0
0 0 0
0 0 0
0 0 0
0 0 0
0 0 0
0 0 0
0 0 0
0 0 0
0 0 0
0 0 0
0 0 0
0 0 0
0 0 0
0 0 0
0 0 0
0 0 0
0 0 0
0 0 0
0 0 0
0 0 0
0 0 0
0 0 0
0 0 0
0 0 0
0 0 0
0 0 0
0 0 0
0 0 0
0 0 0
0 0 0
0 0 0
0 0 0
0 0 0
0 0 0
0 0 0
0 0 0
0 0 0
0 0 0
0 0 0
0 0 0
0 0 0
0 0 0
0 0 0
0 0 0
0 0 0
0 0 0
0 0 0
0 0 0
0 0 0
0 0 0
0 0 0
0 0 0
0 0 0
0 0 0
255 255 255
255 255 255
255 255 255
255 255 255
255 255 255
255 255 255
255 255 255
255 255 255
255 255 255
255 255 255
255 255 255
255 255 255
255 255 255
255 255 255
255 255 255
255 255 255
255 255 255
255 255 255
255 255 255
255 255 255
255 255 255
255 255 255
255 255 255
255 255 255
255 255 255
255 255 255
255 255 255
255 255 255
255 255 255
255 255 255
255 255 255
255 255 255
255 255 255
255 255 255
255 255 255
255 255 255
255 255 255
226 226 226
0 0 0
0 0 0
0 0 0
0 0 0
0 0 0
0 0 0
0 0 0
0 0 0
0 0 0
0 0 0
0 0 0
0 0 0
0 0 0
0 0 0
0 0 0
0 0 0
0 0 0
0 0 0
0 0 0
0 0 0
0 0 0
0 0 0
0 0 0
0 0 0
0 0 0
0 0 0
0 0 0
0 0 0
0 0 0
0 0 0
0 0 0
0 0 0
0 0 0
0 0 0
0 0 0
0 0 0
0 0 0
0 0 0
0 0 0
0 0 0
0 0 0
0 0 0
0 0 0
0 0 0
0 0 0
0 0 0
0 0 0
0 0 0
0 0 0
0 0 0
0 0 0
0 0 0
0 0 0
0 0 0
0 0 0
0 0 0
0 0 0
0 0 0
0 0 0
0 0 0
0 0 0
0 0 0
0 0 0
0 0 0
0 0 0
0 0 0
0 0 0
0 0 0
0 0 0
0 0 0
0 0 0
0 0 0
0 0 0
0 0 0
0 0 0
0 0 0
0 0 0
0 0 0
0 0 0
0 0 0
0 0 0
0 0 0
0 0 0
0 0 0
0 0 0
0 0 0
0 0 0
0 0 0
0 0 0
0 0 0
0 0 0
0 0 0
0 0 0
0 0 0
0 0 0
0 0 0
0 0 0
0 0 0
3 1 6
3 1 6
0 0 0
2 1 5
0 0 0
0 0 0
2 1 5
3 1 8
2 1 5
2 1 5
0 0 0
2 1 5
3 1 6
3 1 6
0 0 0
2 1 5
2 1 5
0 0 0
0 0 0
2 1 5
0 0 0
3 1 8
0 0 0
3 1 7
0 0 0
2 1 5
0 0 0
3 1 6
2 1 5
0 0 0
0 0 0
4 2 10
2 1 5
3 1 8
0 0 0
2 1 5
3 1 8
2 1 5
0 0 0
2 1 5
3 1 6
0 0 0
3 1 8
2 1 5
0 0 0
0 0 0
3 1 6
4 2 10
0 0 0
3 1 6
5 2 10
2 1 5
2 1 5
0 0 0
0 0 0
5 2 10
3 1 6
3 1 6
3 1 6
3 1 6
3 1 8
0 0 0
0 0 0
0 0 0
3 1 6
4 2 9
2 1 5
0 0 0
3 1 8
0 0 0
0 0 0
0 0 0
0 0 0
0 0 0
0 0 0
0 0 0
0 0 0
0 0 0
0 0 0
0 0 0
0 0 0
0 0 0
0 0 0
0 0 0
0 0 0
0 0 0
0 0 0
0 0 0
0 0 0
0 0 0
0 0 0
0 0 0
0 0 0
0 0 0
0 0 0
0 0 0
0 0 0
0 0 0
0 0 0
0 0 0
0 0 0
0 0 0
0 0 0
0 0 0
0 0 0
0 0 0
0 0 0
0 0 0
0 0 0
0 0 0
0 0 0
0 0 0
0 0 0
62 62 62
25 25 25
25 25 25
0 0 0
0 0 0
0 0 0
0 0 0
0 0 0
0 0 0
0 0 0
0 0 0
0 0 0
0 0 0
0 0 0
0 0 0
0 0 0
0 0 0
0 0 0
0 0 0
0 0 0
0 0 0
0 0 0
0 0 0
0 0 0
0 0 0
0 0 0
0 0 0
0 0 0
0 0 0
0 0 0
0 0 0
0 0 0
0 0 0
0 0 0
0 0 0
0 0 0
0 0 0
0 0 0
0 0 0
0 0 0
0 0 0
0 0 0
0 0 0
0 0 0
0 0 0
0 0 0
0 0 0
0 0 0
0 0 0
0 0 0
0 0 0
0 0 0
0 0 0
0 0 0
0 0 0
0 0 0
0 0 0
0 0 0
0 0 0
0 0 0
0 0 0
0 0 0
0 0 0
0 0 0
0 0 0
0 0 0
0 0 0
0 0 0
0 0 0
0 0 0
0 0 0
0 0 0
0 0 0
0 0 0
0 0 0
17 17 17
33 33 33
48 48 48
29 29 29
0 0 0
0 0 0
0 0 0
0 0 0
0 0 0
0 0 0
0 0 0
0 0 0
0 0 0
0 0 0
0 0 0
0 0 0
0 0 0
0 0 0
0 0 0
0 0 0
0 0 0
0 0 0
0 0 0
0 0 0
0 0 0
0 0 0
0 0 0
0 0 0
0 0 0
0 0 0
0 0 0
0 0 0
0 0 0
0 0 0
0 0 0
0 0 0
0 0 0
0 0 0
0 0 0
0 0 0
0 0 0
0 0 0
0 0 0
0 0 0
0 0 0
0 0 0
0 0 0
0 0 0
0 0 0
0 0 0
0 0 0
0 0 0
0 0 0
0 0 0
0 0 0
0 0 0
0 0 0
0 0 0
0 0 0
0 0 0
0 0 0
0 0 0
0 0 0
0 0 0
0 0 0
0 0 0
0 0 0
0 0 0
0 0 0
0 0 0
0 0 0
0 0 0
0 0 0
0 0 0
0 0 0
0 0 0
255 255 255
255 255 255
255 255 255
255 255 255
255 255 255
255 255 255
255 255 255
255 255 255
255 255 255
255 255 255
255 255 255
255 255 255
255 255 255
255 255 255
255 255 255
255 255 255
255 255 255
255 255 255
255 255 255
255 255 255
255 255 255
255 255 255
255 255 255
255 255 255
255 255 255
255 255 255
255 255 255
255 255 255
255 255 255
255 255 255
255 255 255
255 255 255
255 255 255
255 255 255
255 255 255
255 255 255
255 255 255
252 252 252
0 0 0
0 0 0
0 0 0
0 0 0
0 0 0
0 0 0
0 0 0
0 0 0
0 0 0
0 0 0
0 0 0
0 0 0
0 0 0
0 0 0
0 0 0
0 0 0
0 0 0
0 0 0
0 0 0
0 0 0
0 0 0
0 0 0
0 0 0
0 0 0
0 0 0
0 0 0
0 0 0
0 0 0
0 0 0
0 0 0
0 0 0
0 0 0
0 0 0
0 0 0
0 0 0
0 0 0
0 0 0
0 0 0
0 0 0
0 0 0
0 0 0
0 0 0
0 0 0
0 0 0
0 0 0
0 0 0
0 0 0
0 0 0
0 0 0
0 0 0
0 0 0
0 0 0
0 0 0
0 0 0
0 0 0
0 0 0
0 0 0
0 0 0
0 0 0
0 0 0
0 0 0
0 0 0
0 0 0
0 0 0
0 0 0
0 0 0
0 0 0
0 0 0
0 0 0
0 0 0
0 0 0
0 0 0
0 0 0
0 0 0
0 0 0
0 0 0
0 0 0
0 0 0
0 0 0
0 0 0
0 0 0
0 0 0
0 0 0
0 0 0
0 0 0
0 0 0
0 0 0
0 0 0
0 0 0
0 0 0
0 0 0
0 0 0
0 0 0
0 0 0
0 0 0
0 0 0
11 5 24
8 4 18
10 5 21
9 4 21
8 4 19
10 5 23
12 6 27
10 5 23
10 5 22
9 4 19
9 4 20
10 5 22
10 5 23
7 3 17
10 5 23
12 6 27
9 4 19
10 5 22
7 3 16
7 3 17
10 5 22
9 4 21
11 5 25
10 5 23
9 4 22
8 4 18
9 4 20
13 6 29
12 6 25
8 4 18
11 5 25
11 5 25
9 4 20
10 5 23
12 6 26
9 4 22
13 6 28
8 4 19
10 5 23
10 5 24
11 5 25
14 7 32
9 4 20
11 5 24
12 6 28
10 5 25
11 5 26
12 6 27
13 6 28
11 5 25
11 5 25
16 8 35
12 6 25
13 6 28
12 6 27
13 6 30
11 5 25
11 5 25
13 6 31
12 6 26
11 5 25
14 7 31
13 6 30
13 6 28
13 6 30
13 6 30
13 6 29
15 7 33
14 7 30
14 7 32
12 6 28
10 5 22
0 0 0
0 0 0
0 0 0
0 0 0
0 0 0
0 0 0
0 0 0
0 0 0
0 0 0
0 0 0
0 0 0
0 0 0
0 0 0
0 0 0
0 0 0
0 0 0
0 0 0
0 0 0
0 0 0
0 0 0
0 0 0
0 0 0
0 0 0
0 0 0
0 0 0
0 0 0
0 0 0
0 0 0
0 0 0
0 0 0
0 0 0
0 0 0
0 0 0
0 0 0
0 0 0
0 0 0
44 45 46
41 42 45
87 88 88
122 122 123
159 159 160
161 161 161
165 166 168
125 126 130
167 168 171
150 150 153
143 145 151
126 128 137
41 42 64
43 44 68
16 18 48
57 58 66
0 0 8
0 0 0
0 0 0
0 0 0
0 0 0
0 0 0
0 0 0
0 0 0
0 0 0
0 0 0
0 0 0
0 0 0
0 0 0
0 0 0
0 0 0
0 0 0
0 0 0
0 0 0
0 0 0
0 0 0
0 0 0
0 0 0
0 0 0
0 0 0
0 0 0
0 0 0
0 0 0
0 0 0
0 0 0
0 0 0
0 0 0
0 0 0
0 0 0
0 0 0
0 0 0
0 0 0
0 0 0
0 0 0
0 0 0
0 0 0
0 0 0
0 0 0
0 0 0
0 0 0
0 0 0
0 0 0
0 0 0
0 0 0
0 0 0
0 0 0
0 0 0
0 0 0
0 0 0
0 0 0
0 0 0
0 0 0
0 0 0
0 0 0
0 0 0
0 0 0
77 77 77
92 92 92
116 116 116
116 116 116
98 98 98
109 109 109
168 168 168
181 181 181
198 198 198
202 202 202
190 190 190
169 169 169
138 138 138
131 131 131
104 104 104
63 63 63
0 0 0
0 0 0
0 0 0
0 0 0
0 0 0
0 0 0
0 0 0
0 0 0
0 0 0
0 0 0
0 0 0
0 0 0
0 0 0
0 0 0
0 0 0
0 0 0
0 0 0
0 0 0
0 0 0
0 0 0
0 0 0
0 0 0
0 0 0
0 0 0
0 0 0
0 0 0
0 0 0
0 0 0
0 0 0
0 0 0
0 0 0
0 0 0
0 0 0
0 0 0
0 0 0
0 0 0
0 0 0
0 0 0
0 0 0
0 0 0
0 0 0
0 0 0
0 0 0
0 0 0
0 0 0
0 0 0
0 0 0
0 0 0
0 0 0
0 0 0
0 0 0
0 0 0
0 0 0
0 0 0
0 0 0
0 0 0
0 0 0
0 0 0
0 0 0
0 0 0
0 0 0
0 0 0
0 0 0
0 0 0
0 0 0
0 0 0
255 255 255
255 255 255
255 255 255
255 255 255
255 255 255
255 255 255
255 255 255
255 255 255
255 255 255
255 255 255
255 255 255
255 255 255
255 255 255
255 255 255
255 255 255
255 255 255
255 255 255
255 255 255
255 255 255
255 255 255
255 255 255
255 255 255
255 255 255
255 255 255
255 255 255
255 255 255
255 255 255
255 255 255
255 255 255
255 255 255
255 255 255
255 255 255
255 255 255
255 255 255
255 255 255
255 255 255
255 255 255
228 228 228
0 0 0
0 0 0
0 0 0
0 0 0
0 0 0
0 0 0
0 0 0
0 0 0
0 0 0
0 0 0
0 0 0
0 0 0
0 0 0
0 0 0
0 0 0
0 0 0
0 0 0
0 0 0
0 0 0
0 0 0
0 0 0
0 0 0
0 0 0
0 0 0
0 0 0
0 0 0
0 0 0
0 0 0
0 0 0
0 0 0
0 0 0
0 0 0
0 0 0
0 0 0
0 0 0
0 0 0
0 0 0
0 0 0
0 0 0
0 0 0
0 0 0
0 0 0
0 0 0
0 0 0
0 0 0
0 0 0
0 0 0
0 0 0
0 0 0
0 0 0
0 0 0
0 0 0
0 0 0
0 0 0
0 0 0
0 0 0
0 0 0
0 0 0
0 0 0
0 0 0
0 0 0
0 0 0
0 0 0
0 0 0
0 0 0
0 0 0
0 0 0
0 0 0
0 0 0
0 0 0
0 0 0
0 0 0
0 0 0
0 0 0
0 0 0
0 0 0
0 0 0
0 0 0
0 0 0
0 0 0
0 0 0
0 0 0
0 0 0
0 0 0
0 0 0
0 0 0
0 0 0
0 0 0
0 0 0
0 0 0
0 0 0
0 0 0
0 0 0
0 0 0
0 0 0
0 0 0
6 3 13
10 5 22
10 5 23
9 4 19
5 2 13
9 4 20
8 4 19
9 4 20
12 6 27
8 4 20
8 4 19
9 4 23
9 4 21
10 5 23
9 4 21
8 4 19
13 6 27
9 4 21
10 5 24
10 5 24
8 4 19
10 5 22
11 5 24
10 5 22
9 4 21
11 5 22
11 5 24
10 5 25
10 5 23
13 6 28
11 5 24
13 6 29
10 5 23
9 4 21
9 4 20
12 6 26
13 6 30
11 5 25
13 6 29
11 5 24
10 5 23
12 6 25
11 5 25
12 6 26
10 5 23
10 5 22
10 5 22
12 5 26
8 4 19
12 6 27
10 5 22
12 6 26
11 5 25
11 5 25
14 7 30
14 7 30
12 6 27
13 6 29
14 7 31
12 6 27
12 6 26
13 6 28
12 6 29
13 6 30
14 7 29
13 6 30
11 5 25
12 6 27
13 6 29
15 7 33
13 6 30
7 3 16
0 0 0
0 0 0
0 0 0
0 0 0
0 0 0
0 0 0
0 0 0
0 0 0
0 0 0
0 0 0
0 0 0
0 0 0
0 0 0
0 0 0
0 0 0
0 0 0
0 0 0
0 0 0
0 0 0
0 0 0
0 0 0
0 0 0
0 0 0
0 0 0
0 0 0
0 0 0
0 0 0
0 0 0
0 0 0
0 0 0
0 0 0
0 0 0
0 0 0
11 10 5
21 19 18
36 36 45
27 28 34
86 86 89
151 151 151
140 140 140
123 124 124
127 130 132
34 35 53
13 15 49
3 5 48
0 0 46
0 0 41
0 0 45
0 0 49
7 15 59
30 37 61
28 34 73
50 52 87
24 24 55
26 29 40
11 12 10
0 0 0
0 0 0
0 0 0
0 0 0
0 0 0
0 0 0
0 0 0
0 0 0
0 0 0
0 0 0
0 0 0
0 0 0
0 0 0
0 0 0
0 0 0
0 0 0
0 0 0
0 0 0
0 0 0
0 0 0
0 0 0
0 0 0
0 0 0
0 0 0
0 0 0
0 0 0
0 0 0
0 0 0
0 0 0
0 0 0
0 0 0
0 0 0
0 0 0
0 0 0
0 0 0
0 0 0
0 0 0
0 0 0
0 0 0
0 0 0
0 0 0
0 0 0
0 0 0
0 0 0
0 0 0
0 0 0
0 0 0
0 0 0
0 0 0
0 0 0
0 0 0
0 0 0
0 0 0
75 75 75
91 91 91
124 124 124
148 148 148
168 168 168
178 178 178
145 145 145
112 112 112
114 114 114
96 96 96
129 129 129
137 137 137
130 130 130
145 145 145
125 125 125
80 80 80
119 119 119
144 144 144
165 165 165
149 149 149
127 127 127
72 72 72
0 0 0
0 0 0
0 0 0
0 0 0
0 0 0
0 0 0
0 0 0
0 0 0
0 0 0
0 0 0
0 0 0
0 0 0
0 0 0
0 0 0
0 0 0
0 0 0
0 0 0
0 0 0
0 0 0
0 0 0
0 0 0
0 0 0
0 0 0
0 0 0
0 0 0
0 0 0
0 0 0
0 0 0
0 0 0
0 0 0
0 0 0
0 0 0
0 0 0
0 0 0
0 0 0
0 0 0
0 0 0
0 0 0
0 0 0
0 0 0
0 0 0
0 0 0
0 0 0
0 0 0
0 0 0
0 0 0
0 0 0
0 0 0
0 0 0
0 0 0
0 0 0
0 0 0
0 0 0
0 0 0
0 0 0
0 0 0
0 0 0
0 0 0
0 0 0
0 0 0
0 0 0
0 0 0
0 0 0
255 255 255
255 255 255
255 255 255
255 255 255
255 255 255
255 255 255
255 255 255
255 255 255
255 255 255
255 255 255
255 255 255
255 255 255
255 255 255
255 255 255
255 255 255
255 255 255
255 255 255
255 255 255
255 255 255
255 255 255
255 255 255
255 255 255
255 255 255
255 255 255
255 255 255
255 255 255
255 255 255
255 255 255
255 255 255
255 255 255
255 255 255
255 255 255
255 255 255
255 255 255
255 255 255
255 255 255
255 255 255
231 231 231
0 0 0
0 0 0
0 0 0
0 0 0
0 0 0
0 0 0
0 0 0
0 0 0
0 0 0
0 0 0
0 0 0
0 0 0
0 0 0
0 0 0
0 0 0
0 0 0
0 0 0
0 0 0
0 0 0
0 0 0
0 0 0
0 0 0
0 0 0
0 0 0
0 0 0
0 0 0
0 0 0
0 0 0
0 0 0
0 0 0
0 0 0
0 0 0
0 0 0
0 0 0
0 0 0
0 0 0
0 0 0
0 0 0
0 0 0
0 0 0
0 0 0
0 0 0
0 0 0
0 0 0
0 0 0
0 0 0
0 0 0
0 0 0
0 0 0
0 0 0
0 0 0
0 0 0
0 0 0
0 0 0
0 0 0
0 0 0
0 0 0
0 0 0
0 0 0
0 0 0
0 0 0
0 0 0
0 0 0
0 0 0
0 0 0
0 0 0
0 0 0
0 0 0
0 0 0
0 0 0
0 0 0
0 0 0
0 0 0
0 0 0
0 0 0
0 0 0
0 0 0
0 0 0
0 0 0
0 0 0
0 0 0
0 0 0
0 0 0
0 0 0
0 0 0
0 0 0
0 0 0
0 0 0
0 0 0
0 0 0
0 0 0
0 0 0
0 0 0
0 0 0
0 0 0
0 0 0
6 3 15
10 5 23
11 5 25
8 4 17
9 4 22
7 3 15
9 4 21
8 4 19
11 5 24
9 4 20
10 5 22
11 5 25
8 4 19
12 6 26
11 5 24
8 4 19
10 5 23
10 5 22
10 5 22
8 4 19
10 5 23
11 5 24
8 4 18
11 5 25
10 5 23
10 5 22
11 5 25
10 5 22
12 6 27
11 5 23
10 5 24
11 5 24
9 4 20
10 5 22
11 5 24
10 5 24
12 6 27
11 5 26
14 7 31
12 6 26
10 5 22
12 6 26
11 5 24
9 4 19
11 5 25
15 7 33
11 5 25
7 3 17
11 5 26
12 6 27
11 5 25
15 7 33
12 5 26
13 6 28
9 4 20
13 6 28
12 6 27
12 6 27
14 7 32
11 5 25
13 6 29
12 6 28
13 6 28
11 5 25
12 6 28
13 6 28
14 7 30
14 7 32
14 7 30
14 7 32
14 7 31
9 4 21
0 0 0
0 0 0
0 0 0
0 0 0
0 0 0
0 0 0
0 0 0
0 0 0
0 0 0
0 0 0
0 0 0
0 0 0
0 0 0
0 0 0
0 0 0
0 0 0
0 0 0
0 0 0
0 0 0
0 0 0
0 0 0
0 0 0
0 0 0
0 0 0
0 0 0
0 0 0
0 0 0
0 0 0
0 0 0
0 0 0
0 0 0
1 0 5
13 12 19
31 31 31
4 9 29
37 37 40
99 99 99
116 117 118
80 80 83
72 74 79
28 29 41
32 32 45
36 35 44
4 5 29
0 0 42
0 0 39
0 0 37
0 0 41
0 1 50
46 53 37
42 51 18
33 47 32
38 48 20
33 43 53
35 51 72
55 68 25
39 47 18
23 26 3
0 0 0
0 0 0
0 0 0
0 0 0
0 0 0
0 0 0
0 0 0
0 0 0
0 0 0
0 0 0
0 0 0
0 0 0
0 0 0
0 0 0
0 0 0
0 0 0
0 0 0
0 0 0
0 0 0
0 0 0
0 0 0
0 0 0
0 0 0
0 0 0
0 0 0
0 0 0
0 0 0
0 0 0
0 0 0
0 0 0
0 0 0
0 0 0
0 0 0
0 0 0
0 0 0
0 0 0
0 0 0
0 0 0
0 0 0
0 0 0
0 0 0
0 0 0
0 0 0
0 0 0
0 0 0
0 0 0
0 0 0
0 0 0
21 21 21
106 106 106
119 119 119
102 102 102
129 129 129
141 141 141
136 136 136
128 128 128
123 123 123
131 131 131
144 144 144
141 141 141
153 153 153
101 101 101
90 90 90
147 147 147
152 152 152
116 116 116
105 105 105
115 115 115
126 126 126
143 143 143
114 114 114
116 116 116
136 136 136
113 113 113
99 99 99
27 27 27
0 0 0
0 0 0
0 0 0
0 0 0
0 0 0
0 0 0
0 0 0
0 0 0
0 0 0
0 0 0
0 0 0
0 0 0
0 0 0
0 0 0
0 0 0
0 0 0
0 0 0
0 0 0
0 0 0
0 0 0
0 0 0
0 0 0
0 0 0
0 0 0
0 0 0
0 0 0
0 0 0
0 0 0
0 0 0
0 0 0
0 0 0
0 0 0
0 0 0
0 0 0
0 0 0
0 0 0
0 0 0
0 0 0
0 0 0
0 0 0
0 0 0
0 0 0
0 0 0
0 0 0
0 0 0
0 0 0
0 0 0
0 0 0
0 0 0
0 0 0
0 0 0
0 0 0
0 0 0
0 0 0
0 0 0
0 0 0
0 0 0
0 0 0
0 0 0
0 0 0
255 255 255
255 255 255
255 255 255
255 255 255
255 255 255
255 255 255
255 255 255
255 255 255
255 255 255
255 255 255
255 255 255
255 255 255
255 255 255
255 255 255
255 255 255
255 255 255
255 255 255
255 255 255
255 255 255
255 255 255
255 255 255
255 255 255
255 255 255
255 255 255
255 255 255
255 255 255
255 255 255
255 255 255
255 255 255
255 255 255
255 255 255
255 255 255
255 255 255
255 255 255
255 255 255
255 255 255
255 255 255
220 220 220
0 0 0
0 0 0
0 0 0
0 0 0
0 0 0
0 0 0
0 0 0
0 0 0
0 0 0
0 0 0
0 0 0
0 0 0
0 0 0
0 0 0
0 0 0
0 0 0
0 0 0
0 0 0
0 0 0
0 0 0
0 0 0
0 0 0
0 0 0
0 0 0
0 0 0
0 0 0
0 0 0
0 0 0
0 0 0
0 0 0
0 0 0
0 0 0
0 0 0
0 0 0
0 0 0
0 0 0
0 0 0
0 0 0
0 0 0
0 0 0
0 0 0
0 0 0
0 0 0
0 0 0
0 0 0
0 0 0
0 0 0
0 0 0
0 0 0
0 0 0
0 0 0
0 0 0
0 0 0
0 0 0
0 0 0
0 0 0
0 0 0
0 0 0
0 0 0
0 0 0
0 0 0
0 0 0
0 0 0
0 0 0
0 0 0
0 0 0
0 0 0
0 0 0
0 0 0
0 0 0
0 0 0
0 0 0
0 0 0
0 0 0
0 0 0
0 0 0
0 0 0
0 0 0
0 0 0
0 0 0
0 0 0
0 0 0
0 0 0
0 0 0
0 0 0
0 0 0
0 0 0
0 0 0
0 0 0
0 0 0
0 0 0
0 0 0
0 0 0
0 0 0
0 0 0
0 0 0
8 4 19
9 4 21
10 5 22
7 3 16
8 4 18
9 4 22
10 5 23
7 3 15
10 5 22
11 5 24
11 5 24
9 4 22
9 4 20
10 5 23
9 4 19
12 6 26
10 5 22
10 5 23
10 5 22
10 5 23
6 3 14
10 5 22
9 4 21
11 5 25
11 5 23
7 3 18
10 5 22
11 5 26
8 4 20
11 5 24
8 4 19
12 6 27
9 4 22
11 5 25
10 5 22
12 6 28
8 4 20
12 6 28
11 5 25
13 6 30
12 6 26
13 6 30
10 5 24
7 3 17
11 5 25
11 5 26
12 6 28
11 5 25
12 6 26
11 5 25
14 7 31
7 3 16
12 6 27
12 6 27
12 6 27
14 7 33
13 6 29
13 6 29
13 6 29
11 5 25
13 6 28
12 6 27
11 5 25
13 6 28
13 6 29
11 5 23
14 7 31
13 6 29
13 6 30
13 6 29
13 6 28
10 5 23
0 0 0
0 0 0
0 0 0
0 0 0
0 0 0
0 0 0
0 0 0
0 0 0
0 0 0
0 0 0
0 0 0
0 0 0
0 0 0
0 0 0
0 0 0
0 0 0
0 0 0
0 0 0
0 0 0
0 0 0
0 0 0
0 0 0
0 0 0
0 0 0
0 0 0
0 0 0
0 0 0
0 0 0
0 0 6
4 4 7
22 21 19
13 11 20
8 8 17
0 1 16
56 56 58
86 86 87
46 47 53
3 5 24
0 2 27
0 0 30
0 3 30
14 17 31
40 41 48
0 0 32
2 2 32
2 4 40
0 0 38
0 0 44
45 49 51
46 55 22
31 43 0
15 33 72
31 47 24
27 41 12
23 41 33
31 51 8
34 57 0
40 63 4
31 45 0
15 20 0
0 0 0
0 0 0
0 0 0
0 0 0
0 0 0
0 0 0
0 0 0
0 0 0
0 0 0
0 0 0
0 0 0
0 0 0
0 0 0
0 0 0
0 0 0
0 0 0
0 0 0
0 0 0
0 0 0
0 0 0
0 0 0
0 0 0
0 0 0
0 0 0
0 0 0
0 0 0
0 0 0
0 0 0
0 0 0
0 0 0
0 0 0
0 0 0
0 0 0
0 0 0
0 0 0
0 0 0
0 0 0
0 0 0
0 0 0
0 0 0
0 0 0
0 0 0
0 0 0
0 0 0
15 15 15
79 79 79
135 135 135
108 108 108
91 91 91
132 132 132
131 131 131
137 137 137
98 98 98
72 72 72
58 58 58
95 95 95
116 116 116
113 113 113
99 99 100
66 66 66
114 114 114
168 168 168
178 178 178
172 172 172
171 171 171
150 150 150
119 119 119
130 130 130
130 130 130
119 119 119
96 96 96
101 101 101
120 120 120
147 147 147
116 116 116
24 24 24
0 0 0
0 0 0
0 0 0
0 0 0
0 0 0
0 0 0
0 0 0
0 0 0
0 0 0
0 0 0
0 0 0
0 0 0
0 0 0
0 0 0
0 0 0
0 0 0
0 0 0
0 0 0
0 0 0
0 0 0
0 0 0
0 0 0
0 0 0
0 0 0
0 0 0
0 0 0
0 0 0
0 0 0
0 0 0
0 0 0
0 0 0
0 0 0
0 0 0
0 0 0
0 0 0
0 0 0
0 0 0
0 0 0
0 0 0
0 0 0
0 0 0
0 0 0
0 0 0
0 0 0
0 0 0
0 0 0
0 0 0
0 0 0
0 0 0
0 0 0
0 0 0
0 0 0
0 0 0
0 0 0
0 0 0
0 0 0
0 0 0
0 0 0
255 255 255
255 255 255
255 255 255
255 255 255
255 255 255
255 255 255
255 255 255
255 255 255
255 255 255
255 255 255
255 255 255
255 255 255
255 255 255
255 255 255
255 255 255
255 255 255
255 255 255
255 255 255
255 255 255
255 255 255
255 255 255
255 255 255
255 255 255
255 255 255
255 255 255
255 255 255
255 255 255
255 255 255
255 255 255
255 255 255
255 255 255
255 255 255
255 255 255
255 255 255
255 255 255
255 255 255
255 255 255
198 198 198
0 0 0
0 0 0
0 0 0
0 0 0
0 0 0
0 0 0
0 0 0
0 0 0
0 0 0
0 0 0
0 0 0
0 0 0
0 0 0
0 0 0
0 0 0
0 0 0
0 0 0
0 0 0
0 0 0
0 0 0
0 0 0
0 0 0
0 0 0
0 0 0
0 0 0
0 0 0
0 0 0
0 0 0
0 0 0
0 0 0
0 0 0
0 0 0
0 0 0
0 0 0
0 0 0
0 0 0
0 0 0
0 0 0
0 0 0
0 0 0
0 0 0
0 0 0
0 0 0
0 0 0
0 0 0
0 0 0
0 0 0
0 0 0
0 0 0
0 0 0
0 0 0
0 0 0
0 0 0
0 0 0
0 0 0
0 0 0
0 0 0
0 0 0
0 0 0
0 0 0
0 0 0
0 0 0
0 0 0
0 0 0
0 0 0
0 0 0
0 0 0
0 0 0
0 0 0
0 0 0
0 0 0
0 0 0
0 0 0
0 0 0
0 0 0
0 0 0
0 0 0
0 0 0
0 0 0
0 0 0
0 0 0
0 0 0
0 0 0
0 0 0
0 0 0
0 0 0
0 0 0
0 0 0
0 0 0
0 0 0
0 0 0
0 0 0
0 0 0
0 0 0
0 0 0
0 0 0
7 3 15
7 3 17
8 4 18
11 5 23
12 6 25
8 4 18
13 6 28
8 4 19
10 5 23
11 5 23
12 6 26
8 4 18
9 4 20
11 5 23
9 4 20
9 4 21
10 5 24
9 4 22
9 4 20
9 4 22
12 6 27
9 4 22
12 6 26
11 5 25
10 5 21
10 5 22
11 5 24
9 4 21
10 5 24
12 6 26
11 5 25
10 5 22
12 6 26
9 4 20
8 4 20
11 5 25
10 5 22
10 5 21
12 6 26
9 4 21
10 5 25
10 5 23
11 5 25
12 6 27
13 6 29
12 6 27
11 5 25
11 5 26
11 5 25
9 4 20
13 6 30
12 6 26
11 5 24
12 6 27
10 5 22
13 6 30
12 6 27
13 6 28
13 6 28
13 6 28
13 6 30
11 5 23
14 7 31
13 6 29
12 6 28
12 6 28
11 5 26
11 5 26
13 6 30
15 7 32
13 6 28
11 5 25
0 0 0
0 0 0
0 0 0
0 0 0
0 0 0
0 0 0
0 0 0
0 0 0
0 0 0
0 0 0
0 0 0
0 0 0
0 0 0
0 0 0
0 0 0
0 0 0
0 0 0
0 0 0
0 0 0
0 0 0
0 0 0
0 0 0
0 0 0
0 0 0
0 0 0
0 0 0
0 0 0
0 0 0
5 6 12
5 5 3
12 11 14
0 0 12
0 0 18
0 3 20
8 10 22
0 0 16
0 0 19
0 0 15
0 0 22
0 0 24
0 0 27
0 0 36
0 0 33
0 0 34
0 4 43
19 20 43
1 3 36
0 6 44
32 36 37
30 39 26
20 33 26
26 43 33
9 27 66
22 56 71
30 52 32
33 56 7
32 55 6
37 65 0
40 67 0
44 69 1
32 53 0
11 19 0
0 0 0
0 0 0
0 0 0
0 0 0
0 0 0
0 0 0
0 0 0
0 0 0
0 0 0
0 0 0
0 0 0
0 0 0
0 0 0
0 0 0
0 0 0
0 0 0
0 0 0
0 0 0
0 0 0
0 0 0
0 0 0
0 0 0
0 0 0
0 0 0
0 0 0
0 0 0
0 0 0
0 0 0
0 0 0
0 0 0
0 0 0
0 0 0
0 0 0
0 0 0
0 0 0
0 0 0
0 0 0
0 0 0
0 0 0
0 0 0
0 0 0
24 24 24
69 69 69
70 70 69
71 71 71
68 68 68
136 136 136
163 163 163
171 171 171
130 130 130
75 75 75
88 88 88
141 141 142
151 151 151
151 151 151
163 163 163
139 139 139
111 111 112
71 71 71
125 125 125
179 179 179
219 219 219
215 215 215
198 198 198
179 179 179
186 186 186
154 154 154
117 117 117
80 80 80
82 82 82
125 125 125
136 136 136
150 150 150
159 159 159
76 76 76
0 0 0
0 0 0
0 0 0
0 0 0
0 0 0
0 0 0
0 0 0
0 0 0
0 0 0
0 0 0
0 0 0
0 0 0
0 0 0
0 0 0
0 0 0
0 0 0
0 0 0
0 0 0
0 0 0
0 0 0
0 0 0
0 0 0
0 0 0
0 0 0
0 0 0
0 0 0
0 0 0
0 0 0
0 0 0
0 0 0
0 0 0
0 0 0
0 0 0
0 0 0
0 0 0
0 0 0
0 0 0
0 0 0
0 0 0
0 0 0
0 0 0
0 0 0
0 0 0
0 0 0
0 0 0
0 0 0
0 0 0
0 0 0
0 0 0
0 0 0
0 0 0
0 0 0
0 0 0
0 0 0
0 0 0
0 0 0
0 0 0
255 255 255
255 255 255
255 255 255
255 255 255
255 255 255
255 255 255
255 255 255
255 255 255
255 255 255
255 255 255
255 255 255
255 255 255
255 255 255
255 255 255
255 255 255
255 255 255
255 255 255
255 255 255
255 255 255
255 255 255
255 255 255
255 255 255
255 255 255
255 255 255
255 255 255
255 255 255
255 255 255
255 255 255
255 255 255
255 255 255
255 255 255
255 255 255
255 255 255
255 255 255
255 255 255
255 255 255
255 255 255
181 181 181
0 0 0
0 0 0
0 0 0
0 0 0
0 0 0
0 0 0
0 0 0
0 0 0
0 0 0
0 0 0
0 0 0
0 0 0
0 0 0
0 0 0
0 0 0
0 0 0
0 0 0
0 0 0
0 0 0
0 0 0
0 0 0
0 0 0
0 0 0
0 0 0
0 0 0
0 0 0
0 0 0
0 0 0
0 0 0
0 0 0
0 0 0
0 0 0
0 0 0
0 0 0
0 0 0
0 0 0
0 0 0
0 0 0
0 0 0
0 0 0
0 0 0
0 0 0
0 0 0
0 0 0
0 0 0
0 0 0
0 0 0
0 0 0
0 0 0
0 0 0
0 0 0
0 0 0
0 0 0
0 0 0
0 0 0
0 0 0
0 0 0
0 0 0
0 0 0
0 0 0
0 0 0
0 0 0
0 0 0
0 0 0
0 0 0
0 0 0
0 0 0
0 0 0
0 0 0
0 0 0
0 0 0
0 0 0
0 0 0
0 0 0
0 0 0
0 0 0
0 0 0
0 0 0
0 0 0
0 0 0
0 0 0
0 0 0
0 0 0
0 0 0
0 0 0
0 0 0
0 0 0
0 0 0
0 0 0
0 0 0
0 0 0
0 0 0
0 0 0
0 0 0
0 0 0
0 0 0
7 3 15
10 5 22
9 4 20
9 4 20
9 4 21
10 5 22
8 4 19
10 5 22
11 5 25
10 5 22
8 4 18
10 5 22
9 4 21
9 4 21
11 5 23
9 4 20
9 4 19
10 5 23
10 5 22
11 5 23
11 5 25
9 4 20
10 5 22
9 4 20
11 5 25
10 5 23
11 5 25
10 5 23
11 5 25
10 5 23
11 5 24
10 5 22
11 5 24
11 5 25
11 5 25
12 6 26
12 6 26
11 5 25
8 4 18
12 6 26
11 5 25
9 4 20
11 5 24
10 5 22
11 5 26
12 6 29
12 6 26
11 5 26
12 6 26
10 5 23
14 7 30
10 5 22
11 5 26
13 6 28
11 5 24
13 6 28
11 5 23
11 5 25
10 5 24
14 7 32
13 6 29
10 5 24
13 6 30
13 6 29
14 7 30
12 6 27
13 6 29
14 7 31
11 5 25
15 7 33
15 7 32
7 3 16
0 0 0
0 0 0
0 0 0
0 0 0
0 0 0
0 0 0
0 0 0
0 0 0
0 0 0
0 0 0
0 0 0
0 0 0
0 0 0
0 0 0
0 0 0
0 0 0
0 0 0
0 0 0
0 0 0
0 0 0
0 0 0
0 0 0
0 0 0
0 0 0
0 0 0
0 0 0
4 4 9
0 0 11
8 8 2
13 13 3
3 4 14
0 0 8
0 0 22
0 0 14
0 0 12
0 0 19
0 0 20
0 0 23
0 0 23
0 0 28
0 2 27
0 0 31
0 0 31
0 0 30
5 11 43
25 35 34
29 44 41
5 22 51
0 4 44
14 24 53
25 51 57
20 40 56
8 23 69
25 53 70
42 64 5
36 57 1
41 65 2
45 70 5
49 72 6
64 89 15
62 88 16
55 81 9
38 49 11
0 0 0
0 0 0
0 0 0
0 0 0
0 0 0
0 0 0
0 0 0
0 0 0
0 0 0
0 0 0
0 0 0
0 0 0
0 0 0
0 0 0
0 0 0
0 0 0
0 0 0
0 0 0
0 0 0
0 0 0
0 0 0
0 0 0
0 0 0
0 0 0
0 0 0
0 0 0
0 0 0
0 0 0
0 0 0
0 0 0
0 0 0
0 0 0
0 0 0
0 0 0
0 0 0
0 0 0
0 0 0
0 0 0
12 12 12
57 57 57
79 79 78
74 74 74
96 96 96
112 112 112
127 127 127
149 148 149
146 146 146
138 138 137
116 116 116
91 91 91
68 68 68
79 79 79
69 69 69
84 84 84
118 118 118
132 132 133
132 132 132
94 94 94
78 78 78
94 94 94
159 159 159
196 196 196
186 186 186
177 177 177
155 155 155
142 142 142
126 126 126
62 62 62
115 115 115
168 168 168
209 209 210
206 206 206
166 166 166
100 100 100
78 78 78
23 23 23
0 0 0
0 0 0
0 0 0
0 0 0
0 0 0
0 0 0
0 0 0
0 0 0
0 0 0
0 0 0
0 0 0
0 0 0
0 0 0
0 0 0
0 0 0
0 0 0
0 0 0
0 0 0
0 0 0
0 0 0
0 0 0
0 0 0
0 0 0
0 0 0
0 0 0
0 0 0
0 0 0
0 0 0
0 0 0
0 0 0
0 0 0
0 0 0
0 0 0
0 0 0
0 0 0
0 0 0
0 0 0
0 0 0
0 0 0
0 0 0
0 0 0
0 0 0
0 0 0
0 0 0
0 0 0
0 0 0
0 0 0
0 0 0
0 0 0
0 0 0
0 0 0
0 0 0
0 0 0
0 0 0
0 0 0
255 255 255
255 255 255
255 255 255
255 255 255
255 255 255
255 255 255
255 255 255
255 255 255
255 255 255
255 255 255
255 255 255
255 255 255
255 255 255
255 255 255
255 255 255
255 255 255
255 255 255
255 255 255
255 255 255
255 255 255
255 255 255
255 255 255
255 255 255
255 255 255
255 255 255
255 255 255
255 255 255
255 255 255
255 255 255
255 255 255
255 255 255
255 255 255
255 255 255
255 255 255
255 255 255
255 255 255
255 255 255
157 157 157
0 0 0
0 0 0
0 0 0
0 0 0
0 0 0
0 0 0
0 0 0
0 0 0
0 0 0
0 0 0
0 0 0
0 0 0
0 0 0
0 0 0
0 0 0
0 0 0
0 0 0
0 0 0
0 0 0
0 0 0
0 0 0
0 0 0
0 0 0
0 0 0
0 0 0
0 0 0
0 0 0
0 0 0
0 0 0
0 0 0
0 0 0
0 0 0
0 0 0
0 0 0
0 0 0
0 0 0
0 0 0
0 0 0
0 0 0
0 0 0
0 0 0
0 0 0
0 0 0
0 0 0
0 0 0
0 0 0
0 0 0
0 0 0
0 0 0
0 0 0
0 0 0
0 0 0
0 0 0
0 0 0
0 0 0
0 0 0
0 0 0
0 0 0
0 0 0
0 0 0
0 0 0
0 0 0
0 0 0
0 0 0
0 0 0
0 0 0
0 0 0
0 0 0
0 0 0
0 0 0
0 0 0
0 0 0
0 0 0
0 0 0
0 0 0
0 0 0
0 0 0
0 0 0
0 0 0
0 0 0
0 0 0
0 0 0
0 0 0
0 0 0
0 0 0
0 0 0
0 0 0
0 0 0
0 0 0
0 0 0
0 0 0
0 0 0
0 0 0
0 0 0
0 0 0
0 0 0
7 3 15
8 4 20
10 5 22
8 4 17
9 4 21
9 4 20
9 4 21
9 4 19
9 4 22
8 4 19
11 5 25
7 3 17
9 4 20
7 3 16
11 5 25
7 3 16
10 5 21
9 4 22
10 5 23
7 3 17
10 5 23
13 6 30
10 5 23
9 4 22
10 5 22
9 4 22
10 5 22
11 5 24
9 4 21
6 3 14
9 4 21
15 7 34
9 4 20
11 5 25
9 4 21
9 4 21
9 4 20
11 5 26
9 4 21
11 5 23
12 6 27
11 5 25
13 6 30
11 5 27
11 5 25
12 6 27
8 4 18
12 6 27
13 6 28
11 5 24
9 4 21
13 6 29
13 6 28
13 6 28
11 5 25
12 6 28
15 7 34
11 5 26
11 5 25
13 6 29
13 6 29
10 5 23
13 6 30
13 6 29
11 5 25
14 7 31
12 5 26
13 6 29
13 6 30
14 7 31
13 6 28
7 3 16
0 0 0
0 0 0
0 0 0
0 0 0
0 0 0
0 0 0
0 0 0
0 0 0
0 0 0
0 0 0
0 0 0
0 0 0
0 0 0
0 0 0
0 0 0
0 0 0
0 0 0
0 0 0
0 0 0
0 0 0
0 0 0
0 0 0
0 0 0
0 0 0
4 5 0
5 8 9
2 5 8
5 6 0
1 3 0
4 9 8
0 0 18
0 0 9
0 0 14
0 0 14
0 0 20
0 0 21
0 2 23
0 0 22
0 0 21
0 0 28
0 0 21
0 0 21
0 0 29
0 2 38
22 37 18
16 33 45
24 36 17
44 56 40
16 72 87
28 57 53
42 64 36
42 61 23
37 56 28
54 72 17
51 69 11
50 69 8
49 69 7
51 72 6
68 93 20
62 84 18
72 92 27
75 89 32
95 104 41
90 91 44
19 18 9
0 0 0
0 0 0
0 0 0
0 0 0
0 0 0
0 0 0
0 0 0
0 0 0
0 0 0
0 0 0
0 0 0
0 0 0
0 0 0
0 0 0
0 0 0
0 0 0
0 0 0
0 0 0
0 0 0
0 0 0
0 0 0
0 0 0
0 0 0
0 0 0
0 0 0
0 0 0
0 0 0
0 0 0
0 0 0
0 0 0
0 0 0
0 0 0
0 0 0
0 0 0
0 0 0
21 21 21
63 63 63
71 71 70
53 53 53
90 90 90
113 112 112
133 133 133
148 148 148
113 113 113
133 132 132
140 140 140
146 146 146
122 122 122
109 109 109
98 98 98
77 77 77
63 63 63
53 53 53
67 67 67
50 50 50
81 81 81
57 57 57
50 50 50
90 90 90
116 116 116
142 142 142
136 136 136
107 107 107
97 97 97
87 87 87
78 78 78
60 60 60
140 140 140
206 206 206
237 237 237
250 250 250
206 206 206
101 101 101
76 76 76
16 16 16
0 0 0
0 0 0
0 0 0
0 0 0
0 0 0
0 0 0
0 0 0
0 0 0
0 0 0
0 0 0
0 0 0
0 0 0
0 0 0
0 0 0
0 0 0
0 0 0
0 0 0
0 0 0
0 0 0
0 0 0
0 0 0
0 0 0
0 0 0
0 0 0
0 0 0
0 0 0
0 0 0
0 0 0
0 0 0
0 0 0
0 0 0
0 0 0
0 0 0
0 0 0
0 0 0
0 0 0
0 0 0
0 0 0
0 0 0
0 0 0
0 0 0
0 0 0
0 0 0
0 0 0
0 0 0
0 0 0
0 0 0
0 0 0
0 0 0
0 0 0
0 0 0
0 0 0
0 0 0
0 0 0
255 255 255
255 255 255
255 255 255
255 255 255
255 255 255
255 255 255
255 255 255
255 255 255
255 255 255
255 255 255
255 255 255
255 255 255
255 255 255
255 255 255
255 255 255
255 255 255
255 255 255
255 255 255
255 255 255
255 255 255
255 255 255
255 255 255
255 255 255
255 255 255
255 255 255
255 255 255
255 255 255
255 255 255
255 255 255
255 255 255
255 255 255
255 255 255
255 255 255
255 255 255
255 255 255
255 255 255
255 255 255
153 153 153
0 0 0
0 0 0
0 0 0
0 0 0
0 0 0
0 0 0
0 0 0
0 0 0
0 0 0
0 0 0
0 0 0
0 0 0
0 0 0
0 0 0
0 0 0
0 0 0
0 0 0
0 0 0
0 0 0
0 0 0
0 0 0
0 0 0
0 0 0
0 0 0
0 0 0
0 0 0
0 0 0
0 0 0
0 0 0
0 0 0
0 0 0
0 0 0
0 0 0
0 0 0
0 0 0
0 0 0
0 0 0
0 0 0
0 0 0
0 0 0
0 0 0
0 0 0
0 0 0
0 0 0
0 0 0
0 0 0
0 0 0
0 0 0
0 0 0
0 0 0
0 0 0
0 0 0
0 0 0
0 0 0
0 0 0
0 0 0
0 0 0
0 0 0
0 0 0
0 0 0
0 0 0
0 0 0
0 0 0
0 0 0
0 0 0
0 0 0
0 0 0
0 0 0
0 0 0
0 0 0
0 0 0
0 0 0
0 0 0
0 0 0
0 0 0
0 0 0
0 0 0
0 0 0
0 0 0
0 0 0
0 0 0
0 0 0
0 0 0
0 0 0
0 0 0
0 0 0
0 0 0
0 0 0
0 0 0
0 0 0
0 0 0
0 0 0
0 0 0
0 0 0
0 0 0
0 0 0
4 2 10
10 5 24
8 4 18
8 4 18
9 4 20
10 5 22
10 5 23
11 5 23
8 4 18
10 5 22
9 4 21
12 5 25
7 3 15
9 4 21
9 4 20
9 4 21
9 4 19
8 4 19
10 5 21
11 5 26
11 5 25
11 5 25
10 5 22
11 5 25
9 4 22
13 6 29
11 5 26
10 5 22
9 4 21
9 4 19
11 5 25
10 5 22
10 5 23
11 5 25
11 5 23
11 5 25
13 6 28
13 6 28
12 6 26
9 4 21
11 5 24
12 6 27
11 5 25
8 4 18
10 5 22
13 6 28
11 5 26
9 4 21
10 5 22
8 4 18
14 7 31
13 6 29
12 6 27
14 7 30
12 6 26
11 5 24
11 5 26
15 7 34
13 6 29
10 5 22
13 6 28
14 7 30
11 5 26
13 6 27
14 7 31
15 7 32
13 6 29
12 6 27
11 5 26
13 6 28
15 7 33
9 4 21
0 0 0
0 0 0
0 0 0
0 0 0
0 0 0
0 0 0
0 0 0
0 0 0
0 0 0
0 0 0
0 0 0
0 0 0
0 0 0
0 0 0
0 0 0
0 0 0
0 0 0
0 0 0
0 0 0
0 0 0
0 0 0
0 0 0
0 0 0
2 3 0
1 0 0
1 1 0
1 1 3
0 0 9
3 4 6
0 1 7
0 0 12
0 1 16
0 0 12
0 0 11
0 1 14
0 0 12
0 0 17
0 0 19
0 0 24
0 0 23
0 1 27
0 0 23
0 0 25
0 5 38
0 3 35
2 8 42
18 32 36
27 47 51
47 73 54
45 59 15
49 66 13
40 56 9
42 59 11
44 61 10
51 71 10
50 71 9
57 80 14
61 84 15
58 81 21
67 90 25
72 87 30
103 107 52
124 121 61
140 131 75
153 135 83
40 34 21
0 0 0
0 0 0
0 0 0
0 0 0
0 0 0
0 0 0
0 0 0
0 0 0
0 0 0
0 0 0
0 0 0
0 0 0
0 0 0
0 0 0
0 0 0
0 0 0
0 0 0
0 0 0
0 0 0
0 0 0
0 0 0
0 0 0
0 0 0
0 0 0
0 0 0
0 0 0
0 0 0
0 0 0
0 0 0
0 0 0
0 0 0
0 0 0
0 0 0
32 32 32
83 83 83
100 100 99
72 72 72
71 71 70
59 59 59
99 99 98
114 114 113
132 132 132
121 121 120
113 113 113
126 126 126
131 131 131
122 122 123
130 130 131
125 125 125
126 126 126
122 122 121
101 101 101
90 90 90
60 60 60
79 79 79
84 84 84
51 51 51
67 67 67
54 54 55
112 112 112
139 139 139
111 111 111
110 110 110
90 90 90
51 51 51
53 53 53
92 92 93
152 152 152
207 207 208
225 225 226
220 220 221
166 166 167
90 90 90
90 90 91
36 36 36
0 0 0
0 0 0
0 0 0
0 0 0
0 0 0
0 0 0
0 0 0
0 0 0
0 0 0
0 0 0
0 0 0
0 0 0
0 0 0
0 0 0
0 0 0
0 0 0
0 0 0
0 0 0
0 0 0
0 0 0
0 0 0
0 0 0
0 0 0
0 0 0
0 0 0
0 0 0
0 0 0
0 0 0
0 0 0
0 0 0
0 0 0
0 0 0
0 0 0
0 0 0
0 0 0
0 0 0
0 0 0
0 0 0
0 0 0
0 0 0
0 0 0
0 0 0
0 0 0
0 0 0
0 0 0
0 0 0
0 0 0
0 0 0
0 0 0
0 0 0
0 0 0
0 0 0
0 0 0
255 255 255
255 255 255
255 255 255
255 255 255
255 255 255
255 255 255
255 255 255
255 255 255
255 255 255
255 255 255
255 255 255
255 255 255
255 255 255
255 255 255
255 255 255
255 255 255
255 255 255
255 255 255
255 255 255
255 255 255
255 255 255
255 255 255
255 255 255
255 255 255
255 255 255
255 255 255
255 255 255
255 255 255
255 255 255
255 255 255
255 255 255
255 255 255
255 255 255
255 255 255
255 255 255
255 255 255
255 255 255
117 117 117
0 0 0
0 0 0
0 0 0
0 0 0
0 0 0
0 0 0
0 0 0
0 0 0
0 0 0
0 0 0
0 0 0
0 0 0
0 0 0
0 0 0
0 0 0
0 0 0
0 0 0
0 0 0
0 0 0
0 0 0
0 0 0
0 0 0
0 0 0
0 0 0
0 0 0
0 0 0
0 0 0
0 0 0
0 0 0
0 0 0
0 0 0
0 0 0
0 0 0
0 0 0
0 0 0
0 0 0
0 0 0
0 0 0
0 0 0
0 0 0
0 0 0
0 0 0
0 0 0
0 0 0
0 0 0
0 0 0
0 0 0
0 0 0
0 0 0
0 0 0
0 0 0
0 0 0
0 0 0
0 0 0
0 0 0
0 0 0
0 0 0
0 0 0
0 0 0
0 0 0
0 0 0
0 0 0
0 0 0
0 0 0
0 0 0
0 0 0
0 0 0
0 0 0
0 0 0
0 0 0
0 0 0
0 0 0
0 0 0
0 0 0
0 0 0
0 0 0
0 0 0
0 0 0
0 0 0
0 0 0
0 0 0
0 0 0
0 0 0
0 0 0
0 0 0
0 0 0
0 0 0
0 0 0
0 0 0
0 0 0
0 0 0
0 0 0
0 0 0
0 0 0
0 0 0
0 0 0
4 2 11
7 3 16
8 4 19
7 3 15
13 6 27
9 4 20
8 4 18
9 4 20
9 4 21
8 4 19
8 4 18
9 4 21
9 4 20
11 5 25
9 4 20
11 5 25
13 6 29
7 3 16
8 4 18
10 5 22
11 5 26
9 4 22
11 5 25
10 5 23
9 4 21
11 5 26
12 6 27
9 4 22
10 5 23
8 4 18
10 5 22
10 5 23
13 6 29
12 6 25
12 6 26
10 5 22
10 5 22
10 5 24
11 5 23
9 4 21
11 5 23
12 6 27
8 4 19
11 5 23
11 5 25
9 4 19
11 5 25
14 7 31
9 4 20
13 6 29
11 5 25
12 6 26
10 5 23
11 5 27
12 6 27
13 6 29
11 5 26
12 6 27
13 6 29
11 5 24
13 6 29
13 6 30
13 6 29
12 6 28
11 5 24
13 6 29
11 5 25
12 6 27
14 7 30
11 5 24
11 5 26
7 3 16
0 0 0
0 0 0
0 0 0
0 0 0
0 0 0
0 0 0
0 0 0
0 0 0
0 0 0
0 0 0
0 0 0
0 0 0
0 0 0
0 0 0
0 0 0
0 0 0
0 0 0
0 0 0
0 0 0
0 0 0
0 0 0
0 0 0
1 0 3
1 1 0
2 3 0
0 0 1
0 0 4
0 0 10
4 5 3
0 0 4
0 2 11
0 2 13
0 0 14
0 0 12
0 0 12
0 0 14
0 0 11
0 2 19
0 6 23
0 4 20
0 2 25
0 0 24
0 0 29
0 0 31
0 5 41
0 2 39
22 32 36
42 53 25
50 62 18
45 62 15
39 56 8
50 66 20
48 60 21
45 61 12
60 76 22
58 73 21
47 66 12
63 84 24
67 88 40
75 93 48
62 100 77
87 105 40
142 129 81
156 147 109
227 199 132
217 186 122
71 69 49
0 0 0
0 0 0
0 0 0
0 0 0
0 0 0
0 0 0
0 0 0
0 0 0
0 0 0
0 0 0
0 0 0
0 0 0
0 0 0
0 0 0
0 0 0
0 0 0
0 0 0
0 0 0
0 0 0
0 0 0
0 0 0
0 0 0
0 0 0
0 0 0
0 0 0
0 0 0
0 0 0
0 0 0
0 0 0
0 0 0
0 0 0
34 34 34
100 99 98
121 120 120
88 88 87
83 83 82
62 62 62
57 57 57
94 93 93
110 110 110
91 91 91
49 49 49
81 81 81
103 102 102
106 106 107
107 107 107
117 117 117
119 119 120
131 131 131
118 117 118
118 118 118
110 110 110
101 101 101
80 80 81
81 81 81
80 80 80
92 92 92
68 68 68
67 67 67
125 125 125
151 151 151
157 157 157
109 109 109
71 71 71
69 69 69
127 127 127
140 140 140
178 178 178
204 204 204
203 203 203
193 193 193
166 166 166
117 117 118
93 93 93
43 43 43
0 0 0
0 0 0
0 0 0
0 0 0
0 0 0
0 0 0
0 0 0
0 0 0
0 0 0
0 0 0
0 0 0
0 0 0
0 0 0
0 0 0
0 0 0
0 0 0
0 0 0
0 0 0
0 0 0
0 0 0
0 0 0
0 0 0
0 0 0
0 0 0
0 0 0
0 0 0
0 0 0
0 0 0
0 0 0
0 0 0
0 0 0
0 0 0
0 0 0
0 0 0
0 0 0
0 0 0
0 0 0
0 0 0
0 0 0
0 0 0
0 0 0
0 0 0
0 0 0
0 0 0
0 0 0
0 0 0
0 0 0
0 0 0
0 0 0
0 0 0
0 0 0
0 0 0
255 255 255
255 255 255
255 255 255
255 255 255
255 255 255
255 255 255
255 255 255
255 255 255
255 255 255
255 255 255
255 255 255
255 255 255
255 255 255
255 255 255
255 255 255
255 255 255
255 255 255
255 255 255
255 255 255
255 255 255
255 255 255
255 255 255
255 255 255
255 255 255
255 255 255
255 255 255
255 255 255
255 255 255
255 255 255
255 255 255
255 255 255
255 255 255
255 255 255
255 255 255
255 255 255
255 255 255
255 255 255
111 111 111
0 0 0
0 0 0
0 0 0
0 0 0
0 0 0
0 0 0
0 0 0
0 0 0
0 0 0
0 0 0
0 0 0
0 0 0
0 0 0
0 0 0
0 0 0
0 0 0
0 0 0
0 0 0
0 0 0
0 0 0
0 0 0
0 0 0
0 0 0
0 0 0
0 0 0
0 0 0
0 0 0
0 0 0
0 0 0
0 0 0
0 0 0
0 0 0
0 0 0
0 0 0
0 0 0
0 0 0
0 0 0
0 0 0
0 0 0
0 0 0
0 0 0
0 0 0
0 0 0
0 0 0
0 0 0
0 0 0
0 0 0
0 0 0
0 0 0
0 0 0
0 0 0
0 0 0
0 0 0
0 0 0
0 0 0
0 0 0
0 0 0
0 0 0
0 0 0
0 0 0
0 0 0
0 0 0
0 0 0
0 0 0
0 0 0
0 0 0
0 0 0
0 0 0
0 0 0
0 0 0
0 0 0
0 0 0
0 0 0
0 0 0
0 0 0
0 0 0
0 0 0
0 0 0
0 0 0
0 0 0
0 0 0
0 0 0
0 0 0
0 0 0
0 0 0
0 0 0
0 0 0
0 0 0
0 0 0
0 0 0
0 0 0
0 0 0
0 0 0
0 0 0
0 0 0
0 0 0
5 2 13
10 5 22
11 5 23
9 4 21
10 5 24
10 5 24
10 5 22
8 4 19
8 4 18
11 5 22
10 5 21
9 4 20
10 5 21
8 4 19
9 4 22
8 4 18
7 3 17
11 5 24
11 5 25
8 4 19
11 5 23
7 3 16
10 5 23
12 6 27
10 5 23
8 4 18
12 6 26
7 3 17
10 5 22
8 4 18
12 6 27
9 4 19
10 5 22
12 6 26
13 6 28
12 6 27
12 6 26
9 4 20
8 4 18
11 5 24
9 4 20
10 5 23
12 6 26
10 5 23
11 5 24
10 5 23
12 6 27
12 6 26
10 5 24
12 6 27
12 6 27
14 7 33
15 7 33
12 6 27
13 6 29
15 7 32
11 5 25
14 7 31
14 7 30
13 6 29
12 6 27
12 6 26
12 6 27
12 6 25
14 7 32
13 6 27
12 6 27
13 6 28
15 7 32
14 7 32
13 6 28
9 4 20
0 0 0
0 0 0
0 0 0
0 0 0
0 0 0
0 0 0
0 0 0
0 0 0
0 0 0
0 0 0
0 0 0
0 0 0
0 0 0
0 0 0
0 0 0
0 0 0
0 0 0
0 0 0
0 0 0
0 0 0
0 0 0
1 1 3
6 9 5
1 1 0
3 6 9
3 7 9
0 0 3
0 0 9
0 0 6
0 0 9
0 1 13
0 1 12
0 0 10
0 0 11
0 0 11
0 0 16
0 0 16
0 1 20
0 2 20
0 3 20
0 1 25
0 0 25
0 0 24
0 0 26
0 0 24
0 0 27
0 0 29
23 33 37
39 51 13
40 56 8
44 53 16
55 66 24
40 52 20
33 52 48
49 66 17
55 72 19
56 76 16
61 77 22
75 95 76
27 41 80
38 72 94
47 72 70
90 105 48
98 142 133
190 176 138
255 255 190
255 227 161
55 48 30
0 0 0
0 0 0
0 0 0
0 0 0
0 0 0
0 0 0
0 0 0
0 0 0
0 0 0
0 0 0
0 0 0
0 0 0
0 0 0
0 0 0
0 0 0
0 0 0
0 0 0
0 0 0
0 0 0
0 0 0
0 0 0
0 0 0
0 0 0
0 0 0
0 0 0
0 0 0
0 0 0
0 0 0
0 0 0
14 14 14
74 74 74
141 140 138
127 126 125
123 123 122
104 103 103
68 68 68
72 72 72
109 109 109
103 103 103
59 58 58
32 32 32
49 49 49
46 46 47
57 57 57
89 88 88
108 108 108
128 128 128
138 138 138
150 150 151
136 136 137
142 142 143
143 143 143
138 138 138
104 104 104
83 83 84
69 69 69
74 74 74
114 114 114
142 142 142
156 156 157
161 161 162
116 116 117
52 52 52
85 85 85
135 135 136
143 143 144
156 156 156
180 180 181
199 199 200
190 190 191
174 174 175
160 160 161
108 108 108
67 67 67
38 38 38
0 0 0
0 0 0
0 0 0
0 0 0
0 0 0
0 0 0
0 0 0
0 0 0
0 0 0
0 0 0
0 0 0
0 0 0
0 0 0
0 0 0
0 0 0
0 0 0
0 0 0
0 0 0
0 0 0
0 0 0
0 0 0
0 0 0
0 0 0
0 0 0
0 0 0
0 0 0
0 0 0
0 0 0
0 0 0
0 0 0
0 0 0
0 0 0
0 0 0
0 0 0
0 0 0
0 0 0
0 0 0
0 0 0
0 0 0
0 0 0
0 0 0
0 0 0
0 0 0
0 0 0
0 0 0
0 0 0
0 0 0
0 0 0
0 0 0
0 0 0
0 0 0
255 255 255
255 255 255
255 255 255
255 255 255
255 255 255
255 255 255
255 255 255
255 255 255
255 255 255
255 255 255
255 255 255
255 255 255
255 255 255
255 255 255
255 255 255
255 255 255
255 255 255
255 255 255
255 255 255
255 255 255
255 255 255
255 255 255
255 255 255
255 255 255
255 255 255
255 255 255
255 255 255
255 255 255
255 255 255
255 255 255
255 255 255
255 255 255
255 255 255
255 255 255
255 255 255
255 255 255
255 255 255
62 62 62
0 0 0
0 0 0
0 0 0
0 0 0
0 0 0
0 0 0
0 0 0
0 0 0
0 0 0
0 0 0
0 0 0
0 0 0
0 0 0
0 0 0
0 0 0
0 0 0
0 0 0
0 0 0
0 0 0
0 0 0
0 0 0
0 0 0
0 0 0
0 0 0
0 0 0
0 0 0
0 0 0
0 0 0
0 0 0
0 0 0
0 0 0
0 0 0
0 0 0
0 0 0
0 0 0
0 0 0
0 0 0
0 0 0
0 0 0
0 0 0
0 0 0
0 0 0
0 0 0
0 0 0
0 0 0
0 0 0
0 0 0
0 0 0
0 0 0
0 0 0
0 0 0
0 0 0
0 0 0
0 0 0
0 0 0
0 0 0
0 0 0
0 0 0
0 0 0
0 0 0
0 0 0
0 0 0
0 0 0
0 0 0
0 0 0
0 0 0
0 0 0
0 0 0
0 0 0
0 0 0
0 0 0
0 0 0
0 0 0
0 0 0
0 0 0
0 0 0
0 0 0
0 0 0
0 0 0
0 0 0
0 0 0
0 0 0
0 0 0
0 0 0
0 0 0
0 0 0
0 0 0
0 0 0
0 0 0
0 0 0
0 0 0
0 0 0
0 0 0
0 0 0
0 0 0
0 0 0
5 2 12
9 4 20
9 4 20
9 4 20
8 4 20
8 4 18
9 4 21
11 5 23
10 5 22
8 4 18
9 4 19
9 4 21
11 5 24
9 4 21
11 5 24
11 5 25
9 4 21
13 6 28
11 5 25
10 5 22
10 5 22
10 5 20
9 4 22
8 4 18
11 5 24
10 5 23
10 5 22
11 5 26
11 5 24
10 5 23
12 6 26
9 4 22
11 5 25
10 5 23
11 5 25
8 4 19
11 5 25
7 3 15
11 5 24
12 6 25
12 6 25
11 5 25
11 5 27
10 5 20
10 5 23
13 6 28
12 6 26
13 6 29
10 5 22
13 6 28
15 7 33
8 4 19
11 5 24
9 4 21
8 4 21
14 7 31
13 6 26
10 5 22
11 5 26
13 6 28
12 6 27
13 6 29
11 5 25
13 6 29
11 5 24
10 5 23
13 6 28
12 6 28
12 6 29
12 5 25
11 5 26
11 5 23
0 0 0
0 0 0
0 0 0
0 0 0
0 0 0
0 0 0
0 0 0
0 0 0
0 0 0
0 0 0
0 0 0
0 0 0
0 0 0
0 0 0
0 0 0
0 0 0
0 0 0
0 0 0
0 0 0
0 0 0
7 9 3
7 10 5
8 12 2
1 1 8
0 0 5
0 0 9
0 0 7
0 0 6
0 0 11
0 0 11
0 0 9
0 0 6
0 0 12
0 0 10
0 0 14
0 0 15
0 0 16
0 0 10
0 0 16
0 0 19
0 0 24
0 0 24
0 0 27
0 0 25
12 17 24
38 40 17
51 50 28
59 57 29
50 53 20
41 48 24
19 21 30
9 10 32
31 38 31
56 62 28
48 48 41
35 46 32
52 69 17
65 81 24
67 84 33
21 28 72
15 31 84
30 44 84
26 45 92
66 90 42
74 90 74
225 213 181
255 255 203
204 173 114
34 33 17
0 0 0
0 0 0
0 0 0
0 0 0
0 0 0
0 0 0
0 0 0
0 0 0
0 0 0
0 0 0
0 0 0
0 0 0
0 0 0
0 0 0
0 0 0
0 0 0
0 0 0
0 0 0
0 0 0
0 0 0
0 0 0
0 0 0
0 0 0
0 0 0
0 0 0
0 0 0
0 0 0
29 29 28
59 59 59
129 128 126
137 136 135
156 156 155
138 137 136
105 105 105
55 54 54
85 85 85
113 113 112
90 89 89
51 51 51
65 65 65
61 61 61
42 42 41
49 49 49
70 70 71
104 104 105
126 126 126
147 147 147
149 149 150
157 157 158
156 156 156
157 157 157
152 152 153
137 137 137
110 110 111
118 118 119
111 111 112
146 146 146
176 176 177
187 187 187
180 180 182
105 105 106
79 79 79
72 72 72
109 109 109
119 119 120
128 128 128
130 130 131
146 146 147
157 157 157
144 144 145
153 153 153
151 151 152
84 84 85
77 77 78
40 40 40
0 0 0
0 0 0
0 0 0
0 0 0
0 0 0
0 0 0
0 0 0
0 0 0
0 0 0
0 0 0
0 0 0
0 0 0
0 0 0
0 0 0
0 0 0
0 0 0
0 0 0
0 0 0
0 0 0
0 0 0
0 0 0
0 0 0
0 0 0
0 0 0
0 0 0
0 0 0
0 0 0
0 0 0
0 0 0
0 0 0
0 0 0
0 0 0
0 0 0
0 0 0
0 0 0
0 0 0
0 0 0
0 0 0
0 0 0
0 0 0
0 0 0
0 0 0
0 0 0
0 0 0
0 0 0
0 0 0
0 0 0
0 0 0
0 0 0
0 0 0
255 255 255
255 255 255
255 255 255
255 255 255
255 255 255
255 255 255
255 255 255
255 255 255
255 255 255
255 255 255
255 255 255
255 255 255
255 255 255
255 255 255
255 255 255
255 255 255
255 255 255
255 255 255
255 255 255
255 255 255
255 255 255
255 255 255
255 255 255
255 255 255
255 255 255
255 255 255
255 255 255
255 255 255
255 255 255
255 255 255
255 255 255
255 255 255
255 255 255
255 255 255
255 255 255
255 255 255
255 255 255
0 0 0
0 0 0
0 0 0
0 0 0
0 0 0
0 0 0
0 0 0
0 0 0
0 0 0
0 0 0
0 0 0
0 0 0
0 0 0
0 0 0
0 0 0
0 0 0
0 0 0
0 0 0
0 0 0
0 0 0
0 0 0
0 0 0
0 0 0
0 0 0
0 0 0
0 0 0
0 0 0
0 0 0
0 0 0
0 0 0
0 0 0
0 0 0
0 0 0
0 0 0
0 0 0
0 0 0
0 0 0
0 0 0
0 0 0
0 0 0
0 0 0
0 0 0
0 0 0
0 0 0
0 0 0
0 0 0
0 0 0
0 0 0
0 0 0
0 0 0
0 0 0
0 0 0
0 0 0
0 0 0
0 0 0
0 0 0
0 0 0
0 0 0
0 0 0
0 0 0
0 0 0
0 0 0
0 0 0
0 0 0
0 0 0
0 0 0
0 0 0
0 0 0
0 0 0
0 0 0
0 0 0
0 0 0
0 0 0
0 0 0
0 0 0
0 0 0
0 0 0
0 0 0
0 0 0
0 0 0
0 0 0
0 0 0
0 0 0
0 0 0
0 0 0
0 0 0
0 0 0
0 0 0
0 0 0
0 0 0
0 0 0
0 0 0
0 0 0
0 0 0
0 0 0
0 0 0
0 0 0
5 2 13
9 4 20
8 4 18
7 3 17
9 4 19
10 5 22
7 3 17
9 4 21
10 5 22
11 5 24
9 4 20
10 5 22
11 5 24
11 5 23
7 3 17
7 3 17
9 4 20
9 4 22
12 6 26
10 5 22
9 4 22
12 6 26
11 5 24
9 4 21
10 5 24
10 5 21
9 4 20
10 5 24
11 5 25
10 5 24
10 5 23
11 5 24
11 5 25
11 5 24
12 6 25
10 5 22
11 5 26
10 5 24
13 6 28
9 4 19
8 4 18
12 6 26
10 5 22
9 4 22
12 6 27
7 3 18
11 5 26
10 5 23
14 7 31
11 5 25
13 6 28
12 6 26
10 5 23
14 7 32
10 5 23
11 5 25
10 5 23
13 6 29
13 6 30
13 6 29
13 6 28
13 6 30
11 5 24
13 6 27
11 5 25
12 6 26
13 6 29
16 8 34
12 6 26
13 6 29
14 7 30
10 5 22
0 0 0
0 0 0
0 0 0
0 0 0
0 0 0
0 0 0
0 0 0
0 0 0
0 0 0
0 0 0
0 0 0
0 0 0
0 0 0
0 0 0
0 0 0
0 0 0
0 0 0
0 0 0
0 0 0
1 1 0
2 2 1
6 9 5
0 0 10
0 0 6
0 0 7
0 0 9
0 0 9
0 0 9
0 0 8
0 0 6
0 0 6
0 0 9
0 0 6
0 0 10
0 0 7
0 0 8
0 0 11
0 0 14
0 0 13
0 0 17
0 0 21
0 0 21
0 0 19
0 0 18
18 19 29
43 41 17
71 65 34
75 65 35
59 53 34
19 19 31
5 4 30
0 0 31
51 48 38
8 8 36
36 36 32
53 51 40
39 44 33
63 71 32
36 39 42
62 73 51
103 104 52
143 131 76
114 107 57
117 114 52
132 131 65
116 111 95
245 216 179
255 245 177
197 174 114
21 17 14
0 0 0
0 0 0
0 0 0
0 0 0
0 0 0
0 0 0
0 0 0
0 0 0
0 0 0
0 0 0
0 0 0
0 0 0
0 0 0
0 0 0
0 0 0
0 0 0
0 0 0
0 0 0
0 0 0
0 0 0
0 0 0
0 0 0
0 0 0
0 0 0
0 0 0
7 7 7
42 42 42
99 98 97
118 117 115
126 125 123
138 138 136
119 119 119
74 74 73
43 42 42
84 84 83
76 76 76
47 47 46
58 57 57
80 80 80
65 65 65
79 79 79
79 78 78
67 67 68
115 115 116
120 120 120
158 158 158
166 166 168
172 172 173
155 155 156
162 162 162
181 181 182
174 174 176
165 165 166
171 171 173
150 150 152
161 161 163
183 183 183
186 186 187
178 178 179
128 128 129
81 81 81
51 51 51
97 97 97
97 97 98
101 101 101
88 88 88
84 84 84
95 95 95
89 89 90
96 96 96
149 149 149
115 115 116
92 92 92
114 114 114
16 16 16
0 0 0
0 0 0
0 0 0
0 0 0
0 0 0
0 0 0
0 0 0
0 0 0
0 0 0
0 0 0
0 0 0
0 0 0
0 0 0
0 0 0
0 0 0
0 0 0
0 0 0
0 0 0
0 0 0
0 0 0
0 0 0
0 0 0
0 0 0
0 0 0
0 0 0
0 0 0
0 0 0
0 0 0
0 0 0
0 0 0
0 0 0
0 0 0
0 0 0
0 0 0
0 0 0
0 0 0
0 0 0
0 0 0
0 0 0
0 0 0
0 0 0
0 0 0
0 0 0
0 0 0
0 0 0
0 0 0
0 0 0
0 0 0
0 0 0
255 255 255
255 255 255
255 255 255
255 255 255
255 255 255
255 255 255
255 255 255
255 255 255
255 255 255
255 255 255
255 255 255
255 255 255
255 255 255
255 255 255
255 255 255
255 255 255
255 255 255
255 255 255
255 255 255
255 255 255
255 255 255
255 255 255
255 255 255
255 255 255
255 255 255
255 255 255
255 255 255
255 255 255
255 255 255
255 255 255
255 255 255
255 255 255
255 255 255
255 255 255
255 255 255
255 255 255
255 255 255
0 0 0
0 0 0
0 0 0
0 0 0
0 0 0
0 0 0
0 0 0
0 0 0
0 0 0
0 0 0
0 0 0
0 0 0
0 0 0
0 0 0
0 0 0
0 0 0
0 0 0
0 0 0
0 0 0
0 0 0
0 0 0
0 0 0
0 0 0
0 0 0
0 0 0
0 0 0
0 0 0
0 0 0
0 0 0
0 0 0
0 0 0
0 0 0
0 0 0
0 0 0
0 0 0
0 0 0
0 0 0
0 0 0
0 0 0
0 0 0
0 0 0
0 0 0
0 0 0
0 0 0
0 0 0
0 0 0
0 0 0
0 0 0
0 0 0
0 0 0
0 0 0
0 0 0
0 0 0
0 0 0
0 0 0
0 0 0
0 0 0
0 0 0
0 0 0
0 0 0
0 0 0
0 0 0
0 0 0
0 0 0
0 0 0
0 0 0
0 0 0
0 0 0
0 0 0
0 0 0
0 0 0
0 0 0
0 0 0
0 0 0
0 0 0
0 0 0
0 0 0
0 0 0
0 0 0
0 0 0
0 0 0
0 0 0
0 0 0
0 0 0
0 0 0
0 0 0
0 0 0
0 0 0
0 0 0
0 0 0
0 0 0
0 0 0
0 0 0
0 0 0
0 0 0
0 0 0
0 0 0
6 3 15
8 4 18
11 5 26
10 5 23
10 5 24
10 5 23
9 4 20
10 5 22
9 4 22
8 4 19
10 5 23
9 4 20
13 6 27
12 6 26
10 5 23
9 4 19
10 5 24
13 6 28
8 4 18
8 4 19
11 5 25
9 4 18
9 4 23
8 4 17
13 6 29
11 5 23
10 5 23
11 5 24
11 5 25
11 5 23
11 5 25
12 6 26
11 5 25
11 5 27
10 5 24
10 5 24
9 4 20
10 5 22
11 5 23
12 6 28
10 5 23
12 6 27
12 6 27
10 5 24
13 6 28
12 6 27
11 5 24
9 4 21
11 5 25
11 5 25
13 6 29
10 5 22
11 5 24
11 5 25
9 4 21
10 5 23
12 6 27
13 6 29
12 6 26
13 6 29
12 6 27
10 5 24
9 4 21
15 7 34
11 5 26
12 6 27
14 7 31
15 7 33
13 6 31
13 6 28
13 6 30
11 5 24
0 0 0
0 0 0
0 0 0
0 0 0
0 0 0
0 0 0
0 0 0
0 0 0
0 0 0
0 0 0
0 0 0
0 0 0
0 0 0
0 0 0
0 0 0
0 0 0
0 0 0
0 0 0
5 7 1
2 1 0
5 10 15
0 0 10
0 0 7
0 0 9
0 0 8
0 0 6
0 0 6
0 0 4
0 0 7
0 0 6
0 0 8
0 0 3
0 0 6
0 0 6
0 0 10
0 0 9
0 0 14
0 0 6
0 0 12
0 0 15
0 0 21
0 0 19
0 0 22
0 0 21
27 27 25
60 52 26
60 52 28
84 69 44
52 46 35
1 1 26
0 0 33
1 0 32
16 15 32
14 13 34
37 37 32
43 43 36
0 0 36
38 42 39
45 45 40
41 40 46
123 115 65
179 159 97
164 143 85
147 132 76
150 134 79
188 169 109
115 120 134
238 215 165
255 235 164
180 156 109
0 0 0
0 0 0
0 0 0
0 0 0
0 0 0
0 0 0
0 0 0
0 0 0
0 0 0
0 0 0
0 0 0
0 0 0
0 0 0
0 0 0
0 0 0
0 0 0
0 0 0
0 0 0
0 0 0
0 0 0
0 0 0
0 0 0
0 0 0
0 0 0
0 0 0
30 30 30
66 65 64
109 108 106
113 112 111
120 119 117
103 102 100
69 68 68
35 35 34
52 52 52
44 44 44
37 37 36
57 57 57
89 89 89
77 76 76
72 72 72
71 70 70
53 53 53
64 64 64
95 95 95
138 138 140
144 144 147
170 170 171
168 168 169
167 167 167
181 181 182
177 177 179
188 188 189
175 175 176
166 166 167
173 173 175
166 166 167
176 176 178
193 193 194
173 173 173
145 145 146
118 118 119
83 83 83
57 57 58
62 62 62
69 69 69
73 73 73
104 104 105
115 115 116
100 100 101
78 78 79
107 107 108
89 89 90
74 74 74
140 140 140
106 106 106
8 8 9
0 0 0
0 0 0
0 0 0
0 0 0
0 0 0
0 0 0
0 0 0
0 0 0
0 0 0
0 0 0
0 0 0
0 0 0
0 0 0
0 0 0
0 0 0
0 0 0
0 0 0
0 0 0
0 0 0
0 0 0
0 0 0
0 0 0
0 0 0
0 0 0
0 0 0
0 0 0
0 0 0
0 0 0
0 0 0
0 0 0
0 0 0
0 0 0
0 0 0
0 0 0
0 0 0
0 0 0
0 0 0
0 0 0
0 0 0
0 0 0
0 0 0
0 0 0
0 0 0
0 0 0
0 0 0
0 0 0
0 0 0
0 0 0
255 255 255
255 255 255
255 255 255
255 255 255
255 255 255
255 255 255
255 255 255
255 255 255
255 255 255
255 255 255
255 255 255
255 255 255
255 255 255
255 255 255
255 255 255
255 255 255
255 255 255
255 255 255
255 255 255
255 255 255
255 255 255
255 255 255
255 255 255
255 255 255
255 255 255
255 255 255
255 255 255
255 255 255
255 255 255
255 255 255
255 255 255
255 255 255
255 255 255
255 255 255
255 255 255
255 255 255
255 255 255
0 0 0
0 0 0
0 0 0
0 0 0
0 0 0
0 0 0
0 0 0
0 0 0
0 0 0
0 0 0
0 0 0
0 0 0
0 0 0
0 0 0
0 0 0
0 0 0
0 0 0
0 0 0
0 0 0
0 0 0
0 0 0
0 0 0
0 0 0
0 0 0
0 0 0
0 0 0
0 0 0
0 0 0
0 0 0
0 0 0
0 0 0
0 0 0
0 0 0
0 0 0
0 0 0
0 0 0
0 0 0
0 0 0
0 0 0
0 0 0
0 0 0
0 0 0
0 0 0
0 0 0
0 0 0
0 0 0
0 0 0
0 0 0
0 0 0
0 0 0
0 0 0
0 0 0
0 0 0
0 0 0
0 0 0
0 0 0
0 0 0
0 0 0
0 0 0
0 0 0
0 0 0
0 0 0
0 0 0
0 0 0
0 0 0
0 0 0
0 0 0
0 0 0
0 0 0
0 0 0
0 0 0
0 0 0
0 0 0
0 0 0
0 0 0
0 0 0
0 0 0
0 0 0
0 0 0
0 0 0
0 0 0
0 0 0
0 0 0
0 0 0
0 0 0
0 0 0
0 0 0
0 0 0
0 0 0
0 0 0
0 0 0
0 0 0
0 0 0
0 0 0
0 0 0
0 0 0
0 0 0
5 3 13
9 4 21
9 4 20
9 4 20
10 5 22
10 5 22
10 5 22
7 3 19
9 4 20
6 3 14
9 4 21
11 5 24
9 4 21
13 6 27
9 4 21
10 5 23
10 5 21
9 4 20
9 4 20
7 3 17
10 5 23
10 5 22
9 4 20
9 4 20
9 4 21
10 5 23
10 5 22
12 6 26
11 5 26
11 5 26
8 4 18
10 5 23
8 4 18
12 6 26
10 5 23
10 5 22
10 5 24
13 6 28
12 6 26
10 5 23
11 5 25
11 5 24
11 5 26
9 4 22
9 4 21
12 6 26
8 4 18
11 5 25
11 5 24
9 4 20
10 5 23
12 6 27
11 5 26
11 5 25
10 5 23
11 5 25
15 7 32
12 6 25
8 4 19
14 7 30
12 6 27
11 5 24
15 7 32
13 6 30
14 7 31
13 6 30
14 7 33
13 6 29
12 6 26
15 7 33
10 5 23
10 5 23
0 0 0
0 0 0
0 0 0
0 0 0
0 0 0
0 0 0
0 0 0
0 0 0
0 0 0
0 0 0
0 0 0
0 0 0
0 0 0
0 0 0
0 0 0
0 0 0
0 0 0
1 0 0
5 6 0
9 13 2
1 12 15
0 0 8
0 0 4
0 0 7
0 0 3
0 0 9
0 0 8
0 0 7
0 0 8
0 0 6
0 0 8
0 0 6
0 0 6
0 0 7
0 0 8
0 0 11
0 0 11
0 0 10
0 0 13
0 0 9
0 0 11
0 0 16
0 0 17
0 0 18
4 4 26
19 18 28
33 32 26
34 31 37
44 35 34
94 76 55
136 110 77
130 108 73
140 117 79
116 97 73
5 4 36
8 7 37
0 0 42
0 0 40
12 11 42
26 27 47
20 18 42
39 37 53
74 67 56
171 139 97
255 236 167
255 223 154
224 186 127
255 212 152
255 239 182
255 223 157
112 103 69
0 0 0
0 0 0
0 0 0
0 0 0
0 0 0
0 0 0
0 0 0
0 0 0
0 0 0
0 0 0
0 0 0
0 0 0
0 0 0
0 0 0
0 0 0
0 0 0
0 0 0
0 0 0
0 0 0
0 0 0
0 0 0
0 0 0
0 0 0
26 26 26
39 39 38
89 88 86
95 95 93
85 84 82
68 68 67
55 54 53
33 32 32
35 34 33
34 33 33
45 45 45
62 62 61
92 91 90
90 89 90
78 78 79
63 63 63
66 66 67
54 54 55
32 32 32
74 74 74
97 97 99
107 106 107
144 144 146
151 151 152
167 167 169
142 142 142
169 169 171
161 161 164
161 161 162
162 162 164
164 164 165
182 182 184
178 178 181
196 196 197
182 182 184
172 172 173
137 137 137
118 118 119
97 97 98
66 66 66
46 46 47
92 92 93
124 124 125
153 153 154
138 138 139
123 123 124
73 73 74
76 76 77
76 76 76
94 94 95
134 134 135
68 68 69
0 0 0
0 0 0
0 0 0
0 0 0
0 0 0
0 0 0
0 0 0
0 0 0
0 0 0
0 0 0
0 0 0
0 0 0
0 0 0
0 0 0
0 0 0
0 0 0
0 0 0
0 0 0
0 0 0
0 0 0
0 0 0
0 0 0
0 0 0
0 0 0
0 0 0
0 0 0
0 0 0
0 0 0
0 0 0
0 0 0
0 0 0
0 0 0
0 0 0
0 0 0
0 0 0
0 0 0
0 0 0
0 0 0
0 0 0
0 0 0
0 0 0
0 0 0
0 0 0
0 0 0
0 0 0
0 0 0
0 0 0
0 0 0
255 255 255
255 255 255
255 255 255
255 255 255
255 255 255
255 255 255
255 255 255
255 255 255
255 255 255
255 255 255
255 255 255
255 255 255
255 255 255
255 255 255
255 255 255
255 255 255
255 255 255
255 255 255
255 255 255
255 255 255
255 255 255
255 255 255
255 255 255
255 255 255
255 255 255
255 255 255
255 255 255
255 255 255
255 255 255
255 255 255
255 255 255
255 255 255
255 255 255
255 255 255
255 255 255
255 255 255
255 255 255
0 0 0
0 0 0
0 0 0
0 0 0
0 0 0
0 0 0
0 0 0
0 0 0
0 0 0
0 0 0
0 0 0
0 0 0
0 0 0
0 0 0
0 0 0
0 0 0
0 0 0
0 0 0
0 0 0
0 0 0
0 0 0
0 0 0
0 0 0
0 0 0
0 0 0
0 0 0
0 0 0
0 0 0
0 0 0
0 0 0
0 0 0
0 0 0
0 0 0
0 0 0
0 0 0
0 0 0
0 0 0
0 0 0
0 0 0
0 0 0
0 0 0
0 0 0
0 0 0
0 0 0
0 0 0
0 0 0
0 0 0
0 0 0
0 0 0
0 0 0
0 0 0
0 0 0
0 0 0
0 0 0
0 0 0
0 0 0
0 0 0
0 0 0
0 0 0
0 0 0
0 0 0
0 0 0
0 0 0
0 0 0
0 0 0
0 0 0
0 0 0
0 0 0
0 0 0
0 0 0
0 0 0
0 0 0
0 0 0
0 0 0
0 0 0
0 0 0
0 0 0
0 0 0
0 0 0
0 0 0
0 0 0
0 0 0
0 0 0
0 0 0
0 0 0
0 0 0
0 0 0
0 0 0
0 0 0
0 0 0
0 0 0
0 0 0
0 0 0
0 0 0
0 0 0
0 0 0
0 0 0
6 2 13
10 5 23
7 3 16
7 3 17
11 5 23
9 4 20
8 4 19
10 5 21
9 4 19
11 5 25
11 5 24
9 4 20
8 4 19
10 5 22
10 5 21
7 3 16
10 5 24
12 6 28
8 4 17
9 4 21
11 5 25
10 5 23
11 5 25
10 5 22
10 5 22
9 4 20
11 5 26
11 5 24
11 5 24
9 4 21
9 4 20
10 5 22
12 6 26
13 6 29
11 5 26
9 4 21
7 3 17
10 5 24
12 6 25
10 5 24
10 5 23
9 4 22
11 5 25
12 6 25
10 5 23
9 4 20
11 5 24
9 4 22
10 5 23
11 5 25
12 6 26
13 6 29
12 6 27
12 6 27
13 6 30
11 5 23
11 5 25
13 6 29
13 6 29
12 6 27
13 6 29
10 5 25
14 7 31
12 6 28
14 7 31
12 6 28
11 5 25
11 5 24
12 6 25
14 7 31
16 8 35
7 3 16
0 0 0
0 0 0
0 0 0
0 0 0
0 0 0
0 0 0
0 0 0
0 0 0
0 0 0
0 0 0
0 0 0
0 0 0
0 0 0
0 0 0
0 0 0
0 0 0
0 0 0
6 9 1
10 14 4
0 0 6
0 0 7
0 0 9
0 0 10
0 0 9
0 0 9
0 0 12
0 0 7
0 0 6
0 0 7
0 0 5
0 0 5
0 0 3
0 0 4
0 0 4
0 0 7
0 0 8
0 0 6
0 0 12
0 0 9
0 0 13
0 0 16
0 0 17
0 0 16
0 0 17
14 11 23
60 48 39
80 65 42
125 98 70
126 91 66
168 124 89
144 111 83
166 147 111
206 195 150
157 143 109
43 40 53
21 17 38
0 0 35
0 0 39
10 8 42
9 5 41
0 0 44
0 0 48
13 12 45
126 104 81
255 229 170
255 239 175
255 244 172
236 198 136
255 231 181
255 247 194
239 210 149
35 36 20
0 0 0
0 0 0
0 0 0
0 0 0
0 0 0
0 0 0
0 0 0
0 0 0
0 0 0
0 0 0
0 0 0
0 0 0
0 0 0
0 0 0
0 0 0
0 0 0
0 0 0
0 0 0
0 0 0
0 0 0
0 0 0
13 13 13
56 55 55
42 41 39
75 75 73
76 75 73
64 63 62
48 48 47
23 23 23
41 40 40
59 59 59
64 63 63
72 72 71
86 85 85
81 81 81
96 95 96
82 81 80
63 63 63
63 62 63
50 50 50
33 32 33
62 62 62
104 103 104
104 104 105
95 95 97
109 109 110
112 112 114
140 140 141
126 126 128
110 110 111
109 109 111
122 122 124
134 134 136
175 175 178
196 196 197
197 197 199
191 191 193
201 201 202
178 178 181
164 164 166
146 146 148
108 108 109
70 70 71
101 101 102
151 151 152
184 184 186
193 193 195
174 174 175
141 141 143
97 97 98
66 66 67
117 117 119
142 142 144
130 130 131
29 29 29
0 0 0
0 0 0
0 0 0
0 0 0
0 0 0
0 0 0
0 0 0
0 0 0
0 0 0
0 0 0
0 0 0
0 0 0
0 0 0
0 0 0
0 0 0
0 0 0
0 0 0
0 0 0
0 0 0
0 0 0
0 0 0
0 0 0
0 0 0
0 0 0
0 0 0
0 0 0
0 0 0
0 0 0
0 0 0
0 0 0
0 0 0
0 0 0
0 0 0
0 0 0
0 0 0
0 0 0
0 0 0
0 0 0
0 0 0
0 0 0
0 0 0
0 0 0
0 0 0
0 0 0
0 0 0
0 0 0
0 0 0
255 255 255
255 255 255
255 255 255
255 255 255
255 255 255
255 255 255
255 255 255
255 255 255
255 255 255
255 255 255
255 255 255
255 255 255
255 255 255
255 255 255
255 255 255
255 255 255
255 255 255
255 255 255
255 255 255
255 255 255
255 255 255
255 255 255
255 255 255
255 255 255
255 255 255
255 255 255
255 255 255
255 255 255
255 255 255
255 255 255
255 255 255
255 255 255
255 255 255
255 255 255
255 255 255
255 255 255
255 255 255
0 0 0
0 0 0
0 0 0
0 0 0
0 0 0
0 0 0
0 0 0
0 0 0
0 0 0
0 0 0
0 0 0
0 0 0
0 0 0
0 0 0
0 0 0
0 0 0
0 0 0
0 0 0
0 0 0
0 0 0
0 0 0
0 0 0
0 0 0
0 0 0
0 0 0
0 0 0
0 0 0
0 0 0
0 0 0
0 0 0
0 0 0
0 0 0
0 0 0
0 0 0
0 0 0
0 0 0
0 0 0
0 0 0
0 0 0
0 0 0
0 0 0
0 0 0
0 0 0
0 0 0
0 0 0
0 0 0
0 0 0
0 0 0
0 0 0
0 0 0
0 0 0
0 0 0
0 0 0
0 0 0
0 0 0
0 0 0
0 0 0
0 0 0
0 0 0
0 0 0
0 0 0
0 0 0
0 0 0
0 0 0
0 0 0
0 0 0
0 0 0
0 0 0
0 0 0
0 0 0
0 0 0
0 0 0
0 0 0
0 0 0
0 0 0
0 0 0
0 0 0
0 0 0
0 0 0
0 0 0
0 0 0
0 0 0
0 0 0
0 0 0
0 0 0
0 0 0
0 0 0
0 0 0
0 0 0
0 0 0
0 0 0
0 0 0
0 0 0
0 0 0
0 0 0
0 0 0
0 0 0
8 4 18
10 5 22
9 4 21
8 4 17
9 4 20
7 3 16
8 4 18
10 5 22
9 4 20
9 4 21
8 4 19
9 4 18
7 3 16
12 6 26
12 6 27
9 4 20
10 5 22
10 5 22
10 5 23
8 4 19
9 4 21
10 5 22
8 4 18
10 5 23
10 5 24
7 3 17
9 4 20
12 6 26
12 6 27
12 6 28
11 5 23
11 5 25
13 6 28
9 4 21
9 4 20
12 6 26
9 4 20
12 6 27
10 5 23
12 6 27
12 6 28
13 6 29
10 5 22
11 5 24
12 6 27
13 6 29
11 5 24
7 3 17
12 6 25
9 4 20
13 6 29
12 6 27
11 5 23
13 6 29
11 5 25
12 6 27
12 6 27
9 4 21
13 6 27
12 6 27
13 6 29
10 5 22
13 6 28
13 6 28
9 4 19
13 6 30
14 7 30
12 6 26
13 6 28
16 8 35
15 7 33
10 5 22
0 0 0
0 0 0
0 0 0
0 0 0
0 0 0
0 0 0
0 0 0
0 0 0
0 0 0
0 0 0
0 0 0
0 0 0
0 0 0
0 0 0
0 0 0
0 0 0
8 11 4
7 10 7
0 0 10
0 0 9
0 0 9
0 0 10
0 0 9
0 0 7
0 0 4
0 0 8
0 0 8
0 0 8
0 0 5
0 0 8
0 0 7
0 0 9
0 0 8
0 0 6
0 0 7
0 0 7
0 0 10
0 0 12
0 0 11
0 0 13
0 0 17
0 0 13
0 0 16
0 0 19
55 42 36
88 67 50
93 73 54
130 99 73
149 111 83
140 110 79
181 147 104
189 167 117
199 190 129
186 165 112
194 163 114
198 164 118
136 120 91
66 58 61
176 158 120
203 186 142
199 187 148
135 134 116
72 75 66
178 172 132
255 241 182
255 255 193
255 255 209
255 255 190
255 227 163
255 235 185
255 255 211
198 179 122
0 0 0
0 0 0
0 0 0
0 0 0
0 0 0
0 0 0
0 0 0
0 0 0
0 0 0
0 0 0
0 0 0
0 0 0
0 0 0
0 0 0
0 0 0
0 0 0
0 0 0
0 0 0
0 0 0
0 0 0
0 0 0
62 61 59
47 47 46
49 48 45
73 72 70
64 63 61
52 51 49
28 28 28
56 55 54
65 64 64
67 66 65
85 85 88
90 90 89
96 95 96
94 93 94
97 96 97
89 88 89
80 80 81
69 69 70
36 36 36
48 48 48
71 71 72
102 102 104
81 81 83
75 75 77
87 87 89
99 99 100
109 109 111
72 72 74
72 71 72
86 86 87
109 109 111
144 144 147
179 179 181
195 195 197
216 216 218
200 200 202
206 206 209
198 198 200
179 179 181
149 149 151
101 101 102
72 72 73
100 100 101
151 151 153
195 195 197
199 199 201
211 211 214
200 200 202
166 166 167
136 136 136
161 161 162
176 176 177
170 170 171
123 123 125
0 0 0
0 0 0
0 0 0
0 0 0
0 0 0
0 0 0
0 0 0
0 0 0
0 0 0
0 0 0
0 0 0
0 0 0
0 0 0
0 0 0
0 0 0
0 0 0
0 0 0
0 0 0
0 0 0
0 0 0
0 0 0
0 0 0
0 0 0
0 0 0
0 0 0
0 0 0
0 0 0
0 0 0
0 0 0
0 0 0
0 0 0
0 0 0
0 0 0
0 0 0
0 0 0
0 0 0
0 0 0
0 0 0
0 0 0
0 0 0
0 0 0
0 0 0
0 0 0
0 0 0
0 0 0
0 0 0
0 0 0
255 255 255
255 255 255
255 255 255
255 255 255
255 255 255
255 255 255
255 255 255
255 255 255
255 255 255
255 255 255
255 255 255
255 255 255
255 255 255
255 255 255
255 255 255
255 255 255
255 255 255
255 255 255
255 255 255
255 255 255
255 255 255
255 255 255
255 255 255
255 255 255
255 255 255
255 255 255
255 255 255
255 255 255
255 255 255
255 255 255
255 255 255
255 255 255
255 255 255
255 255 255
255 255 255
255 255 255
255 255 255
0 0 0
0 0 0
0 0 0
0 0 0
0 0 0
0 0 0
0 0 0
0 0 0
0 0 0
0 0 0
0 0 0
0 0 0
0 0 0
0 0 0
0 0 0
0 0 0
0 0 0
0 0 0
0 0 0
0 0 0
0 0 0
0 0 0
0 0 0
0 0 0
0 0 0
0 0 0
0 0 0
0 0 0
0 0 0
0 0 0
0 0 0
0 0 0
0 0 0
0 0 0
0 0 0
0 0 0
0 0 0
0 0 0
0 0 0
0 0 0
0 0 0
0 0 0
0 0 0
0 0 0
0 0 0
0 0 0
0 0 0
0 0 0
0 0 0
0 0 0
0 0 0
0 0 0
0 0 0
0 0 0
0 0 0
0 0 0
0 0 0
0 0 0
0 0 0
0 0 0
0 0 0
0 0 0
0 0 0
0 0 0
0 0 0
0 0 0
0 0 0
0 0 0
0 0 0
0 0 0
0 0 0
0 0 0
0 0 0
0 0 0
0 0 0
0 0 0
0 0 0
0 0 0
0 0 0
0 0 0
0 0 0
0 0 0
0 0 0
0 0 0
0 0 0
0 0 0
0 0 0
0 0 0
0 0 0
0 0 0
0 0 0
0 0 0
0 0 0
0 0 0
0 0 0
0 0 0
0 0 0
5 2 12
9 4 20
10 5 23
9 4 20
10 5 22
10 5 23
11 5 23
10 5 22
12 5 25
8 4 16
8 4 19
11 5 23
9 4 19
10 5 23
9 4 20
10 5 23
8 4 20
12 6 27
9 4 20
8 4 18
11 5 24
10 5 22
11 5 23
11 5 25
11 5 25
8 4 18
11 5 24
11 5 24
10 5 23
12 6 26
10 5 22
10 5 23
12 6 27
11 5 25
9 4 21
10 5 22
13 6 29
12 6 27
11 5 24
11 5 24
9 4 20
13 6 27
11 5 26
10 5 23
13 6 28
11 5 24
13 6 29
10 5 24
13 6 28
10 5 23
10 5 24
9 4 20
13 6 29
11 5 25
12 6 27
12 6 27
13 6 27
12 6 28
11 5 23
14 7 30
13 6 30
14 7 29
13 6 28
14 7 30
13 6 27
13 6 30
14 7 30
15 7 33
16 8 35
14 7 32
13 6 28
10 5 22
0 0 0
0 0 0
0 0 0
0 0 0
0 0 0
0 0 0
0 0 0
0 0 0
0 0 0
0 0 0
0 0 0
0 0 0
0 0 0
0 0 0
0 0 0
0 0 1
0 1 11
6 8 11
0 0 8
0 0 11
0 0 8
0 0 10
0 0 7
0 0 9
0 0 10
0 0 7
0 0 7
0 0 6
0 0 3
0 0 9
0 0 6
0 0 9
0 0 2
0 0 6
0 0 7
0 0 13
0 0 10
0 0 7
0 0 14
0 0 14
0 0 11
0 0 13
4 3 19
0 1 22
84 65 53
101 77 61
127 96 74
147 111 82
155 131 87
160 141 97
147 120 88
156 135 93
200 177 118
182 157 110
201 162 123
233 186 137
227 194 141
216 206 156
233 229 182
220 214 172
255 253 202
254 242 185
249 236 171
247 231 178
255 221 163
255 235 167
255 255 181
255 255 212
207 190 158
255 227 161
238 204 163
255 238 180
116 104 72
0 0 0
0 0 0
0 0 0
0 0 0
0 0 0
0 0 0
0 0 0
0 0 0
0 0 0
0 0 0
0 0 0
0 0 0
0 0 0
0 0 0
0 0 0
0 0 0
0 0 0
0 0 0
0 0 0
26 27 27
50 50 47
23 23 22
54 53 51
63 63 61
47 47 45
40 39 38
53 52 51
73 71 70
71 70 71
82 81 81
98 96 94
115 113 113
97 96 96
93 93 95
83 82 83
81 81 82
81 80 81
49 49 50
38 38 39
60 60 60
81 80 81
92 91 92
82 81 83
66 66 67
46 46 48
50 50 51
40 40 40
36 36 37
38 38 38
48 48 49
98 98 99
139 139 141
166 166 169
165 165 168
179 179 181
186 186 189
183 183 186
183 183 185
169 169 171
137 137 139
120 120 122
109 109 111
125 125 127
154 154 155
191 191 194
215 215 218
245 245 248
250 250 254
219 219 221
212 212 214
222 222 224
221 221 223
217 217 221
192 192 195
61 61 62
0 0 0
0 0 0
0 0 0
0 0 0
0 0 0
0 0 0
0 0 0
0 0 0
0 0 0
0 0 0
0 0 0
0 0 0
0 0 0
0 0 0
0 0 0
0 0 0
0 0 0
0 0 0
0 0 0
0 0 0
0 0 0
0 0 0
0 0 0
0 0 0
0 0 0
0 0 0
0 0 0
0 0 0
0 0 0
0 0 0
0 0 0
0 0 0
0 0 0
0 0 0
0 0 0
0 0 0
0 0 0
0 0 0
0 0 0
0 0 0
0 0 0
0 0 0
0 0 0
0 0 0
0 0 0
0 0 0
255 255 255
255 255 255
255 255 255
255 255 255
255 255 255
255 255 255
255 255 255
255 255 255
255 255 255
255 255 255
255 255 255
255 255 255
255 255 255
255 255 255
255 255 255
255 255 255
255 255 255
255 255 255
255 255 255
255 255 255
255 255 255
255 255 255
255 255 255
255 255 255
255 255 255
255 255 255
255 255 255
255 255 255
255 255 255
255 255 255
255 255 255
255 255 255
255 255 255
255 255 255
255 255 255
255 255 255
255 255 255
0 0 0
0 0 0
0 0 0
0 0 0
0 0 0
0 0 0
0 0 0
0 0 0
0 0 0
0 0 0
0 0 0
0 0 0
0 0 0
0 0 0
0 0 0
0 0 0
0 0 0
0 0 0
0 0 0
0 0 0
0 0 0
0 0 0
0 0 0
0 0 0
0 0 0
0 0 0
0 0 0
0 0 0
0 0 0
0 0 0
0 0 0
0 0 0
0 0 0
0 0 0
0 0 0
0 0 0
0 0 0
0 0 0
0 0 0
0 0 0
0 0 0
0 0 0
0 0 0
0 0 0
0 0 0
0 0 0
0 0 0
0 0 0
0 0 0
0 0 0
0 0 0
0 0 0
0 0 0
0 0 0
0 0 0
0 0 0
0 0 0
0 0 0
0 0 0
0 0 0
0 0 0
0 0 0
0 0 0
0 0 0
0 0 0
0 0 0
0 0 0
0 0 0
0 0 0
0 0 0
0 0 0
0 0 0
0 0 0
0 0 0
0 0 0
0 0 0
0 0 0
0 0 0
0 0 0
0 0 0
0 0 0
0 0 0
0 0 0
0 0 0
0 0 0
0 0 0
0 0 0
0 0 0
0 0 0
0 0 0
0 0 0
0 0 0
0 0 0
0 0 0
0 0 0
0 0 0
0 0 0
5 2 10
9 4 21
9 4 21
9 4 21
11 5 25
12 6 27
11 5 25
11 5 24
10 5 25
5 2 13
8 4 19
14 7 31
10 5 24
11 5 23
7 3 15
9 4 21
10 5 22
9 4 21
10 5 24
9 4 21
11 5 23
9 4 21
13 6 29
7 3 17
12 6 28
11 5 24
10 5 24
11 5 25
8 4 19
13 6 28
11 5 26
12 6 27
10 5 23
12 6 28
12 6 27
10 5 22
9 4 21
11 5 25
11 5 23
11 5 25
11 5 26
13 6 30
8 4 18
13 6 28
11 5 24
12 6 26
11 5 25
13 6 29
10 5 23
8 4 19
13 6 29
9 4 22
13 6 30
13 6 30
13 6 29
12 6 27
11 5 25
9 4 22
14 7 30
13 6 29
13 6 30
12 6 26
12 6 26
11 5 25
11 5 24
15 7 34
13 6 29
13 6 30
12 6 27
12 6 27
13 6 28
10 5 21
0 0 0
0 0 0
0 0 0
0 0 0
0 0 0
0 0 0
0 0 0
0 0 0
0 0 0
0 0 0
0 0 0
0 0 0
0 0 0
0 0 0
0 0 0
0 0 3
5 5 9
1 0 11
0 0 9
0 0 13
0 0 11
0 0 9
0 0 8
0 0 8
0 0 7
0 0 8
0 0 9
0 0 9
0 0 9
0 0 9
0 0 9
0 0 9
0 0 10
0 0 9
0 0 9
0 0 11
0 0 12
0 0 11
0 0 8
0 0 13
0 0 12
7 6 17
43 40 37
72 59 49
124 95 72
125 107 82
146 121 86
143 111 77
159 140 97
141 114 88
149 117 90
157 132 99
194 166 116
190 151 104
184 140 97
208 167 113
212 187 136
192 164 126
226 220 169
244 229 177
255 255 205
252 251 187
255 255 210
255 245 188
151 125 105
246 203 154
255 255 186
255 255 187
255 255 197
190 178 145
204 182 152
255 234 195
229 211 149
0 0 0
0 0 0
0 0 0
0 0 0
0 0 0
0 0 0
0 0 0
0 0 0
0 0 0
0 0 0
0 0 0
0 0 0
0 0 0
0 0 0
0 0 0
0 0 0
0 0 0
0 0 0
0 0 0
53 53 50
37 36 35
34 33 30
64 63 59
72 70 67
61 60 59
59 58 57
69 68 67
71 70 68
89 88 88
85 83 83
93 91 89
98 98 100
90 89 92
86 85 88
74 73 75
77 77 77
48 48 50
34 34 36
52 52 54
67 67 68
82 82 84
84 84 88
76 76 77
60 60 61
25 25 26
46 46 47
71 71 72
94 94 96
67 67 69
42 42 43
83 83 85
127 127 129
148 148 151
160 160 163
165 165 168
179 179 184
169 169 171
170 170 172
158 158 161
144 144 146
118 118 120
106 106 107
150 150 152
185 185 189
187 187 192
213 213 216
223 223 227
235 235 241
247 247 250
240 240 243
255 255 255
229 229 231
255 255 255
229 229 232
132 132 132
0 0 0
0 0 0
0 0 0
0 0 0
0 0 0
0 0 0
0 0 0
0 0 0
0 0 0
0 0 0
0 0 0
0 0 0
0 0 0
0 0 0
0 0 0
0 0 0
0 0 0
0 0 0
0 0 0
0 0 0
0 0 0
0 0 0
0 0 0
0 0 0
0 0 0
0 0 0
0 0 0
0 0 0
0 0 0
0 0 0
0 0 0
0 0 0
0 0 0
0 0 0
0 0 0
0 0 0
0 0 0
0 0 0
0 0 0
0 0 0
0 0 0
0 0 0
0 0 0
0 0 0
0 0 0
0 0 0
255 255 255
255 255 255
255 255 255
255 255 255
255 255 255
255 255 255
255 255 255
255 255 255
255 255 255
255 255 255
255 255 255
255 255 255
255 255 255
255 255 255
255 255 255
255 255 255
255 255 255
255 255 255
255 255 255
255 255 255
255 255 255
255 255 255
255 255 255
255 255 255
255 255 255
255 255 255
255 255 255
255 255 255
255 255 255
255 255 255
255 255 255
255 255 255
255 255 255
255 255 255
255 255 255
255 255 255
255 255 255
0 0 0
0 0 0
0 0 0
0 0 0
0 0 0
0 0 0
0 0 0
0 0 0
0 0 0
0 0 0
0 0 0
0 0 0
0 0 0
0 0 0
0 0 0
0 0 0
0 0 0
0 0 0
0 0 0
0 0 0
0 0 0
0 0 0
0 0 0
0 0 0
0 0 0
0 0 0
0 0 0
0 0 0
0 0 0
0 0 0
0 0 0
0 0 0
0 0 0
0 0 0
0 0 0
0 0 0
0 0 0
0 0 0
0 0 0
0 0 0
0 0 0
0 0 0
0 0 0
0 0 0
0 0 0
0 0 0
0 0 0
0 0 0
0 0 0
0 0 0
0 0 0
0 0 0
0 0 0
0 0 0
0 0 0
0 0 0
0 0 0
0 0 0
0 0 0
0 0 0
0 0 0
0 0 0
0 0 0
0 0 0
0 0 0
0 0 0
0 0 0
0 0 0
0 0 0
0 0 0
0 0 0
0 0 0
0 0 0
0 0 0
0 0 0
0 0 0
0 0 0
0 0 0
0 0 0
0 0 0
0 0 0
0 0 0
0 0 0
0 0 0
0 0 0
0 0 0
0 0 0
0 0 0
0 0 0
0 0 0
0 0 0
0 0 0
0 0 0
0 0 0
0 0 0
0 0 0
0 0 0
3 1 8
10 5 24
9 4 21
10 5 24
5 2 12
11 5 23
9 4 21
10 5 22
7 3 15
11 5 24
10 5 22
10 5 22
9 4 21
11 5 25
11 5 23
11 6 24
11 6 23
12 6 24
10 5 22
10 5 21
13 6 27
9 4 19
7 3 17
10 5 21
10 5 22
10 5 22
11 6 25
11 5 24
9 5 19
12 6 25
10 5 22
9 4 20
9 4 21
12 6 27
12 6 26
10 4 21
9 5 20
10 6 22
15 11 27
10 6 22
18 15 29
19 15 31
14 7 30
11 5 24
11 5 24
11 5 25
13 6 27
9 5 21
23 20 32
20 18 31
35 33 43
23 20 34
20 18 29
9 5 20
32 31 42
39 37 47
40 39 51
27 25 40
32 31 39
51 49 62
11 8 22
14 7 30
15 7 33
14 7 31
12 6 28
16 8 36
13 6 28
15 7 34
14 7 30
12 6 26
11 5 24
10 5 22
0 0 0
0 0 0
0 0 0
0 0 0
0 0 0
0 0 0
0 0 0
0 0 0
0 0 0
0 0 0
0 0 0
0 0 0
0 0 0
0 0 0
0 0 0
0 0 9
8 9 15
0 0 6
0 0 11
0 0 8
0 0 10
0 0 11
0 0 9
0 0 8
0 0 13
0 0 9
0 0 4
0 0 10
0 0 7
0 0 6
0 0 8
0 0 9
0 0 9
0 0 8
0 0 8
0 0 9
0 0 15
0 0 11
0 0 14
0 0 13
0 0 12
25 25 29
88 79 67
99 80 65
132 106 86
111 99 76
115 92 70
135 104 80
143 133 94
139 122 88
172 133 97
144 113 87
168 141 108
137 105 80
185 143 105
199 158 111
205 187 131
230 198 146
234 230 177
251 250 197
248 218 160
255 247 174
255 251 174
255 252 190
235 204 157
118 102 91
196 165 135
255 221 175
255 255 190
255 255 208
149 145 136
144 133 124
165 161 128
91 86 54
0 0 0
0 0 0
0 0 0
0 0 0
0 0 0
0 0 0
0 0 0
0 0 0
0 0 0
0 0 0
0 0 0
0 0 0
0 0 0
0 0 0
0 0 0
0 0 0
0 0 0
21 20 19
57 57 55
32 32 31
59 58 56
74 72 67
66 66 63
64 61 59
55 54 54
69 67 70
85 83 83
83 82 83
99 96 93
94 94 97
89 87 88
89 89 91
64 63 65
72 72 75
68 68 71
36 36 37
24 24 24
52 51 53
68 67 69
63 63 64
66 66 67
35 35 36
37 37 37
48 48 49
75 75 76
113 113 115
117 117 120
95 95 98
52 52 54
67 67 68
107 107 109
120 120 123
131 131 135
141 141 144
168 168 172
176 176 179
186 186 189
167 167 170
138 138 140
116 116 117
97 97 98
144 144 147
192 192 193
207 207 210
212 212 215
211 211 214
216 216 219
236 236 240
244 244 247
255 255 255
255 255 255
255 255 255
231 231 233
210 210 213
37 37 37
0 0 0
0 0 0
0 0 0
0 0 0
0 0 0
0 0 0
0 0 0
0 0 0
0 0 0
0 0 0
0 0 0
0 0 0
0 0 0
0 0 0
0 0 0
0 0 0
0 0 0
0 0 0
0 0 0
0 0 0
0 0 0
0 0 0
0 0 0
0 0 0
0 0 0
0 0 0
0 0 0
0 0 0
0 0 0
0 0 0
0 0 0
0 0 0
0 0 0
0 0 0
0 0 0
0 0 0
0 0 0
0 0 0
0 0 0
0 0 0
0 0 0
0 0 0
0 0 0
0 0 0
0 0 0
255 255 255
255 255 255
255 255 255
255 255 255
255 255 255
255 255 255
255 255 255
255 255 255
255 255 255
255 255 255
255 255 255
255 255 255
255 255 255
255 255 255
255 255 255
255 255 255
255 255 255
255 255 255
255 255 255
255 255 255
255 255 255
255 255 255
255 255 255
255 255 255
255 255 255
255 255 255
255 255 255
255 255 255
255 255 255
255 255 255
255 255 255
255 255 255
255 255 255
255 255 255
255 255 255
255 255 255
255 255 255
0 0 0
0 0 0
0 0 0
0 0 0
0 0 0
0 0 0
0 0 0
0 0 0
0 0 0
0 0 0
0 0 0
0 0 0
0 0 0
0 0 0
0 0 0
0 0 0
0 0 0
0 0 0
0 0 0
0 0 0
0 0 0
0 0 0
0 0 0
0 0 0
0 0 0
0 0 0
0 0 0
0 0 0
0 0 0
0 0 0
0 0 0
0 0 0
0 0 0
0 0 0
0 0 0
0 0 0
0 0 0
0 0 0
0 0 0
0 0 0
0 0 0
0 0 0
0 0 0
0 0 0
0 0 0
0 0 0
0 0 0
0 0 0
0 0 0
0 0 0
0 0 0
0 0 0
0 0 0
0 0 0
0 0 0
0 0 0
0 0 0
0 0 0
0 0 0
0 0 0
0 0 0
0 0 0
0 0 0
0 0 0
0 0 0
0 0 0
0 0 0
0 0 0
0 0 0
0 0 0
0 0 0
0 0 0
0 0 0
0 0 0
0 0 0
0 0 0
0 0 0
0 0 0
0 0 0
0 0 0
0 0 0
0 0 0
0 0 0
0 0 0
0 0 0
0 0 0
0 0 0
0 0 0
0 0 0
0 0 0
0 0 0
0 0 0
0 0 0
0 0 0
0 0 0
0 0 0
0 0 0
4 2 10
8 4 19
9 4 20
7 3 17
8 4 18
9 4 22
10 5 22
10 5 23
11 5 23
8 4 16
10 5 24
8 4 20
63 63 68
81 81 90
84 84 89
57 57 67
56 56 61
59 59 67
81 81 90
65 65 69
80 80 87
80 80 86
78 77 85
76 76 83
71 71 83
70 70 77
68 68 80
99 99 111
103 102 109
54 53 69
11 5 25
8 4 19
11 5 23
9 4 21
10 5 22
69 68 78
86 86 96
91 90 96
98 98 107
106 106 119
111 111 123
56 56 61
11 5 26
12 6 27
13 6 28
12 6 27
11 5 24
63 63 70
90 90 97
115 115 126
103 103 113
94 93 101
114 114 120
90 90 99
84 84 95
97 97 107
100 100 112
102 102 111
100 100 112
123 123 133
20 16 34
12 6 28
13 6 28
12 6 26
13 6 29
14 7 31
13 6 28
15 7 34
16 8 36
11 5 24
14 7 31
7 3 16
0 0 0
0 0 0
0 0 0
0 0 0
0 0 0
0 0 0
0 0 0
0 0 0
0 0 0
0 0 0
0 0 0
0 0 0
0 0 0
0 0 0
0 0 2
10 14 12
5 7 10
0 0 9
0 0 9
0 0 11
0 0 12
0 0 7
0 0 10
0 0 8
0 0 10
0 0 6
0 0 8
0 0 6
0 0 9
0 0 5
0 0 9
0 0 8
0 0 5
0 0 8
0 0 7
0 0 10
0 0 12
0 0 14
0 0 13
0 0 14
0 2 21
68 65 58
97 84 67
98 89 76
128 116 97
118 99 81
116 93 70
138 112 79
156 148 109
146 131 96
138 116 84
170 148 112
155 133 104
189 162 126
165 147 111
212 185 125
205 193 129
209 195 147
229 217 162
223 199 141
255 231 162
245 208 146
240 217 151
248 234 169
255 233 178
188 161 131
125 109 101
235 197 161
255 243 191
255 255 219
255 255 234
255 233 176
91 78 88
99 96 66
0 0 0
0 0 0
0 0 0
0 0 0
0 0 0
0 0 0
0 0 0
0 0 0
0 0 0
0 0 0
0 0 0
0 0 0
0 0 0
0 0 0
0 0 0
0 0 0
0 0 0
32 31 31
31 31 30
48 48 47
72 69 67
82 80 78
77 76 73
44 43 41
65 62 57
68 67 67
77 74 73
95 93 93
81 80 81
87 86 86
88 87 89
74 73 76
70 69 72
74 73 75
54 54 56
41 41 42
22 22 23
36 36 37
36 36 37
31 31 32
30 30 32
53 53 55
57 57 58
78 78 80
81 81 82
101 101 102
113 113 115
98 98 100
69 69 71
56 56 59
50 50 51
60 60 61
109 109 111
137 137 140
152 152 156
155 155 158
176 176 178
185 185 189
144 144 147
120 120 123
99 99 101
137 137 138
155 155 160
197 197 201
222 222 225
206 206 210
195 195 198
188 188 191
231 231 234
255 255 255
254 254 255
255 255 255
255 255 255
201 201 204
115 115 119
0 0 0
0 0 0
0 0 0
0 0 0
0 0 0
0 0 0
0 0 0
0 0 0
0 0 0
0 0 0
0 0 0
0 0 0
0 0 0
0 0 0
0 0 0
0 0 0
0 0 0
0 0 0
0 0 0
0 0 0
0 0 0
0 0 0
0 0 0
0 0 0
0 0 0
0 0 0
0 0 0
0 0 0
0 0 0
0 0 0
0 0 0
0 0 0
0 0 0
0 0 0
0 0 0
0 0 0
0 0 0
0 0 0
0 0 0
0 0 0
0 0 0
0 0 0
0 0 0
0 0 0
0 0 0
255 255 255
255 255 255
255 255 255
255 255 255
255 255 255
255 255 255
255 255 255
255 255 255
255 255 255
255 255 255
255 255 255
255 255 255
255 255 255
255 255 255
255 255 255
255 255 255
255 255 255
255 255 255
255 255 255
255 255 255
255 255 255
255 255 255
255 255 255
255 255 255
255 255 255
255 255 255
255 255 255
255 255 255
255 255 255
255 255 255
255 255 255
255 255 255
255 255 255
255 255 255
255 255 255
255 255 255
255 255 255
0 0 0
0 0 0
0 0 0
0 0 0
0 0 0
0 0 0
0 0 0
0 0 0
0 0 0
0 0 0
0 0 0
0 0 0
0 0 0
0 0 0
0 0 0
0 0 0
0 0 0
0 0 0
0 0 0
0 0 0
0 0 0
0 0 0
0 0 0
0 0 0
0 0 0
0 0 0
0 0 0
0 0 0
0 0 0
0 0 0
0 0 0
0 0 0
0 0 0
0 0 0
0 0 0
0 0 0
0 0 0
0 0 0
0 0 0
0 0 0
0 0 0
0 0 0
0 0 0
0 0 0
0 0 0
0 0 0
0 0 0
0 0 0
0 0 0
0 0 0
0 0 0
0 0 0
0 0 0
0 0 0
0 0 0
0 0 0
0 0 0
0 0 0
0 0 0
0 0 0
0 0 0
0 0 0
0 0 0
0 0 0
0 0 0
0 0 0
0 0 0
0 0 0
0 0 0
0 0 0
0 0 0
0 0 0
0 0 0
0 0 0
0 0 0
0 0 0
0 0 0
0 0 0
0 0 0
0 0 0
0 0 0
0 0 0
0 0 0
0 0 0
0 0 0
0 0 0
0 0 0
0 0 0
0 0 0
0 0 0
0 0 0
0 0 0
0 0 0
0 0 0
0 0 0
0 0 0
0 0 0
4 2 9
9 4 21
11 5 23
7 3 15
6 3 15
9 4 21
9 4 20
11 5 25
12 5 25
9 4 20
10 5 23
10 5 21
58 58 66
93 92 104
67 67 78
86 86 94
78 78 85
76 76 84
90 90 97
90 90 99
94 93 101
82 82 89
82 82 86
83 82 91
74 74 83
99 98 108
90 90 103
67 67 75
80 80 92
62 61 74
9 5 21
11 5 25
7 3 15
9 4 20
9 5 19
78 78 86
115 115 126
57 57 66
86 86 92
94 93 100
86 86 98
88 88 95
17 13 32
11 5 23
15 7 32
13 6 28
11 5 24
80 80 86
95 95 105
92 92 101
108 108 116
110 109 120
94 93 99
84 84 91
82 82 92
97 97 104
108 108 120
109 108 115
111 111 121
98 97 112
22 20 33
13 6 29
13 6 29
12 6 27
14 7 30
13 6 28
14 7 30
15 7 33
13 6 30
14 7 32
14 7 32
10 5 22
0 0 0
0 0 0
0 0 0
0 0 0
0 0 0
0 0 0
0 0 0
0 0 0
0 0 0
0 0 0
0 0 0
0 0 0
0 0 0
0 0 0
3 6 7
7 10 12
10 14 8
0 0 9
0 0 9
0 0 12
0 0 10
0 0 10
0 0 11
0 0 11
0 0 11
0 0 9
0 0 8
0 0 11
0 0 8
0 0 9
0 0 6
0 0 8
0 0 10
0 0 9
0 0 8
0 0 9
0 0 11
0 0 12
0 0 15
0 0 18
47 48 49
103 92 77
97 80 64
101 93 66
108 94 68
108 88 63
120 84 59
123 89 64
163 145 102
161 152 112
155 138 100
176 159 117
170 149 112
185 164 123
174 165 113
193 166 116
198 160 110
188 172 127
208 178 135
204 173 119
224 185 124
255 224 157
255 246 172
255 255 189
255 231 167
239 205 162
154 133 114
221 193 156
255 241 191
255 255 210
255 255 222
255 255 204
153 152 140
52 56 63
32 31 21
0 0 0
0 0 0
0 0 0
0 0 0
0 0 0
0 0 0
0 0 0
0 0 0
0 0 0
0 0 0
0 0 0
0 0 0
0 0 0
0 0 0
0 0 0
0 0 0
41 41 40
47 46 46
69 67 65
78 77 71
66 65 65
56 54 50
66 65 63
49 47 45
71 69 72
86 85 87
70 68 69
94 92 95
82 79 80
67 66 67
77 75 77
57 56 60
68 67 70
63 63 67
47 46 47
37 37 39
31 30 32
37 37 39
43 42 44
52 52 55
58 58 61
65 65 67
75 75 78
89 89 91
87 87 92
98 98 102
99 99 101
94 94 97
88 88 90
75 75 78
46 46 47
61 61 63
132 132 136
136 136 141
147 147 151
178 178 182
179 179 183
168 168 171
120 120 121
95 95 96
130 130 132
147 147 150
187 187 193
190 190 194
181 181 184
140 140 143
139 139 142
163 163 165
188 188 190
229 229 233
255 255 255
255 255 255
214 214 218
190 190 195
0 0 0
0 0 0
0 0 0
0 0 0
0 0 0
0 0 0
0 0 0
0 0 0
0 0 0
0 0 0
0 0 0
0 0 0
0 0 0
0 0 0
0 0 0
0 0 0
0 0 0
0 0 0
0 0 0
0 0 0
0 0 0
0 0 0
0 0 0
0 0 0
0 0 0
0 0 0
0 0 0
0 0 0
0 0 0
0 0 0
0 0 0
0 0 0
0 0 0
0 0 0
0 0 0
0 0 0
0 0 0
0 0 0
0 0 0
0 0 0
0 0 0
0 0 0
0 0 0
0 0 0
0 0 0
255 255 255
255 255 255
255 255 255
255 255 255
255 255 255
255 255 255
255 255 255
255 255 255
255 255 255
255 255 255
255 255 255
255 255 255
255 255 255
255 255 255
255 255 255
255 255 255
255 255 255
255 255 255
255 255 255
255 255 255
255 255 255
255 255 255
255 255 255
255 255 255
255 255 255
255 255 255
255 255 255
255 255 255
255 255 255
255 255 255
255 255 255
255 255 255
255 255 255
255 255 255
255 255 255
255 255 255
255 255 255
0 0 0
0 0 0
0 0 0
0 0 0
0 0 0
0 0 0
0 0 0
0 0 0
0 0 0
0 0 0
0 0 0
0 0 0
0 0 0
0 0 0
0 0 0
0 0 0
0 0 0
0 0 0
0 0 0
0 0 0
0 0 0
0 0 0
0 0 0
0 0 0
0 0 0
0 0 0
0 0 0
0 0 0
0 0 0
0 0 0
0 0 0
0 0 0
0 0 0
0 0 0
0 0 0
0 0 0
0 0 0
0 0 0
0 0 0
0 0 0
0 0 0
0 0 0
0 0 0
0 0 0
0 0 0
0 0 0
0 0 0
0 0 0
0 0 0
0 0 0
0 0 0
0 0 0
0 0 0
0 0 0
0 0 0
0 0 0
0 0 0
0 0 0
0 0 0
0 0 0
0 0 0
0 0 0
0 0 0
0 0 0
0 0 0
0 0 0
0 0 0
0 0 0
0 0 0
0 0 0
0 0 0
0 0 0
0 0 0
0 0 0
0 0 0
0 0 0
0 0 0
0 0 0
0 0 0
0 0 0
0 0 0
0 0 0
0 0 0
0 0 0
0 0 0
0 0 0
0 0 0
0 0 0
0 0 0
0 0 0
0 0 0
0 0 0
0 0 0
0 0 0
0 0 0
0 0 0
0 0 0
3 1 6
10 5 23
10 5 21
9 4 20
9 4 20
8 4 19
8 4 19
10 5 23
11 5 23
10 5 23
10 5 22
12 6 27
63 62 73
74 74 80
80 80 94
100 100 112
95 95 99
74 74 85
88 88 101
105 105 119
84 84 95
86 86 96
92 92 102
82 82 90
104 103 112
80 80 87
90 90 101
102 102 113
90 90 97
93 93 97
11 6 25
9 4 21
11 5 24
13 6 29
10 5 23
109 109 116
99 98 111
97 97 104
92 92 104
92 92 102
86 86 92
82 82 93
31 30 38
12 6 28
11 5 26
11 5 24
12 6 26
43 42 53
80 80 89
97 97 109
99 99 110
111 111 118
84 84 99
85 84 91
90 90 101
114 114 117
105 105 117
114 114 119
90 90 100
119 119 127
28 25 39
12 6 27
11 5 24
13 6 30
9 4 21
13 6 29
12 6 27
14 7 32
14 7 31
13 6 29
12 6 28
9 4 21
0 0 0
0 0 0
0 0 0
0 0 0
0 0 0
0 0 0
0 0 0
0 0 0
0 0 0
0 0 0
0 0 0
0 0 0
0 0 0
0 0 0
4 10 13
0 0 12
2 3 9
9 12 7
0 0 8
0 0 9
0 0 11
0 0 10
0 0 12
0 0 9
0 0 4
0 0 11
0 0 9
0 0 4
0 0 9
0 0 8
0 0 10
0 0 11
0 0 7
0 0 11
0 0 11
0 0 13
0 0 10
0 0 16
0 2 19
0 9 29
38 41 45
96 86 68
98 83 63
111 107 78
124 115 83
123 108 76
117 109 80
141 135 100
142 136 100
170 154 114
164 139 105
164 146 108
153 140 102
179 154 109
178 171 119
188 179 128
186 174 126
213 190 133
188 164 125
195 160 113
209 178 121
237 203 137
255 255 180
255 238 167
255 235 179
251 218 166
212 182 144
67 60 69
242 207 157
255 255 185
255 255 226
255 255 223
188 191 177
0 4 59
59 53 41
0 0 0
0 0 0
0 0 0
0 0 0
0 0 0
0 0 0
0 0 0
0 0 0
0 0 0
0 0 0
0 0 0
0 0 0
0 0 0
0 0 0
0 0 0
15 15 15
37 36 36
45 45 44
62 62 63
59 58 58
63 62 60
56 53 51
62 59 58
60 58 59
71 68 68
70 69 70
57 56 55
77 74 78
48 47 51
60 60 63
70 70 73
65 64 69
60 59 59
53 52 54
54 55 58
68 69 72
64 63 66
55 55 59
70 69 73
85 85 87
84 84 89
67 67 70
78 78 83
96 96 100
90 90 93
104 104 108
112 112 117
117 117 120
99 99 104
98 98 100
93 93 94
59 59 61
107 107 109
143 143 147
158 158 163
170 170 174
180 180 182
188 188 192
146 146 149
129 129 133
153 153 154
173 173 177
177 177 180
198 198 201
150 150 153
132 132 134
120 120 122
105 105 107
137 137 140
154 154 157
198 198 200
255 255 255
220 220 227
221 221 225
84 84 86
0 0 0
0 0 0
0 0 0
0 0 0
0 0 0
0 0 0
0 0 0
0 0 0
0 0 0
0 0 0
0 0 0
0 0 0
0 0 0
0 0 0
0 0 0
0 0 0
0 0 0
0 0 0
0 0 0
0 0 0
0 0 0
0 0 0
0 0 0
0 0 0
0 0 0
0 0 0
0 0 0
0 0 0
0 0 0
0 0 0
0 0 0
0 0 0
0 0 0
0 0 0
0 0 0
0 0 0
0 0 0
0 0 0
0 0 0
0 0 0
0 0 0
0 0 0
0 0 0
0 0 0
255 255 255
255 255 255
255 255 255
255 255 255
255 255 255
255 255 255
255 255 255
255 255 255
255 255 255
255 255 255
255 255 255
255 255 255
255 255 255
255 255 255
255 255 255
255 255 255
255 255 255
255 255 255
255 255 255
255 255 255
255 255 255
255 255 255
255 255 255
255 255 255
255 255 255
255 255 255
255 255 255
255 255 255
255 255 255
255 255 255
255 255 255
255 255 255
255 255 255
255 255 255
255 255 255
255 255 255
255 255 255
0 0 0
0 0 0
0 0 0
0 0 0
0 0 0
0 0 0
0 0 0
0 0 0
0 0 0
0 0 0
0 0 0
0 0 0
0 0 0
0 0 0
0 0 0
0 0 0
0 0 0
0 0 0
0 0 0
0 0 0
0 0 0
0 0 0
0 0 0
0 0 0
0 0 0
0 0 0
0 0 0
0 0 0
0 0 0
0 0 0
0 0 0
0 0 0
0 0 0
0 0 0
0 0 0
0 0 0
0 0 0
0 0 0
0 0 0
0 0 0
0 0 0
0 0 0
0 0 0
0 0 0
0 0 0
0 0 0
0 0 0
0 0 0
0 0 0
0 0 0
0 0 0
0 0 0
0 0 0
0 0 0
0 0 0
0 0 0
0 0 0
0 0 0
0 0 0
0 0 0
0 0 0
0 0 0
0 0 0
0 0 0
0 0 0
0 0 0
0 0 0
0 0 0
0 0 0
0 0 0
0 0 0
0 0 0
0 0 0
0 0 0
0 0 0
0 0 0
0 0 0
0 0 0
0 0 0
0 0 0
0 0 0
0 0 0
0 0 0
0 0 0
0 0 0
0 0 0
0 0 0
0 0 0
0 0 0
0 0 0
0 0 0
0 0 0
0 0 0
0 0 0
0 0 0
0 0 0
0 0 0
3 1 9
10 5 21
8 4 19
9 4 20
12 6 28
12 6 26
8 4 18
9 4 22
6 3 16
10 5 22
11 5 25
9 4 20
59 59 69
76 76 81
92 92 100
67 67 78
80 80 83
74 74 83
96 96 102
74 74 83
70 69 76
78 78 86
82 82 92
87 87 98
76 76 83
97 97 105
90 90 97
90 90 97
84 84 91
52 51 59
10 5 22
7 3 17
11 5 24
13 6 28
20 19 27
86 86 100
92 91 100
100 100 110
102 102 113
92 92 102
108 108 116
97 97 102
43 42 52
11 5 26
11 5 26
6 3 14
13 6 28
69 68 77
90 90 97
86 86 94
94 93 103
115 115 124
88 88 95
108 108 118
90 90 93
103 103 111
128 127 136
105 105 116
103 103 111
103 103 113
22 20 33
11 5 25
10 5 22
14 7 30
10 5 22
15 7 33
11 5 26
12 6 29
15 7 32
11 5 24
14 7 31
9 4 21
0 0 0
0 0 0
0 0 0
0 0 0
0 0 0
0 0 0
0 0 0
0 0 0
0 0 0
0 0 0
0 0 0
0 0 0
0 0 0
10 15 4
0 0 9
7 10 13
9 11 13
4 5 11
1 1 12
0 0 14
0 0 12
0 0 12
0 0 14
0 0 9
0 0 8
0 0 9
0 0 8
0 0 9
0 0 8
0 0 9
0 0 9
0 0 9
0 0 8
0 0 12
0 0 13
0 0 11
0 0 13
0 0 13
0 1 23
0 7 27
36 40 46
86 73 56
103 89 66
111 94 68
116 112 85
125 122 95
127 127 98
133 133 105
152 144 104
140 123 87
156 128 95
158 142 109
160 142 104
192 153 114
144 126 96
199 199 152
194 194 155
217 217 169
224 212 157
228 200 144
229 189 128
237 200 137
253 242 171
254 228 162
255 219 153
255 215 158
255 230 175
163 140 114
101 86 79
255 226 163
255 255 184
255 255 224
146 137 129
0 0 57
56 48 54
0 0 0
0 0 0
0 0 0
0 0 0
0 0 0
0 0 0
0 0 0
0 0 0
0 0 0
0 0 0
0 0 0
0 0 0
0 0 0
0 0 0
0 0 0
33 31 31
25 24 23
44 44 42
57 55 51
56 55 54
51 49 49
62 59 59
50 48 50
60 59 60
69 67 70
56 55 58
73 71 75
61 59 61
67 66 69
74 72 79
65 64 66
66 65 66
65 64 69
68 68 74
58 57 59
89 88 91
87 87 93
77 77 82
83 83 92
86 86 93
73 73 77
71 71 75
83 83 88
108 108 112
114 114 121
109 109 114
111 111 116
124 124 130
125 125 129
130 130 133
115 115 117
67 67 68
115 115 118
149 149 153
183 183 187
200 199 205
205 205 211
187 187 191
161 161 166
161 161 164
163 163 166
168 168 172
173 173 177
180 180 184
135 135 138
91 91 92
86 86 87
63 63 64
67 67 68
105 105 107
168 168 172
230 230 235
236 236 240
219 219 225
125 125 128
0 0 0
0 0 0
0 0 0
0 0 0
0 0 0
0 0 0
0 0 0
0 0 0
0 0 0
0 0 0
0 0 0
0 0 0
0 0 0
0 0 0
0 0 0
0 0 0
0 0 0
0 0 0
0 0 0
0 0 0
0 0 0
0 0 0
0 0 0
0 0 0
0 0 0
0 0 0
0 0 0
0 0 0
0 0 0
0 0 0
0 0 0
0 0 0
0 0 0
0 0 0
0 0 0
0 0 0
0 0 0
0 0 0
0 0 0
0 0 0
0 0 0
0 0 0
0 0 0
0 0 0
255 255 255
255 255 255
255 255 255
255 255 255
255 255 255
255 255 255
255 255 255
255 255 255
255 255 255
255 255 255
255 255 255
255 255 255
255 255 255
255 255 255
255 255 255
255 255 255
255 255 255
255 255 255
255 255 255
255 255 255
255 255 255
255 255 255
255 255 255
255 255 255
255 255 255
255 255 255
255 255 255
255 255 255
255 255 255
255 255 255
255 255 255
255 255 255
255 255 255
255 255 255
255 255 255
255 255 255
255 255 255
0 0 0
0 0 0
0 0 0
0 0 0
0 0 0
0 0 0
0 0 0
0 0 0
0 0 0
0 0 0
0 0 0
0 0 0
0 0 0
0 0 0
0 0 0
0 0 0
0 0 0
0 0 0
0 0 0
0 0 0
0 0 0
0 0 0
0 0 0
0 0 0
0 0 0
0 0 0
0 0 0
0 0 0
0 0 0
0 0 0
0 0 0
0 0 0
0 0 0
0 0 0
0 0 0
0 0 0
0 0 0
0 0 0
0 0 0
0 0 0
0 0 0
0 0 0
0 0 0
0 0 0
0 0 0
0 0 0
0 0 0
0 0 0
0 0 0
0 0 0
0 0 0
0 0 0
0 0 0
0 0 0
0 0 0
0 0 0
0 0 0
0 0 0
0 0 0
0 0 0
0 0 0
0 0 0
0 0 0
0 0 0
0 0 0
0 0 0
0 0 0
0 0 0
0 0 0
0 0 0
0 0 0
0 0 0
0 0 0
0 0 0
0 0 0
0 0 0
0 0 0
0 0 0
0 0 0
0 0 0
0 0 0
0 0 0
0 0 0
0 0 0
0 0 0
0 0 0
0 0 0
0 0 0
0 0 0
0 0 0
0 0 0
0 0 0
0 0 0
0 0 0
0 0 0
0 0 0
0 0 0
4 2 11
11 5 26
10 5 21
9 4 21
9 4 21
11 5 24
11 5 26
7 3 17
9 4 20
10 5 22
8 4 18
9 4 21
46 46 55
88 88 99
62 62 68
78 78 89
78 78 89
78 78 86
86 86 98
74 74 87
54 54 59
67 67 75
78 78 84
82 82 90
95 95 105
76 76 83
94 93 102
94 93 106
78 78 87
74 73 77
10 5 21
10 5 22
11 5 26
11 5 25
83 83 90
108 108 117
99 99 108
94 93 103
104 104 117
78 78 89
100 100 110
102 102 115
82 82 92
12 6 27
13 6 29
13 6 30
11 5 25
61 60 68
88 88 99
95 95 108
105 105 112
105 105 118
110 109 115
90 90 95
100 100 107
97 97 105
72 72 79
110 110 118
125 125 134
76 76 86
24 21 33
11 5 26
12 6 27
15 7 32
11 5 25
13 6 28
13 6 29
13 6 31
13 6 29
11 5 24
14 7 32
11 5 24
0 0 0
0 0 0
0 0 0
0 0 0
0 0 0
0 0 0
0 0 0
0 0 0
0 0 0
0 0 0
0 0 0
0 0 0
0 0 0
10 14 6
2 3 13
0 0 15
0 0 8
0 0 9
0 0 12
1 2 14
0 0 10
0 0 10
0 0 13
0 0 9
0 0 10
0 0 10
0 0 9
0 0 9
0 0 11
0 0 10
0 0 9
0 0 12
0 0 5
0 0 8
0 0 9
2 2 11
0 0 18
0 0 14
0 1 16
0 3 23
23 34 42
97 74 55
66 52 39
75 60 44
100 85 64
86 76 54
112 97 73
133 121 88
132 114 81
149 123 89
146 116 82
145 120 86
152 125 91
162 124 95
190 174 127
187 186 147
194 194 162
207 206 164
200 199 166
220 217 171
228 200 141
224 191 134
238 205 136
255 234 161
255 214 151
255 199 139
226 186 138
214 184 129
73 65 84
196 166 122
255 239 179
255 220 169
0 0 55
0 0 55
38 36 56
9 10 3
0 0 0
0 0 0
0 0 0
0 0 0
0 0 0
0 0 0
0 0 0
0 0 0
0 0 0
0 0 0
0 0 0
0 0 0
0 0 0
0 0 0
30 29 29
26 25 24
47 44 44
55 53 56
45 45 47
45 44 44
36 35 38
50 48 47
56 54 58
63 61 63
74 71 75
64 61 67
70 68 74
70 68 73
68 66 70
60 58 61
76 76 84
73 73 78
69 67 72
74 74 81
83 83 90
98 97 104
77 77 86
94 94 102
86 86 93
83 82 86
92 92 97
100 99 105
115 115 121
136 136 144
123 123 131
119 119 124
132 132 138
142 142 148
136 136 143
126 126 130
78 78 81
82 82 85
127 127 133
160 160 163
172 172 178
193 193 199
180 180 183
163 163 167
170 170 176
169 169 174
181 181 185
169 169 173
162 162 166
143 143 147
98 98 100
47 47 48
56 56 57
73 73 75
71 71 72
153 153 157
211 211 216
220 220 225
205 205 209
155 155 160
0 0 0
0 0 0
0 0 0
0 0 0
0 0 0
0 0 0
0 0 0
0 0 0
0 0 0
0 0 0
0 0 0
0 0 0
0 0 0
0 0 0
0 0 0
0 0 0
0 0 0
0 0 0
0 0 0
0 0 0
0 0 0
0 0 0
0 0 0
0 0 0
0 0 0
0 0 0
0 0 0
0 0 0
0 0 0
0 0 0
0 0 0
0 0 0
0 0 0
0 0 0
0 0 0
0 0 0
0 0 0
0 0 0
0 0 0
0 0 0
0 0 0
0 0 0
0 0 0
0 0 0
255 255 255
255 255 255
255 255 255
255 255 255
255 255 255
255 255 255
255 255 255
255 255 255
255 255 255
255 255 255
255 255 255
255 255 255
255 255 255
255 255 255
255 255 255
255 255 255
255 255 255
255 255 255
255 255 255
255 255 255
255 255 255
255 255 255
255 255 255
255 255 255
255 255 255
255 255 255
255 255 255
255 255 255
255 255 255
255 255 255
255 255 255
255 255 255
255 255 255
255 255 255
255 255 255
255 255 255
255 255 255
0 0 0
0 0 0
0 0 0
0 0 0
0 0 0
0 0 0
0 0 0
0 0 0
0 0 0
0 0 0
0 0 0
0 0 0
0 0 0
0 0 0
0 0 0
0 0 0
0 0 0
0 0 0
0 0 0
0 0 0
0 0 0
0 0 0
0 0 0
0 0 0
0 0 0
0 0 0
0 0 0
0 0 0
0 0 0
0 0 0
0 0 0
0 0 0
0 0 0
0 0 0
0 0 0
0 0 0
0 0 0
0 0 0
0 0 0
0 0 0
0 0 0
0 0 0
0 0 0
0 0 0
0 0 0
0 0 0
0 0 0
0 0 0
0 0 0
0 0 0
0 0 0
0 0 0
0 0 0
0 0 0
0 0 0
0 0 0
0 0 0
0 0 0
0 0 0
0 0 0
0 0 0
0 0 0
0 0 0
0 0 0
0 0 0
0 0 0
0 0 0
0 0 0
0 0 0
0 0 0
0 0 0
0 0 0
0 0 0
0 0 0
0 0 0
0 0 0
0 0 0
0 0 0
0 0 0
0 0 0
0 0 0
0 0 0
0 0 0
0 0 0
0 0 0
0 0 0
0 0 0
0 0 0
0 0 0
0 0 0
0 0 0
0 0 0
0 0 0
0 0 0
0 0 0
0 0 0
0 0 0
5 2 12
8 4 19
10 5 24
9 4 21
11 5 25
12 6 26
10 5 21
10 5 24
8 4 19
12 6 27
12 6 26
8 4 17
61 60 69
80 79 85
77 77 83
72 72 81
84 84 91
100 100 107
65 65 72
99 99 108
95 95 99
89 88 97
97 97 102
90 90 95
78 78 82
51 51 59
64 63 74
54 54 59
87 87 92
74 73 85
9 4 21
10 5 22
11 5 26
10 5 23
80 79 89
84 84 91
89 89 95
113 112 118
90 90 100
88 88 101
74 74 80
72 72 77
91 91 100
20 18 29
13 6 28
12 6 26
12 6 28
29 27 42
76 75 90
62 62 67
72 71 77
81 81 89
102 102 113
111 111 119
110 109 124
97 97 111
94 94 104
81 80 92
70 69 79
71 70 79
22 19 36
12 6 28
12 6 27
12 6 26
13 6 29
14 7 32
13 6 29
14 7 31
13 6 29
14 7 30
11 5 25
8 4 18
0 0 0
0 0 0
0 0 0
0 0 0
0 0 0
0 0 0
0 0 0
0 0 0
0 0 0
0 0 0
0 0 0
0 0 0
0 0 0
9 12 7
5 7 12
0 0 10
0 0 9
0 0 13
0 0 14
0 0 10
0 0 11
0 0 8
0 0 10
0 0 8
0 0 13
0 0 9
0 0 10
0 0 6
0 0 8
0 0 9
0 0 13
0 0 11
0 0 9
0 0 10
0 0 15
0 0 12
1 1 14
3 3 17
0 0 15
0 5 27
51 52 44
64 58 35
63 56 38
72 68 43
52 49 33
75 70 46
89 77 57
88 79 53
111 92 63
127 106 72
137 111 78
168 136 95
133 109 75
150 126 90
158 135 95
170 148 108
176 168 124
176 168 125
185 173 129
197 180 131
164 150 96
187 165 108
204 160 115
240 191 138
247 193 137
214 167 113
136 124 74
102 115 46
160 147 102
134 118 83
188 158 115
82 68 74
0 0 56
0 0 57
0 0 54
28 30 22
0 0 0
0 0 0
0 0 0
0 0 0
0 0 0
0 0 0
0 0 0
0 0 0
0 0 0
0 0 0
0 0 0
0 0 0
0 0 0
1 1 0
26 26 27
20 21 23
37 36 36
44 41 37
40 39 37
37 36 36
41 40 40
51 49 51
56 54 57
59 58 63
61 58 60
60 59 67
78 75 81
65 64 73
74 72 76
71 69 79
62 62 69
75 74 81
91 90 99
87 86 92
80 80 88
80 80 88
80 79 86
88 88 98
88 88 96
85 85 92
92 92 99
97 96 104
118 118 125
121 121 126
139 139 146
128 128 135
134 134 140
152 152 156
162 162 169
130 130 136
100 100 104
60 60 63
87 87 90
123 123 126
142 142 147
160 160 163
156 156 160
157 157 161
162 162 166
190 190 194
183 183 189
171 171 176
154 154 157
139 139 142
87 87 89
72 72 74
99 99 101
70 70 72
74 74 76
147 147 150
202 202 205
217 217 222
202 202 208
183 183 187
0 0 0
0 0 0
0 0 0
0 0 0
0 0 0
0 0 0
0 0 0
0 0 0
0 0 0
0 0 0
0 0 0
0 0 0
0 0 0
0 0 0
0 0 0
0 0 0
0 0 0
0 0 0
0 0 0
0 0 0
0 0 0
0 0 0
0 0 0
0 0 0
0 0 0
0 0 0
0 0 0
0 0 0
0 0 0
0 0 0
0 0 0
0 0 0
0 0 0
0 0 0
0 0 0
0 0 0
0 0 0
0 0 0
0 0 0
0 0 0
0 0 0
0 0 0
0 0 0
0 0 0
255 255 255
255 255 255
255 255 255
255 255 255
255 255 255
255 255 255
255 255 255
255 255 255
255 255 255
255 255 255
255 255 255
255 255 255
255 255 255
255 255 255
255 255 255
255 255 255
255 255 255
255 255 255
255 255 255
255 255 255
255 255 255
255 255 255
255 255 255
255 255 255
255 255 255
255 255 255
255 255 255
255 255 255
255 255 255
255 255 255
255 255 255
255 255 255
255 255 255
255 255 255
255 255 255
255 255 255
255 255 255
0 0 0
0 0 0
0 0 0
0 0 0
0 0 0
0 0 0
0 0 0
0 0 0
0 0 0
0 0 0
0 0 0
0 0 0
0 0 0
0 0 0
0 0 0
0 0 0
0 0 0
0 0 0
0 0 0
0 0 0
0 0 0
0 0 0
0 0 0
0 0 0
0 0 0
0 0 0
0 0 0
0 0 0
0 0 0
0 0 0
0 0 0
0 0 0
0 0 0
0 0 0
0 0 0
0 0 0
0 0 0
0 0 0
0 0 0
0 0 0
0 0 0
0 0 0
0 0 0
0 0 0
0 0 0
0 0 0
0 0 0
0 0 0
0 0 0
0 0 0
0 0 0
0 0 0
0 0 0
0 0 0
0 0 0
0 0 0
0 0 0
0 0 0
0 0 0
0 0 0
0 0 0
0 0 0
0 0 0
0 0 0
0 0 0
0 0 0
0 0 0
0 0 0
0 0 0
0 0 0
0 0 0
0 0 0
0 0 0
0 0 0
0 0 0
0 0 0
0 0 0
0 0 0
0 0 0
0 0 0
0 0 0
0 0 0
0 0 0
0 0 0
0 0 0
0 0 0
0 0 0
0 0 0
0 0 0
0 0 0
0 0 0
0 0 0
0 0 0
0 0 0
0 0 0
0 0 0
0 0 0
5 2 10
7 3 15
9 4 20
7 3 16
11 5 24
8 4 19
9 4 20
11 5 23
8 4 19
10 5 21
10 5 22
11 5 24
8 4 17
10 5 21
9 5 20
10 7 20
20 19 30
70 69 71
72 72 79
99 98 108
76 76 83
76 76 81
76 76 84
78 78 85
70 70 77
55 55 63
9 5 19
10 5 22
10 5 21
13 6 30
11 5 24
12 6 25
12 5 26
31 29 40
92 92 102
86 86 96
94 93 104
72 72 79
102 102 107
76 76 86
99 98 102
76 75 82
88 88 98
29 27 39
10 5 22
11 5 25
9 4 22
10 5 24
10 5 23
11 5 25
10 5 23
74 73 84
108 108 121
78 78 89
99 98 108
104 104 113
32 30 40
12 6 29
11 5 25
13 6 31
14 7 32
12 6 25
13 6 29
15 7 33
11 5 25
13 6 29
12 6 28
12 6 29
10 5 22
13 6 29
11 5 26
12 6 26
0 0 0
0 0 0
0 0 0
0 0 0
0 0 0
0 0 0
0 0 0
0 0 0
0 0 0
0 0 0
0 0 0
0 0 0
0 0 4
13 17 15
0 0 12
0 0 14
18 15 17
0 0 12
0 0 13
0 0 12
0 0 12
0 0 14
0 0 12
0 0 9
0 0 13
0 0 13
0 0 14
0 0 12
0 0 9
0 0 10
0 0 10
0 0 12
0 0 10
0 0 9
0 0 11
0 0 10
0 0 13
0 0 17
0 0 13
0 0 20
21 27 15
36 42 18
42 50 22
37 48 18
29 38 13
50 56 26
72 69 41
79 76 46
77 70 43
94 84 52
105 88 57
124 102 67
146 124 80
120 106 65
142 120 78
155 137 91
143 127 84
115 117 62
143 137 85
119 116 67
106 110 52
128 126 63
155 134 89
204 169 117
186 154 104
154 138 86
102 108 50
68 95 20
116 117 57
151 124 92
52 46 65
81 67 71
55 46 66
0 0 53
0 0 51
3 5 34
0 0 0
0 0 0
0 0 0
0 0 0
0 0 0
0 0 0
0 0 0
0 0 0
0 0 0
0 0 0
0 0 0
0 0 0
0 0 0
2 4 3
16 16 15
19 18 20
32 32 35
42 41 46
32 30 33
32 31 33
32 31 33
36 34 36
56 53 56
62 60 61
63 62 68
56 54 62
59 58 62
83 81 92
64 60 63
67 65 74
83 80 86
73 72 83
88 87 97
90 88 95
81 80 92
82 81 87
59 59 66
72 72 79
79 79 84
86 86 94
97 97 103
90 90 97
105 105 112
124 124 134
129 129 137
118 118 124
124 124 131
129 129 135
136 136 142
128 128 135
111 111 116
85 85 88
49 49 52
89 89 92
119 119 123
126 126 131
119 119 123
147 147 151
160 160 166
194 194 200
181 181 185
164 164 169
150 150 154
139 139 143
76 76 78
118 118 121
147 147 150
120 120 122
69 69 70
90 90 92
149 149 154
165 165 170
175 175 179
184 184 188
58 58 58
0 0 0
0 0 0
0 0 0
0 0 0
0 0 0
0 0 0
0 0 0
0 0 0
0 0 0
0 0 0
0 0 0
0 0 0
0 0 0
0 0 0
0 0 0
0 0 0
0 0 0
0 0 0
0 0 0
0 0 0
0 0 0
0 0 0
0 0 0
0 0 0
0 0 0
0 0 0
0 0 0
0 0 0
0 0 0
0 0 0
0 0 0
0 0 0
0 0 0
0 0 0
0 0 0
0 0 0
0 0 0
0 0 0
0 0 0
0 0 0
0 0 0
0 0 0
0 0 0
255 255 255
255 255 255
255 255 255
255 255 255
255 255 255
255 255 255
255 255 255
255 255 255
255 255 255
255 255 255
255 255 255
255 255 255
255 255 255
255 255 255
255 255 255
255 255 255
255 255 255
255 255 255
255 255 255
255 255 255
255 255 255
255 255 255
255 255 255
255 255 255
255 255 255
255 255 255
255 255 255
255 255 255
255 255 255
255 255 255
255 255 255
255 255 255
255 255 255
255 255 255
255 255 255
255 255 255
255 255 255
0 0 0
0 0 0
0 0 0
0 0 0
0 0 0
0 0 0
0 0 0
0 0 0
0 0 0
0 0 0
0 0 0
0 0 0
0 0 0
0 0 0
0 0 0
0 0 0
0 0 0
0 0 0
0 0 0
0 0 0
0 0 0
0 0 0
0 0 0
0 0 0
0 0 0
0 0 0
0 0 0
0 0 0
0 0 0
0 0 0
0 0 0
0 0 0
0 0 0
0 0 0
0 0 0
0 0 0
0 0 0
0 0 0
0 0 0
0 0 0
0 0 0
0 0 0
0 0 0
0 0 0
0 0 0
0 0 0
0 0 0
0 0 0
0 0 0
0 0 0
0 0 0
0 0 0
0 0 0
0 0 0
0 0 0
0 0 0
0 0 0
0 0 0
0 0 0
0 0 0
0 0 0
0 0 0
0 0 0
0 0 0
0 0 0
0 0 0
0 0 0
0 0 0
0 0 0
0 0 0
0 0 0
0 0 0
0 0 0
0 0 0
0 0 0
0 0 0
0 0 0
0 0 0
0 0 0
0 0 0
0 0 0
0 0 0
0 0 0
0 0 0
0 0 0
0 0 0
0 0 0
0 0 0
0 0 0
0 0 0
0 0 0
0 0 0
0 0 0
0 0 0
0 0 0
0 0 0
0 0 0
5 2 11
8 4 17
9 4 19
10 5 22
9 4 21
6 3 15
9 4 19
9 4 20
11 5 25
12 6 27
8 4 19
9 4 19
10 5 22
9 4 21
9 4 21
9 4 20
40 39 49
70 70 79
76 76 86
86 86 94
55 55 62
78 78 87
72 72 85
80 80 85
84 84 89
68 68 75
10 5 24
11 5 24
12 6 27
10 5 22
11 5 26
11 5 24
9 4 21
49 48 53
118 118 127
107 106 118
67 67 75
113 112 121
107 106 114
95 95 107
94 93 104
82 82 90
90 90 103
76 76 87
11 5 26
11 5 25
10 5 22
13 6 28
12 6 29
12 6 26
12 6 28
87 86 93
100 100 110
97 97 104
99 98 108
96 96 106
20 16 32
11 5 25
14 7 30
11 5 25
12 6 26
12 6 27
15 7 33
13 6 29
14 7 31
14 7 30
14 7 31
13 6 28
14 7 32
11 5 25
15 7 32
9 4 21
0 0 0
0 0 0
0 0 0
0 0 0
0 0 0
0 0 0
0 0 0
0 0 0
0 0 0
0 0 0
0 0 0
0 0 0
0 0 8
0 1 14
0 0 15
11 14 7
19 20 13
9 12 10
12 13 13
0 3 14
0 0 14
0 0 7
0 0 15
0 0 12
0 0 13
0 0 11
0 0 8
0 0 12
0 0 7
0 0 8
0 0 13
0 0 12
0 0 13
0 0 8
0 0 8
0 0 11
0 0 14
0 0 15
0 0 16
0 0 20
4 17 30
26 32 16
30 38 11
28 40 7
30 39 9
46 55 16
44 48 19
44 46 22
56 59 28
74 75 38
67 71 34
60 64 27
85 79 42
89 85 47
87 87 37
107 103 53
101 108 48
85 99 36
80 98 35
66 84 29
60 83 21
65 87 24
100 101 50
141 136 74
115 119 56
73 100 27
73 102 27
55 82 7
88 99 31
179 153 102
191 154 121
255 221 156
136 117 109
0 0 55
0 0 54
1 3 42
0 0 0
0 0 0
0 0 0
0 0 0
0 0 0
0 0 0
0 0 0
0 0 0
0 0 0
0 0 0
0 0 0
0 0 0
0 0 0
17 17 20
18 17 20
29 28 32
29 29 31
32 31 32
26 25 28
32 30 31
28 25 28
33 32 35
39 38 43
49 48 54
47 46 54
54 53 58
57 55 62
56 56 72
69 67 74
66 64 73
69 69 80
69 67 77
68 68 75
69 69 75
76 75 83
63 63 71
54 54 62
53 53 58
54 54 59
70 70 77
84 84 92
88 88 95
85 84 91
101 101 109
99 99 106
97 97 103
95 95 100
108 108 115
128 128 133
137 137 143
120 120 124
99 99 104
62 62 65
67 67 70
105 105 108
134 134 137
127 127 131
148 148 153
172 172 177
202 202 208
175 175 181
159 159 165
172 172 177
148 148 151
85 85 87
127 127 130
148 148 152
138 138 141
133 133 137
94 94 97
87 87 90
115 115 117
147 147 152
201 201 209
86 86 88
0 0 0
0 0 0
0 0 0
0 0 0
0 0 0
0 0 0
0 0 0
0 0 0
0 0 0
0 0 0
0 0 0
0 0 0
0 0 0
0 0 0
0 0 0
0 0 0
0 0 0
0 0 0
0 0 0
0 0 0
0 0 0
0 0 0
0 0 0
0 0 0
0 0 0
0 0 0
0 0 0
0 0 0
0 0 0
0 0 0
0 0 0
0 0 0
0 0 0
0 0 0
0 0 0
0 0 0
0 0 0
0 0 0
0 0 0
0 0 0
0 0 0
0 0 0
0 0 0
255 255 255
255 255 255
255 255 255
255 255 255
255 255 255
255 255 255
255 255 255
255 255 255
255 255 255
255 255 255
255 255 255
255 255 255
255 255 255
255 255 255
255 255 255
255 255 255
255 255 255
255 255 255
255 255 255
255 255 255
255 255 255
255 255 255
255 255 255
255 255 255
255 255 255
255 255 255
255 255 255
255 255 255
255 255 255
255 255 255
255 255 255
255 255 255
255 255 255
255 255 255
255 255 255
255 255 255
255 255 255
0 0 0
0 0 0
0 0 0
0 0 0
0 0 0
0 0 0
0 0 0
0 0 0
0 0 0
0 0 0
0 0 0
0 0 0
0 0 0
0 0 0
0 0 0
0 0 0
0 0 0
0 0 0
0 0 0
0 0 0
0 0 0
0 0 0
0 0 0
0 0 0
0 0 0
0 0 0
0 0 0
0 0 0
0 0 0
0 0 0
0 0 0
0 0 0
0 0 0
0 0 0
0 0 0
0 0 0
0 0 0
0 0 0
0 0 0
0 0 0
0 0 0
0 0 0
0 0 0
0 0 0
0 0 0
0 0 0
0 0 0
0 0 0
0 0 0
0 0 0
0 0 0
0 0 0
0 0 0
0 0 0
0 0 0
0 0 0
0 0 0
0 0 0
0 0 0
0 0 0
0 0 0
0 0 0
0 0 0
0 0 0
0 0 0
0 0 0
0 0 0
0 0 0
0 0 0
0 0 0
0 0 0
0 0 0
0 0 0
0 0 0
0 0 0
0 0 0
0 0 0
0 0 0
0 0 0
0 0 0
0 0 0
0 0 0
0 0 0
0 0 0
0 0 0
0 0 0
0 0 0
0 0 0
0 0 0
0 0 0
0 0 0
0 0 0
0 0 0
0 0 0
0 0 0
0 0 0
0 0 0
6 3 13
9 4 20
12 6 26
11 5 24
9 4 21
8 4 20
9 4 20
10 5 23
12 6 25
8 4 17
11 5 24
12 6 27
8 4 17
11 5 25
11 5 25
10 5 23
12 8 22
70 70 85
84 84 97
92 92 104
72 72 79
67 67 75
95 95 105
74 74 83
108 108 120
78 78 87
26 25 36
10 5 23
11 5 24
13 6 29
11 5 25
9 4 23
11 5 25
81 81 93
90 90 99
100 100 109
97 97 109
72 72 80
102 102 116
68 68 81
94 93 98
88 88 93
90 90 99
88 88 100
11 6 24
12 6 26
13 6 28
13 6 30
11 5 24
12 6 27
47 46 58
95 95 103
92 92 98
97 97 109
118 118 127
61 60 67
12 6 26
11 5 25
11 5 23
10 5 23
14 7 32
13 6 27
11 5 25
11 5 26
13 6 31
13 6 29
14 7 31
15 7 31
13 6 29
14 7 31
13 6 28
6 3 16
0 0 0
0 0 0
0 0 0
0 0 0
0 0 0
0 0 0
0 0 0
0 0 0
0 0 0
0 0 0
0 0 0
0 0 0
0 1 9
8 12 10
16 21 13
13 20 15
13 18 2
19 23 7
16 20 5
0 1 12
0 0 9
0 0 20
0 0 11
0 0 8
0 0 10
0 0 12
0 0 9
0 0 10
0 0 8
0 0 13
0 0 12
0 0 11
0 0 10
0 0 10
0 0 15
0 0 15
0 0 13
0 0 16
0 0 13
0 0 17
0 6 21
9 15 27
24 32 16
25 35 8
30 41 10
31 42 7
33 37 14
45 49 21
51 58 23
58 62 28
62 65 30
49 57 24
66 72 34
69 77 34
73 82 27
71 77 32
78 86 35
71 85 28
64 78 24
60 77 23
52 75 12
46 69 6
44 69 6
57 81 19
63 88 18
59 82 15
64 97 14
56 80 6
78 90 27
113 108 55
213 143 104
248 190 133
97 75 75
0 0 50
0 0 55
0 0 46
0 0 0
0 0 0
0 0 0
0 0 0
0 0 0
0 0 0
0 0 0
0 0 0
0 0 0
0 0 0
0 0 0
0 0 0
0 0 0
22 23 26
20 19 19
24 25 29
29 28 29
35 33 35
29 29 35
34 32 36
27 26 29
34 33 38
35 35 42
50 48 55
56 54 64
49 49 57
62 59 67
65 64 74
66 63 71
67 65 71
66 65 78
64 64 74
76 75 87
74 72 82
65 65 71
59 58 67
47 47 51
49 49 55
49 49 57
54 54 58
63 63 70
66 66 73
68 68 72
65 65 69
71 71 76
80 80 83
83 83 88
93 93 97
109 109 115
117 117 122
119 119 126
103 103 108
65 65 69
64 64 67
95 95 100
135 135 139
151 151 156
158 158 165
187 187 194
186 186 192
189 189 196
180 180 184
167 167 173
138 138 143
92 92 95
116 116 118
125 125 129
112 112 115
155 155 160
125 125 129
52 52 53
76 76 79
143 143 148
188 188 193
99 99 102
0 0 0
0 0 0
0 0 0
0 0 0
0 0 0
0 0 0
0 0 0
0 0 0
0 0 0
0 0 0
0 0 0
0 0 0
0 0 0
0 0 0
0 0 0
0 0 0
0 0 0
0 0 0
0 0 0
0 0 0
0 0 0
0 0 0
0 0 0
0 0 0
0 0 0
0 0 0
0 0 0
0 0 0
0 0 0
0 0 0
0 0 0
0 0 0
0 0 0
0 0 0
0 0 0
0 0 0
0 0 0
0 0 0
0 0 0
0 0 0
0 0 0
0 0 0
0 0 0
255 255 255
255 255 255
255 255 255
255 255 255
255 255 255
255 255 255
255 255 255
255 255 255
255 255 255
255 255 255
255 255 255
255 255 255
255 255 255
255 255 255
255 255 255
255 255 255
255 255 255
255 255 255
255 255 255
255 255 255
255 255 255
255 255 255
255 255 255
255 255 255
255 255 255
255 255 255
255 255 255
255 255 255
255 255 255
255 255 255
255 255 255
255 255 255
255 255 255
255 255 255
255 255 255
255 255 255
255 255 255
0 0 0
0 0 0
0 0 0
0 0 0
0 0 0
0 0 0
0 0 0
0 0 0
0 0 0
0 0 0
0 0 0
0 0 0
0 0 0
0 0 0
0 0 0
0 0 0
0 0 0
0 0 0
0 0 0
0 0 0
0 0 0
0 0 0
0 0 0
0 0 0
0 0 0
0 0 0
0 0 0
0 0 0
0 0 0
0 0 0
0 0 0
0 0 0
0 0 0
0 0 0
0 0 0
0 0 0
0 0 0
0 0 0
0 0 0
0 0 0
0 0 0
0 0 0
0 0 0
0 0 0
0 0 0
0 0 0
0 0 0
0 0 0
0 0 0
0 0 0
0 0 0
0 0 0
0 0 0
0 0 0
0 0 0
0 0 0
0 0 0
0 0 0
0 0 0
0 0 0
0 0 0
0 0 0
0 0 0
0 0 0
0 0 0
0 0 0
0 0 0
0 0 0
0 0 0
0 0 0
0 0 0
0 0 0
0 0 0
0 0 0
0 0 0
0 0 0
0 0 0
0 0 0
0 0 0
0 0 0
0 0 0
0 0 0
0 0 0
0 0 0
0 0 0
0 0 0
0 0 0
0 0 0
0 0 0
0 0 0
0 0 0
0 0 0
0 0 0
0 0 0
0 0 0
0 0 0
0 0 0
4 2 8
10 5 23
9 4 20
9 4 19
11 5 24
9 4 21
10 5 23
8 4 17
8 4 19
10 5 23
11 5 23
10 5 24
10 5 21
9 4 20
11 5 25
10 5 23
7 4 17
63 62 73
97 97 106
72 72 79
86 86 98
85 84 93
90 90 97
90 90 97
92 92 100
85 84 96
64 63 73
11 5 25
11 5 26
11 5 25
11 5 24
12 5 26
10 5 24
82 82 90
82 82 88
95 95 105
74 74 83
97 97 100
84 84 97
105 105 112
99 99 106
86 86 94
84 84 91
77 77 87
28 27 34
9 4 22
12 6 27
11 5 24
10 5 24
12 6 27
70 70 86
90 90 97
110 109 117
104 103 113
86 86 102
72 72 79
12 6 27
12 5 26
9 4 19
13 6 28
13 6 29
14 7 31
13 6 30
13 6 30
14 7 30
13 6 31
10 5 24
11 5 27
13 6 29
15 7 33
14 7 32
11 5 26
0 0 0
0 0 0
0 0 0
0 0 0
0 0 0
0 0 0
0 0 0
0 0 0
0 0 0
0 0 0
0 0 0
0 0 0
0 0 10
0 0 14
17 23 14
16 23 5
10 11 2
28 29 11
16 21 4
7 15 20
0 0 9
0 2 18
0 0 14
0 0 13
0 0 9
0 0 12
0 0 10
0 0 12
0 0 8
0 0 12
0 0 11
0 0 14
0 0 13
0 0 7
0 0 12
0 0 11
0 0 13
0 0 15
0 0 14
0 0 17
0 0 16
0 0 19
15 24 24
22 31 7
23 32 8
28 40 5
40 53 14
31 42 11
37 51 13
39 53 12
46 57 21
58 71 27
56 69 29
54 68 23
68 79 32
75 83 36
43 61 11
42 64 6
45 63 12
42 61 9
41 67 4
30 51 0
38 62 0
38 65 0
46 78 5
52 76 8
52 84 7
55 86 9
77 96 22
128 113 64
196 144 99
233 158 116
46 38 75
0 0 49
0 0 54
0 0 47
0 0 0
0 0 0
0 0 0
0 0 0
0 0 0
0 0 0
0 0 0
0 0 0
0 0 0
0 0 0
0 0 0
0 0 0
0 0 0
18 19 21
22 22 27
31 31 37
29 27 30
23 23 29
29 28 30
24 22 25
35 34 40
37 35 42
44 42 49
56 54 59
57 55 64
60 57 65
64 63 74
50 49 61
58 57 68
77 75 88
79 78 97
84 83 95
65 65 75
82 81 93
60 60 72
57 56 65
41 40 46
47 47 51
51 50 54
44 44 47
46 46 51
49 49 52
57 57 63
53 53 57
48 48 50
48 48 50
44 44 47
59 59 62
89 89 94
102 102 109
116 116 122
118 118 124
100 100 104
55 55 57
98 98 102
139 139 146
171 171 178
189 189 195
188 188 198
195 195 202
181 182 187
167 167 173
175 175 182
158 158 163
98 98 101
82 82 85
81 81 83
98 98 100
139 139 143
128 128 133
66 66 68
86 86 88
140 140 144
178 178 183
121 121 126
0 0 0
0 0 0
0 0 0
0 0 0
0 0 0
0 0 0
0 0 0
0 0 0
0 0 0
0 0 0
0 0 0
0 0 0
0 0 0
0 0 0
0 0 0
0 0 0
0 0 0
0 0 0
0 0 0
0 0 0
0 0 0
0 0 0
0 0 0
0 0 0
0 0 0
0 0 0
0 0 0
0 0 0
0 0 0
0 0 0
0 0 0
0 0 0
0 0 0
0 0 0
0 0 0
0 0 0
0 0 0
0 0 0
0 0 0
0 0 0
0 0 0
0 0 0
0 0 0
255 255 255
255 255 255
255 255 255
255 255 255
255 255 255
255 255 255
255 255 255
255 255 255
255 255 255
255 255 255
255 255 255
255 255 255
255 255 255
255 255 255
255 255 255
255 255 255
255 255 255
255 255 255
255 255 255
255 255 255
255 255 255
255 255 255
255 255 255
255 255 255
255 255 255
255 255 255
255 255 255
255 255 255
255 255 255
255 255 255
255 255 255
255 255 255
255 255 255
255 255 255
255 255 255
255 255 255
255 255 255
0 0 0
0 0 0
0 0 0
0 0 0
0 0 0
0 0 0
0 0 0
0 0 0
0 0 0
0 0 0
0 0 0
0 0 0
0 0 0
0 0 0
0 0 0
0 0 0
0 0 0
0 0 0
0 0 0
0 0 0
0 0 0
0 0 0
0 0 0
0 0 0
0 0 0
0 0 0
0 0 0
0 0 0
0 0 0
0 0 0
0 0 0
0 0 0
0 0 0
0 0 0
0 0 0
0 0 0
0 0 0
0 0 0
0 0 0
0 0 0
0 0 0
0 0 0
0 0 0
0 0 0
0 0 0
0 0 0
0 0 0
0 0 0
0 0 0
0 0 0
0 0 0
0 0 0
0 0 0
0 0 0
0 0 0
0 0 0
0 0 0
0 0 0
0 0 0
0 0 0
0 0 0
0 0 0
0 0 0
0 0 0
0 0 0
0 0 0
0 0 0
0 0 0
0 0 0
0 0 0
0 0 0
0 0 0
0 0 0
0 0 0
0 0 0
0 0 0
0 0 0
0 0 0
0 0 0
0 0 0
0 0 0
0 0 0
0 0 0
0 0 0
0 0 0
0 0 0
0 0 0
0 0 0
0 0 0
0 0 0
0 0 0
0 0 0
0 0 0
0 0 0
0 0 0
0 0 0
0 0 0
4 2 10
7 3 17
8 4 18
9 4 20
7 3 16
9 4 21
9 4 22
11 5 24
10 5 22
10 5 23
10 5 23
11 5 25
9 4 20
8 4 19
8 4 20
8 4 17
9 4 21
29 28 34
74 74 83
109 109 120
76 76 88
80 80 92
78 78 91
95 95 101
90 90 93
70 69 76
74 74 83
12 6 25
11 5 24
11 5 24
11 5 24
10 5 22
31 30 37
90 90 98
81 81 92
95 95 101
82 82 90
96 96 104
97 97 106
94 93 104
85 84 91
81 81 92
110 110 118
78 78 86
44 43 47
14 7 31
12 6 25
14 7 31
12 6 26
12 6 27
71 71 82
124 124 135
84 84 93
114 114 125
93 93 106
32 30 42
13 6 28
11 5 25
13 6 29
11 5 23
13 6 30
11 5 24
10 5 23
10 5 24
13 6 29
13 6 27
10 5 23
12 6 28
15 7 33
14 7 31
13 6 29
12 6 27
0 0 0
0 0 0
0 0 0
0 0 0
0 0 0
0 0 0
0 0 0
0 0 0
0 0 0
0 0 0
0 0 0
0 0 0
0 0 10
0 0 14
18 21 7
21 24 6
18 22 6
10 16 0
13 17 0
9 13 0
4 11 15
4 13 27
0 0 12
0 0 13
0 0 9
0 0 9
0 0 13
0 0 10
0 0 10
0 0 8
0 0 11
0 0 14
0 0 12
0 0 13
0 0 16
0 0 11
0 0 14
0 0 18
0 0 15
0 0 17
0 0 15
0 0 18
0 0 21
11 15 18
25 35 13
29 40 13
39 54 16
39 53 18
28 39 8
36 51 10
40 50 24
46 55 33
41 55 32
48 63 25
66 83 35
43 60 11
40 60 6
45 64 8
34 51 0
33 54 0
35 58 0
38 62 0
38 64 0
33 60 0
35 69 0
43 71 1
68 92 21
94 93 44
94 97 38
133 110 61
212 156 108
191 142 106
0 0 56
0 0 51
0 0 53
0 0 50
0 0 0
0 0 0
0 0 0
0 0 0
0 0 0
0 0 0
0 0 0
0 0 0
0 0 0
0 0 0
0 0 0
0 0 0
0 0 0
12 13 16
19 18 18
34 33 40
28 27 31
19 18 21
26 24 27
33 32 37
33 32 38
36 34 39
41 40 48
47 46 56
51 50 57
59 57 63
49 47 56
52 51 64
59 57 66
63 62 74
66 65 76
67 65 79
69 68 83
58 58 65
67 66 77
58 58 68
47 47 53
40 40 46
43 43 48
26 26 29
20 20 22
22 22 24
29 29 32
24 24 26
19 19 20
37 37 40
52 52 57
42 42 44
81 81 86
117 117 124
121 121 131
111 111 118
102 102 106
61 61 64
84 84 87
132 132 138
157 157 164
186 186 195
195 195 203
189 189 196
180 180 188
156 156 163
158 158 163
151 151 157
126 126 130
55 55 57
74 74 76
100 100 104
126 126 130
97 97 100
70 70 73
104 104 107
128 128 133
182 182 188
117 117 121
0 0 0
0 0 0
0 0 0
0 0 0
0 0 0
0 0 0
0 0 0
0 0 0
0 0 0
0 0 0
0 0 0
0 0 0
0 0 0
0 0 0
0 0 0
0 0 0
0 0 0
0 0 0
0 0 0
0 0 0
0 0 0
0 0 0
0 0 0
0 0 0
0 0 0
0 0 0
0 0 0
0 0 0
0 0 0
0 0 0
0 0 0
0 0 0
0 0 0
0 0 0
0 0 0
0 0 0
0 0 0
0 0 0
0 0 0
0 0 0
0 0 0
0 0 0
0 0 0
255 255 255
255 255 255
255 255 255
255 255 255
255 255 255
255 255 255
255 255 255
255 255 255
255 255 255
255 255 255
255 255 255
255 255 255
255 255 255
255 255 255
255 255 255
255 255 255
255 255 255
255 255 255
255 255 255
255 255 255
255 255 255
255 255 255
255 255 255
255 255 255
255 255 255
255 255 255
255 255 255
255 255 255
255 255 255
255 255 255
255 255 255
255 255 255
255 255 255
255 255 255
255 255 255
255 255 255
255 255 255
0 0 0
0 0 0
0 0 0
0 0 0
0 0 0
0 0 0
0 0 0
0 0 0
0 0 0
0 0 0
0 0 0
0 0 0
0 0 0
0 0 0
0 0 0
0 0 0
0 0 0
0 0 0
0 0 0
0 0 0
0 0 0
0 0 0
0 0 0
0 0 0
0 0 0
0 0 0
0 0 0
0 0 0
0 0 0
0 0 0
0 0 0
0 0 0
0 0 0
0 0 0
0 0 0
0 0 0
0 0 0
0 0 0
0 0 0
0 0 0
0 0 0
0 0 0
0 0 0
0 0 0
0 0 0
0 0 0
0 0 0
0 0 0
0 0 0
0 0 0
0 0 0
0 0 0
0 0 0
0 0 0
0 0 0
0 0 0
0 0 0
0 0 0
0 0 0
0 0 0
0 0 0
0 0 0
0 0 0
0 0 0
0 0 0
0 0 0
0 0 0
0 0 0
0 0 0
0 0 0
0 0 0
0 0 0
0 0 0
0 0 0
0 0 0
0 0 0
0 0 0
0 0 0
0 0 0
0 0 0
0 0 0
0 0 0
0 0 0
0 0 0
0 0 0
0 0 0
0 0 0
0 0 0
0 0 0
0 0 0
0 0 0
0 0 0
0 0 0
0 0 0
0 0 0
0 0 0
0 0 0
2 1 5
9 4 21
12 6 27
8 4 17
8 4 20
10 5 22
11 5 24
10 5 22
9 4 21
8 4 18
8 4 19
12 6 26
9 4 20
8 4 19
11 5 25
10 5 22
8 4 19
38 38 47
78 78 89
99 99 110
86 86 98
78 78 89
85 84 91
67 67 75
74 74 83
80 80 87
90 90 100
31 30 39
12 6 26
7 3 16
13 6 29
11 5 27
41 40 55
107 106 114
101 100 114
99 98 106
97 97 102
65 65 74
78 78 87
84 84 93
99 98 106
105 105 112
90 90 99
99 99 106
69 68 77
11 6 26
12 6 26
11 5 24
10 5 21
20 17 35
85 85 99
87 87 96
105 105 112
111 110 122
71 71 82
10 5 24
10 5 22
15 7 31
10 5 25
13 6 28
14 7 32
15 7 33
13 6 28
13 6 29
12 6 28
13 6 30
14 7 32
11 5 27
14 7 30
16 8 35
12 6 27
8 4 20
0 0 0
0 0 0
0 0 0
0 0 0
0 0 0
0 0 0
0 0 0
0 0 0
0 0 0
0 0 0
0 0 0
0 0 0
0 0 8
0 0 13
4 8 10
18 23 5
8 12 0
10 15 0
12 15 4
11 15 2
5 8 0
8 13 0
4 4 14
0 1 15
0 0 10
0 0 13
0 0 9
0 0 12
0 0 12
0 0 11
0 0 14
0 0 12
0 0 11
0 0 14
0 0 10
0 0 14
0 0 14
0 0 15
0 0 16
0 0 16
0 0 18
0 0 17
0 0 22
0 0 21
5 7 21
20 26 18
19 25 20
18 23 25
21 28 22
17 23 29
0 0 27
0 0 28
0 0 35
41 52 37
38 54 37
41 57 25
41 58 11
42 58 11
34 52 0
28 46 0
39 62 0
40 63 0
36 56 0
30 54 0
30 59 0
41 68 4
52 76 10
136 115 76
153 122 76
161 109 74
154 113 70
119 98 68
0 0 54
0 0 51
0 0 52
0 0 48
0 0 0
0 0 0
0 0 0
0 0 0
0 0 0
0 0 0
0 0 0
0 0 0
0 0 0
0 0 0
0 0 0
0 0 0
0 0 0
18 18 22
14 14 18
26 25 28
25 24 26
26 26 30
26 26 30
27 26 31
27 26 31
36 35 40
39 38 44
39 39 46
33 32 40
41 41 49
46 45 54
46 45 53
51 49 57
52 51 61
64 63 74
71 69 80
75 74 91
61 61 74
55 55 65
64 64 74
54 54 62
45 45 51
24 24 27
24 24 26
36 36 40
47 47 52
52 52 58
30 30 32
32 32 34
59 59 63
77 77 83
44 44 47
72 72 76
90 90 98
95 95 100
110 110 117
80 80 85
46 46 49
87 87 93
122 122 129
140 140 148
177 177 184
178 178 186
175 175 182
160 160 167
136 136 142
138 138 143
152 152 157
125 125 131
59 59 62
74 74 77
74 74 77
72 72 75
52 52 53
72 72 75
115 115 120
133 133 139
157 157 163
101 101 104
0 0 0
0 0 0
0 0 0
0 0 0
0 0 0
0 0 0
0 0 0
0 0 0
0 0 0
0 0 0
0 0 0
0 0 0
0 0 0
0 0 0
0 0 0
0 0 0
0 0 0
0 0 0
0 0 0
0 0 0
0 0 0
0 0 0
0 0 0
0 0 0
0 0 0
0 0 0
0 0 0
0 0 0
0 0 0
0 0 0
0 0 0
0 0 0
0 0 0
0 0 0
0 0 0
0 0 0
0 0 0
0 0 0
0 0 0
0 0 0
0 0 0
0 0 0
0 0 0
255 255 255
255 255 255
255 255 255
255 255 255
255 255 255
255 255 255
255 255 255
255 255 255
255 255 255
255 255 255
255 255 255
255 255 255
255 255 255
255 255 255
255 255 255
255 255 255
255 255 255
255 255 255
255 255 255
255 255 255
255 255 255
255 255 255
255 255 255
255 255 255
255 255 255
255 255 255
255 255 255
255 255 255
255 255 255
255 255 255
255 255 255
255 255 255
255 255 255
255 255 255
255 255 255
255 255 255
255 255 255
0 0 0
0 0 0
0 0 0
0 0 0
0 0 0
0 0 0
0 0 0
0 0 0
0 0 0
0 0 0
0 0 0
0 0 0
0 0 0
0 0 0
0 0 0
0 0 0
0 0 0
0 0 0
0 0 0
0 0 0
0 0 0
0 0 0
0 0 0
0 0 0
0 0 0
0 0 0
0 0 0
0 0 0
0 0 0
0 0 0
0 0 0
0 0 0
0 0 0
0 0 0
0 0 0
0 0 0
0 0 0
0 0 0
0 0 0
0 0 0
0 0 0
0 0 0
0 0 0
0 0 0
0 0 0
0 0 0
0 0 0
0 0 0
0 0 0
0 0 0
0 0 0
0 0 0
0 0 0
0 0 0
0 0 0
0 0 0
0 0 0
0 0 0
0 0 0
0 0 0
0 0 0
0 0 0
0 0 0
0 0 0
0 0 0
0 0 0
0 0 0
0 0 0
0 0 0
0 0 0
0 0 0
0 0 0
0 0 0
0 0 0
0 0 0
0 0 0
0 0 0
0 0 0
0 0 0
0 0 0
0 0 0
0 0 0
0 0 0
0 0 0
0 0 0
0 0 0
0 0 0
0 0 0
0 0 0
0 0 0
0 0 0
0 0 0
0 0 0
0 0 0
0 0 0
0 0 0
0 0 0
3 1 8
12 6 27
9 4 20
13 6 28
12 6 27
10 5 22
9 4 19
9 4 21
6 3 14
9 4 21
8 4 18
9 4 21
10 5 23
13 6 28
9 4 21
9 4 20
9 4 21
10 5 22
90 90 101
76 75 83
70 69 79
94 93 102
67 67 76
67 67 73
113 112 118
86 86 94
97 97 102
32 31 43
10 5 24
12 6 28
9 4 21
9 4 20
79 78 84
92 92 104
92 92 102
108 108 115
114 114 122
76 76 86
88 88 99
94 93 104
99 99 110
82 82 97
107 106 111
76 76 83
76 76 86
10 5 22
12 6 28
13 6 30
11 5 24
51 50 61
105 105 114
100 100 108
103 103 110
90 90 103
83 82 89
11 5 25
14 7 30
13 6 29
10 5 22
9 4 22
14 7 32
14 7 32
14 7 30
12 6 28
14 7 31
13 6 30
10 5 24
14 7 29
14 7 30
14 7 31
15 7 32
12 5 25
0 0 0
0 0 0
0 0 0
0 0 0
0 0 0
0 0 0
0 0 0
0 0 0
0 0 0
0 0 0
0 0 0
0 0 0
0 0 11
6 12 22
17 22 7
10 14 0
10 14 0
8 12 0
12 14 2
9 13 0
8 11 0
8 12 1
8 17 19
3 28 36
0 0 9
0 0 12
0 0 12
0 0 10
0 0 12
0 0 15
0 0 13
0 0 10
0 0 14
0 0 11
0 0 11
0 0 15
0 0 14
0 0 16
0 0 15
0 0 18
0 0 14
0 0 17
0 0 19
0 0 18
0 0 21
0 0 23
0 0 22
0 0 25
0 0 26
0 0 25
0 0 26
0 0 29
0 0 30
0 0 31
7 10 33
27 36 30
43 58 8
44 57 10
30 43 0
25 40 0
30 47 0
34 51 0
32 49 0
25 43 0
21 42 0
38 57 12
51 73 10
112 102 61
155 122 85
166 122 79
96 91 39
31 29 51
0 0 50
0 0 51
0 0 52
0 0 48
0 0 0
0 0 0
0 0 0
0 0 0
0 0 0
0 0 0
0 0 0
0 0 0
0 0 0
0 0 0
0 0 0
0 0 0
0 0 0
14 14 18
9 10 13
32 32 40
33 31 35
35 34 41
23 22 25
12 12 16
14 13 16
25 24 30
28 28 34
24 24 30
37 36 43
35 34 41
38 38 46
35 34 41
46 45 55
41 40 45
53 52 62
65 64 75
66 65 78
61 59 70
75 75 83
63 63 73
49 49 56
32 32 35
17 17 19
24 24 26
52 52 57
59 59 66
69 69 76
43 43 46
37 37 41
59 59 64
66 66 71
38 38 41
64 64 68
63 63 67
77 77 81
70 70 75
32 32 34
34 34 36
96 96 100
134 134 140
154 154 160
166 166 175
174 174 183
173 173 181
151 151 157
146 146 152
138 138 144
144 144 150
118 118 125
45 45 46
41 41 42
61 61 63
61 61 63
95 95 98
134 134 139
134 134 138
112 112 117
109 109 113
83 83 86
0 0 0
0 0 0
0 0 0
0 0 0
0 0 0
0 0 0
0 0 0
0 0 0
0 0 0
0 0 0
0 0 0
0 0 0
0 0 0
0 0 0
0 0 0
0 0 0
0 0 0
0 0 0
0 0 0
0 0 0
0 0 0
0 0 0
0 0 0
0 0 0
0 0 0
0 0 0
0 0 0
0 0 0
0 0 0
0 0 0
0 0 0
0 0 0
0 0 0
0 0 0
0 0 0
0 0 0
0 0 0
0 0 0
0 0 0
0 0 0
0 0 0
0 0 0
0 0 0
255 255 255
255 255 255
255 255 255
255 255 255
255 255 255
255 255 255
255 255 255
255 255 255
255 255 255
255 255 255
255 255 255
255 255 255
255 255 255
255 255 255
255 255 255
255 255 255
255 255 255
255 255 255
255 255 255
255 255 255
255 255 255
255 255 255
255 255 255
255 255 255
255 255 255
255 255 255
255 255 255
255 255 255
255 255 255
255 255 255
255 255 255
255 255 255
255 255 255
255 255 255
255 255 255
255 255 255
255 255 255
0 0 0
0 0 0
0 0 0
0 0 0
0 0 0
0 0 0
0 0 0
0 0 0
0 0 0
0 0 0
0 0 0
0 0 0
0 0 0
0 0 0
0 0 0
0 0 0
0 0 0
0 0 0
0 0 0
0 0 0
0 0 0
0 0 0
0 0 0
0 0 0
0 0 0
0 0 0
0 0 0
0 0 0
0 0 0
0 0 0
0 0 0
0 0 0
0 0 0
0 0 0
0 0 0
0 0 0
0 0 0
0 0 0
0 0 0
0 0 0
0 0 0
0 0 0
0 0 0
0 0 0
0 0 0
0 0 0
0 0 0
0 0 0
0 0 0
0 0 0
0 0 0
0 0 0
0 0 0
0 0 0
0 0 0
0 0 0
0 0 0
0 0 0
0 0 0
0 0 0
0 0 0
0 0 0
0 0 0
0 0 0
0 0 0
0 0 0
0 0 0
0 0 0
0 0 0
0 0 0
0 0 0
0 0 0
0 0 0
0 0 0
0 0 0
0 0 0
0 0 0
0 0 0
0 0 0
0 0 0
0 0 0
0 0 0
0 0 0
0 0 0
0 0 0
0 0 0
0 0 0
0 0 0
0 0 0
0 0 0
0 0 0
0 0 0
0 0 0
0 0 0
0 0 0
0 0 0
0 0 0
5 2 10
11 5 25
6 3 14
9 4 20
8 4 20
9 4 18
10 5 22
10 5 22
10 5 24
9 4 20
9 4 21
9 4 20
9 4 21
7 3 16
8 4 20
7 3 16
9 4 20
11 5 25
70 70 77
86 86 92
74 74 83
101 101 111
76 76 90
67 67 75
78 78 85
80 80 85
84 84 91
77 76 88
10 5 23
13 6 29
11 5 24
10 5 22
64 64 69
86 86 98
104 103 118
94 94 102
97 97 107
90 90 95
74 74 78
102 102 111
108 108 118
78 78 84
92 92 98
82 82 90
82 82 94
51 50 58
13 6 30
11 5 27
13 6 30
62 62 72
76 76 86
108 108 118
100 100 110
94 93 104
64 64 75
12 6 27
11 5 25
11 5 25
14 7 31
12 6 26
12 6 28
11 5 24
12 6 28
13 6 28
16 8 35
12 6 26
12 6 27
13 6 28
13 6 27
13 6 29
15 7 33
10 5 23
0 0 0
0 0 0
0 0 0
0 0 0
0 0 0
0 0 0
0 0 0
0 0 0
0 0 0
0 0 0
0 0 0
0 0 0
2 3 13
14 16 16
13 17 3
8 13 0
6 12 0
8 13 0
7 12 0
6 10 0
6 10 0
7 11 0
7 12 8
4 42 52
0 0 12
0 0 8
0 0 8
0 0 11
0 0 14
0 0 9
0 0 15
0 0 12
0 0 13
0 0 11
0 0 13
0 0 12
0 0 11
0 0 17
0 0 14
0 0 17
0 0 18
0 0 17
0 0 20
0 0 19
0 0 22
0 0 22
0 0 21
0 0 24
0 0 25
0 0 27
0 0 25
0 0 27
0 0 35
0 0 32
0 0 34
25 36 30
37 49 6
40 50 9
20 34 0
24 40 0
23 37 0
28 44 0
30 47 0
29 47 0
19 38 0
46 69 13
43 93 77
56 98 59
123 102 61
147 118 70
41 45 43
0 0 50
0 0 51
0 0 50
0 0 46
0 0 50
0 0 0
0 0 0
0 0 0
0 0 0
0 0 0
0 0 0
0 0 0
0 0 0
0 0 0
0 0 0
0 0 0
0 0 0
0 0 0
20 19 22
13 13 16
38 38 47
34 33 41
32 31 38
12 12 15
16 16 19
17 17 20
17 16 20
18 17 21
33 32 38
37 36 44
31 30 38
32 31 39
43 42 50
44 43 51
37 37 45
55 55 67
51 50 59
64 63 79
71 70 81
73 72 82
60 60 70
43 43 48
17 17 20
29 29 33
27 27 30
20 20 23
35 35 39
55 54 59
42 42 47
23 23 25
33 33 36
39 39 43
63 63 68
77 77 81
74 74 79
69 69 73
59 59 63
34 34 36
52 52 54
106 106 111
146 146 155
158 158 165
159 159 167
171 171 177
166 166 173
158 158 164
148 148 156
146 146 154
140 140 147
133 133 138
105 105 110
113 113 118
112 112 118
106 106 110
119 119 124
156 156 163
148 148 153
67 67 70
55 55 57
45 45 47
0 0 0
0 0 0
0 0 0
0 0 0
0 0 0
0 0 0
0 0 0
0 0 0
0 0 0
0 0 0
0 0 0
0 0 0
0 0 0
0 0 0
0 0 0
0 0 0
0 0 0
0 0 0
0 0 0
0 0 0
0 0 0
0 0 0
0 0 0
0 0 0
0 0 0
0 0 0
0 0 0
0 0 0
0 0 0
0 0 0
0 0 0
0 0 0
0 0 0
0 0 0
0 0 0
0 0 0
0 0 0
0 0 0
0 0 0
0 0 0
0 0 0
0 0 0
0 0 0
255 255 255
255 255 255
255 255 255
255 255 255
255 255 255
255 255 255
255 255 255
255 255 255
255 255 255
255 255 255
255 255 255
255 255 255
255 255 255
255 255 255
255 255 255
255 255 255
255 255 255
255 255 255
255 255 255
255 255 255
255 255 255
255 255 255
255 255 255
255 255 255
255 255 255
255 255 255
255 255 255
255 255 255
255 255 255
255 255 255
255 255 255
255 255 255
255 255 255
255 255 255
255 255 255
255 255 255
255 255 255
0 0 0
0 0 0
0 0 0
0 0 0
0 0 0
0 0 0
0 0 0
0 0 0
0 0 0
0 0 0
0 0 0
0 0 0
0 0 0
0 0 0
0 0 0
0 0 0
0 0 0
0 0 0
0 0 0
0 0 0
0 0 0
0 0 0
0 0 0
0 0 0
0 0 0
0 0 0
0 0 0
0 0 0
0 0 0
0 0 0
0 0 0
0 0 0
0 0 0
0 0 0
0 0 0
0 0 0
0 0 0
0 0 0
0 0 0
0 0 0
0 0 0
0 0 0
0 0 0
0 0 0
0 0 0
0 0 0
0 0 0
0 0 0
0 0 0
0 0 0
0 0 0
0 0 0
0 0 0
0 0 0
0 0 0
0 0 0
0 0 0
0 0 0
0 0 0
0 0 0
0 0 0
0 0 0
0 0 0
0 0 0
0 0 0
0 0 0
0 0 0
0 0 0
0 0 0
0 0 0
0 0 0
0 0 0
0 0 0
0 0 0
0 0 0
0 0 0
0 0 0
0 0 0
0 0 0
0 0 0
0 0 0
0 0 0
0 0 0
0 0 0
0 0 0
0 0 0
0 0 0
0 0 0
0 0 0
0 0 0
0 0 0
0 0 0
0 0 0
0 0 0
0 0 0
0 0 0
0 0 0
2 1 5
7 3 17
7 3 16
9 4 21
9 4 20
10 5 24
8 4 19
9 4 19
9 4 22
13 6 29
8 4 21
8 4 20
9 4 21
10 5 23
9 4 20
9 4 22
12 6 28
9 4 20
27 26 35
86 86 92
94 93 102
67 67 75
89 88 93
78 78 89
54 54 65
78 78 87
92 92 100
72 72 79
10 5 23
10 5 24
10 5 23
52 51 59
94 94 102
105 105 114
94 93 104
76 76 83
80 80 90
74 74 81
82 82 92
87 87 99
79 79 85
97 97 105
100 100 114
94 94 104
72 72 77
69 68 72
13 6 28
13 6 29
11 6 25
80 80 89
90 90 99
74 74 83
95 95 105
92 92 99
33 31 43
9 4 22
10 5 24
12 6 26
11 5 25
12 6 26
13 6 28
12 6 28
11 5 25
13 6 28
9 4 21
14 7 32
16 8 34
12 6 27
12 6 28
14 7 31
12 6 27
11 5 26
0 0 0
0 0 0
0 0 0
0 0 0
0 0 0
0 0 0
0 0 0
0 0 0
0 0 0
0 0 0
0 0 0
0 0 0
0 0 13
17 19 26
9 15 0
11 17 0
3 7 0
7 12 0
7 11 0
4 8 0
7 11 0
10 16 0
7 11 0
9 18 17
4 6 11
0 4 16
0 0 10
0 0 11
0 0 8
0 0 9
0 0 12
0 0 13
0 0 16
0 0 13
0 0 13
0 0 9
0 0 10
0 0 16
0 0 14
0 0 13
0 0 17
0 0 17
0 0 21
0 0 25
0 0 22
0 0 22
0 0 24
0 0 23
0 0 27
0 0 24
0 0 29
0 0 33
0 0 30
0 0 31
0 1 32
28 37 20
34 44 2
36 45 9
39 49 11
27 44 0
24 40 0
27 44 0
25 44 0
26 44 0
20 38 1
54 66 15
39 127 123
76 96 56
103 86 42
105 92 50
2 3 48
0 0 51
0 0 50
0 0 48
0 0 46
0 0 48
0 0 0
0 0 0
0 0 0
0 0 0
0 0 0
0 0 0
0 0 0
0 0 0
0 0 0
0 0 0
0 0 0
0 0 0
0 0 0
10 10 14
18 18 22
36 35 43
33 32 40
23 23 28
11 11 15
23 22 26
26 26 33
29 29 37
20 21 26
14 14 17
26 26 31
30 30 37
28 29 37
40 39 48
37 37 47
46 46 58
45 45 55
64 64 79
60 59 72
85 85 100
65 64 75
63 63 74
37 37 44
31 31 35
34 33 39
41 41 45
15 15 17
30 30 33
49 49 54
52 52 58
42 42 45
46 46 49
71 71 78
71 71 77
82 82 88
84 84 90
69 69 74
49 49 53
34 34 36
68 68 72
104 104 110
130 130 139
146 146 154
152 152 162
168 168 176
177 177 186
175 175 181
166 166 175
174 174 182
173 173 180
167 167 174
172 172 179
173 173 181
149 149 155
152 152 157
158 158 165
164 164 171
138 138 144
75 75 79
59 59 62
39 39 41
0 0 0
0 0 0
0 0 0
0 0 0
0 0 0
0 0 0
0 0 0
0 0 0
0 0 0
0 0 0
0 0 0
0 0 0
0 0 0
0 0 0
0 0 0
0 0 0
0 0 0
0 0 0
0 0 0
0 0 0
0 0 0
0 0 0
0 0 0
0 0 0
0 0 0
0 0 0
0 0 0
0 0 0
0 0 0
0 0 0
0 0 0
0 0 0
0 0 0
0 0 0
0 0 0
0 0 0
0 0 0
0 0 0
0 0 0
0 0 0
0 0 0
0 0 0
0 0 0
255 255 255
255 255 255
255 255 255
255 255 255
255 255 255
255 255 255
255 255 255
255 255 255
255 255 255
255 255 255
255 255 255
255 255 255
255 255 255
255 255 255
255 255 255
255 255 255
255 255 255
255 255 255
255 255 255
255 255 255
255 255 255
255 255 255
255 255 255
255 255 255
255 255 255
255 255 255
255 255 255
255 255 255
255 255 255
255 255 255
255 255 255
255 255 255
255 255 255
255 255 255
255 255 255
255 255 255
255 255 255
0 0 0
0 0 0
0 0 0
0 0 0
0 0 0
0 0 0
0 0 0
0 0 0
0 0 0
0 0 0
0 0 0
0 0 0
0 0 0
0 0 0
0 0 0
0 0 0
0 0 0
0 0 0
0 0 0
0 0 0
0 0 0
0 0 0
0 0 0
0 0 0
0 0 0
0 0 0
0 0 0
0 0 0
0 0 0
0 0 0
0 0 0
0 0 0
0 0 0
0 0 0
0 0 0
0 0 0
0 0 0
0 0 0
0 0 0
0 0 0
0 0 0
0 0 0
0 0 0
0 0 0
0 0 0
0 0 0
0 0 0
0 0 0
0 0 0
0 0 0
0 0 0
0 0 0
0 0 0
0 0 0
0 0 0
0 0 0
0 0 0
0 0 0
0 0 0
0 0 0
0 0 0
0 0 0
0 0 0
0 0 0
0 0 0
0 0 0
0 0 0
0 0 0
0 0 0
0 0 0
0 0 0
0 0 0
0 0 0
0 0 0
0 0 0
0 0 0
0 0 0
0 0 0
0 0 0
0 0 0
0 0 0
0 0 0
0 0 0
0 0 0
0 0 0
0 0 0
0 0 0
0 0 0
0 0 0
0 0 0
0 0 0
0 0 0
0 0 0
0 0 0
0 0 0
0 0 0
0 0 0
0 0 0
9 4 20
11 5 24
10 5 22
7 3 16
10 5 22
9 4 21
8 4 20
9 4 22
12 6 27
9 4 21
9 4 21
10 5 22
7 3 17
9 4 20
11 5 25
10 5 23
9 4 21
24 22 31
78 78 90
82 82 95
88 88 95
82 82 90
51 51 58
108 108 115
82 82 93
62 62 74
86 86 98
11 6 26
11 5 25
11 5 26
53 52 63
105 105 112
78 78 84
88 88 96
92 92 100
94 93 98
84 84 95
87 86 96
81 80 92
92 92 102
92 92 102
83 82 91
76 76 86
105 105 119
82 81 92
10 5 21
12 6 26
26 24 41
96 96 107
97 97 107
92 92 100
129 128 141
70 70 80
13 7 29
11 5 25
12 6 28
12 6 27
9 4 20
11 5 26
12 6 25
9 4 21
12 6 27
12 6 27
15 7 34
10 5 22
11 5 24
13 6 28
12 6 27
13 6 30
13 6 31
14 7 31
0 0 0
0 0 0
0 0 0
0 0 0
0 0 0
0 0 0
0 0 0
0 0 0
0 0 0
0 0 0
0 0 0
0 0 0
0 0 11
1 3 17
10 16 2
5 10 0
5 8 0
5 10 0
6 11 0
7 11 0
5 8 0
5 8 0
6 13 3
8 12 0
8 11 0
9 16 11
9 11 16
1 0 12
0 0 11
0 0 8
0 0 16
0 0 13
0 0 10
0 0 16
0 0 14
0 0 16
0 0 12
0 0 14
0 0 16
0 0 17
0 0 22
0 0 18
0 0 15
0 0 21
0 0 20
0 0 22
0 0 23
0 0 28
0 0 26
0 0 26
0 0 28
0 0 28
0 0 30
0 0 34
0 0 37
17 23 26
40 47 7
41 49 10
49 57 18
40 51 5
30 46 2
25 41 0
25 41 0
29 45 0
23 40 3
61 69 18
86 94 59
112 97 55
105 87 47
48 43 40
0 0 46
0 0 49
0 0 49
0 0 49
0 0 50
0 0 45
0 0 0
0 0 0
0 0 0
0 0 0
0 0 0
0 0 0
0 0 0
0 0 0
0 0 0
0 0 0
0 0 0
0 0 0
0 0 0
13 14 15
24 24 31
32 32 41
35 35 45
19 19 24
15 15 19
25 25 29
27 26 33
23 23 29
27 27 34
16 16 20
13 12 15
14 14 18
31 31 38
31 30 38
34 33 41
52 52 65
53 51 62
53 52 64
60 60 71
57 57 69
64 64 75
54 53 63
24 24 29
29 29 34
48 48 56
49 49 56
36 36 41
34 34 38
27 27 30
33 33 36
37 37 40
31 31 33
59 59 65
69 69 76
87 87 94
75 75 81
65 65 70
48 48 50
42 42 45
78 78 82
116 116 122
140 140 148
146 146 156
147 147 158
156 156 165
187 187 199
183 183 191
190 190 201
189 189 197
187 187 195
180 180 190
196 196 205
195 195 206
166 166 173
149 149 158
173 173 179
154 154 159
129 129 136
68 68 71
49 49 51
30 30 32
0 0 0
0 0 0
0 0 0
0 0 0
0 0 0
0 0 0
0 0 0
0 0 0
0 0 0
0 0 0
0 0 0
0 0 0
0 0 0
0 0 0
0 0 0
0 0 0
0 0 0
0 0 0
0 0 0
0 0 0
0 0 0
0 0 0
0 0 0
0 0 0
0 0 0
0 0 0
0 0 0
0 0 0
0 0 0
0 0 0
0 0 0
0 0 0
0 0 0
0 0 0
0 0 0
0 0 0
0 0 0
0 0 0
0 0 0
0 0 0
0 0 0
0 0 0
0 0 0
255 255 255
255 255 255
255 255 255
255 255 255
255 255 255
255 255 255
255 255 255
255 255 255
255 255 255
255 255 255
255 255 255
255 255 255
255 255 255
255 255 255
255 255 255
255 255 255
255 255 255
255 255 255
255 255 255
255 255 255
255 255 255
255 255 255
255 255 255
255 255 255
255 255 255
255 255 255
255 255 255
255 255 255
255 255 255
255 255 255
255 255 255
255 255 255
255 255 255
255 255 255
255 255 255
255 255 255
255 255 255
0 0 0
0 0 0
0 0 0
0 0 0
0 0 0
0 0 0
0 0 0
0 0 0
0 0 0
0 0 0
0 0 0
0 0 0
0 0 0
0 0 0
0 0 0
0 0 0
0 0 0
0 0 0
0 0 0
0 0 0
0 0 0
0 0 0
0 0 0
0 0 0
0 0 0
0 0 0
0 0 0
0 0 0
0 0 0
0 0 0
0 0 0
0 0 0
0 0 0
0 0 0
0 0 0
0 0 0
0 0 0
0 0 0
0 0 0
0 0 0
0 0 0
0 0 0
0 0 0
0 0 0
0 0 0
0 0 0
0 0 0
0 0 0
0 0 0
0 0 0
0 0 0
0 0 0
0 0 0
0 0 0
0 0 0
0 0 0
0 0 0
0 0 0
0 0 0
0 0 0
0 0 0
0 0 0
0 0 0
0 0 0
0 0 0
0 0 0
0 0 0
0 0 0
0 0 0
0 0 0
0 0 0
0 0 0
0 0 0
0 0 0
0 0 0
0 0 0
0 0 0
0 0 0
0 0 0
0 0 0
0 0 0
0 0 0
0 0 0
0 0 0
0 0 0
0 0 0
0 0 0
0 0 0
0 0 0
0 0 0
0 0 0
0 0 0
0 0 0
0 0 0
0 0 0
0 0 0
0 0 0
2 1 5
10 5 21
9 4 20
6 3 14
10 5 22
8 4 18
9 4 20
9 4 21
10 5 23
8 4 20
9 4 22
11 5 24
8 4 20
9 4 21
10 5 21
9 4 21
9 4 20
11 5 24
12 7 25
67 66 72
117 117 125
82 82 92
67 67 73
75 75 83
82 82 88
94 93 104
76 76 83
82 82 94
61 61 71
12 5 25
9 4 20
65 64 74
100 100 105
80 80 87
107 106 116
80 80 94
61 61 69
105 105 119
90 90 101
94 93 100
94 93 98
90 90 101
104 103 113
105 105 120
74 74 85
89 89 102
15 13 24
12 6 27
41 40 48
102 102 116
78 78 89
120 119 126
99 98 102
86 86 98
15 7 34
11 5 26
11 5 25
12 6 27
9 4 21
12 6 27
13 6 29
13 6 30
15 7 33
13 6 29
13 6 29
12 6 28
11 5 26
13 6 28
15 7 33
13 6 29
14 7 31
13 6 28
0 0 0
0 0 0
0 0 0
0 0 0
0 0 0
0 0 0
0 0 0
0 0 0
0 0 0
0 0 0
0 0 0
0 0 0
0 0 8
10 9 18
9 15 2
5 11 0
6 12 0
5 11 0
7 14 0
5 11 0
5 9 0
5 9 0
7 12 0
9 13 1
10 15 2
9 13 0
11 15 0
14 17 5
11 14 10
0 0 15
0 0 12
0 0 13
0 0 13
0 0 14
0 0 17
0 0 17
0 0 17
0 0 18
0 0 16
0 0 16
0 0 21
0 0 17
0 0 19
0 0 20
0 0 18
0 0 23
0 0 22
0 0 24
0 0 26
0 0 25
0 0 31
0 0 34
0 0 32
0 0 43
0 0 43
0 1 45
35 43 40
47 53 15
51 58 18
43 52 11
40 49 8
27 42 1
29 43 5
45 51 14
38 47 7
52 56 29
76 70 37
91 80 38
71 73 28
1 4 47
0 0 45
0 0 47
0 0 45
0 0 49
0 0 49
0 0 41
0 0 0
0 0 0
0 0 0
0 0 0
0 0 0
0 0 0
0 0 0
0 0 0
0 0 0
0 0 0
0 0 0
0 0 0
0 0 0
10 10 14
26 26 33
28 28 36
29 28 37
32 31 36
18 17 21
22 22 28
30 28 34
15 15 18
27 26 32
28 27 34
30 29 36
29 28 35
26 25 31
23 22 27
23 22 28
30 30 38
34 34 41
33 33 41
33 32 40
43 43 50
46 46 55
44 44 52
22 22 26
39 39 45
56 56 63
62 61 70
65 65 75
62 62 69
68 68 73
48 48 54
43 42 47
45 45 50
45 45 49
77 77 83
77 77 85
72 72 77
64 64 68
71 71 76
47 47 51
89 89 94
116 116 124
119 119 127
133 133 141
149 149 158
169 169 180
176 176 184
168 168 177
192 192 203
216 216 223
200 200 209
185 185 197
197 197 208
177 177 186
174 174 184
173 173 181
183 183 191
113 113 117
99 99 105
67 67 70
53 53 56
14 14 15
0 0 0
0 0 0
0 0 0
0 0 0
0 0 0
0 0 0
0 0 0
0 0 0
0 0 0
0 0 0
0 0 0
0 0 0
0 0 0
0 0 0
0 0 0
0 0 0
0 0 0
0 0 0
0 0 0
0 0 0
0 0 0
0 0 0
0 0 0
0 0 0
0 0 0
0 0 0
0 0 0
0 0 0
0 0 0
0 0 0
0 0 0
0 0 0
0 0 0
0 0 0
0 0 0
0 0 0
0 0 0
0 0 0
0 0 0
0 0 0
0 0 0
0 0 0
0 0 0
255 255 255
255 255 255
255 255 255
255 255 255
255 255 255
255 255 255
255 255 255
255 255 255
255 255 255
255 255 255
255 255 255
255 255 255
255 255 255
255 255 255
255 255 255
255 255 255
255 255 255
255 255 255
255 255 255
255 255 255
255 255 255
255 255 255
255 255 255
255 255 255
255 255 255
255 255 255
255 255 255
255 255 255
255 255 255
255 255 255
255 255 255
255 255 255
255 255 255
255 255 255
255 255 255
255 255 255
255 255 255
0 0 0
0 0 0
0 0 0
0 0 0
0 0 0
0 0 0
0 0 0
0 0 0
0 0 0
0 0 0
0 0 0
0 0 0
0 0 0
0 0 0
0 0 0
0 0 0
0 0 0
0 0 0
0 0 0
0 0 0
0 0 0
0 0 0
0 0 0
0 0 0
0 0 0
0 0 0
0 0 0
0 0 0
0 0 0
0 0 0
0 0 0
0 0 0
0 0 0
0 0 0
0 0 0
0 0 0
0 0 0
0 0 0
0 0 0
0 0 0
0 0 0
0 0 0
0 0 0
0 0 0
0 0 0
0 0 0
0 0 0
0 0 0
0 0 0
0 0 0
0 0 0
0 0 0
0 0 0
0 0 0
0 0 0
0 0 0
0 0 0
0 0 0
0 0 0
0 0 0
0 0 0
0 0 0
0 0 0
0 0 0
0 0 0
0 0 0
0 0 0
0 0 0
0 0 0
0 0 0
0 0 0
0 0 0
0 0 0
0 0 0
0 0 0
0 0 0
0 0 0
0 0 0
0 0 0
0 0 0
0 0 0
0 0 0
0 0 0
0 0 0
0 0 0
0 0 0
0 0 0
0 0 0
0 0 0
0 0 0
0 0 0
0 0 0
0 0 0
0 0 0
0 0 0
0 0 0
0 0 0
2 1 5
7 3 18
11 5 24
8 4 17
9 4 21
9 4 20
12 6 26
13 6 28
7 3 19
12 6 27
10 5 25
11 5 25
9 4 20
10 5 23
11 5 25
8 4 19
9 4 20
9 4 22
9 4 18
54 53 61
88 88 90
65 65 69
74 74 83
57 57 60
104 103 112
65 65 75
85 84 94
97 97 102
70 70 78
11 6 25
10 5 23
59 59 67
82 82 92
76 76 84
86 86 94
72 72 77
22 20 31
72 72 80
104 103 110
60 59 67
86 86 96
82 82 90
65 65 72
80 80 85
88 88 95
92 92 105
50 49 60
11 5 24
52 51 61
100 100 109
84 84 91
99 99 106
97 97 106
51 50 59
12 6 27
11 5 25
11 5 23
11 5 25
12 5 26
11 5 25
10 5 25
12 6 28
15 7 34
13 6 29
10 5 25
12 6 27
14 7 31
14 7 31
15 7 34
13 6 29
11 5 26
15 7 33
0 0 0
0 0 0
0 0 0
0 0 0
0 0 0
0 0 0
0 0 0
0 0 0
0 0 0
0 0 0
0 0 0
0 0 0
0 0 6
0 1 16
16 17 8
5 10 0
4 8 0
7 14 0
7 12 0
4 9 0
5 11 0
7 13 0
9 15 1
10 14 2
15 18 4
15 17 2
14 16 4
16 17 7
21 20 11
24 22 14
3 3 14
0 0 12
0 0 13
0 0 10
0 0 11
0 0 13
0 0 13
0 0 13
0 0 18
0 0 13
0 0 19
0 0 20
0 0 23
0 0 18
0 0 23
0 0 23
0 0 21
0 0 28
0 0 22
0 0 26
0 0 33
0 0 35
0 0 38
0 0 41
0 0 38
0 0 44
15 23 49
46 56 15
38 44 11
50 56 11
54 55 21
37 44 8
51 56 18
58 59 22
56 64 14
46 51 29
69 67 30
95 82 41
54 67 23
0 4 45
0 0 44
0 0 49
0 0 47
0 0 49
0 0 47
0 0 36
18 18 22
0 0 0
0 0 0
0 0 0
0 0 0
0 0 0
18 18 22
0 0 0
0 0 0
18 18 22
0 0 0
0 0 0
0 0 0
18 18 22
24 24 32
29 29 37
37 37 49
38 38 48
18 18 24
38 38 48
28 28 35
20 19 23
27 27 34
31 31 39
44 43 56
44 44 53
36 35 44
29 28 36
29 29 37
28 27 33
23 22 28
15 15 19
14 14 18
20 20 23
35 34 40
27 27 32
37 36 44
49 48 58
59 58 67
80 80 93
77 77 87
73 73 84
76 76 86
67 67 75
74 74 83
70 70 79
46 46 51
58 58 64
63 63 68
46 46 50
41 41 45
47 47 51
36 36 39
68 68 73
104 104 110
122 122 129
150 150 159
163 163 172
158 158 169
154 154 163
173 173 180
196 196 206
210 210 223
196 196 207
184 184 192
182 182 193
171 171 181
177 177 186
175 175 183
160 160 166
85 85 88
73 73 77
51 51 53
49 49 51
18 18 22
0 0 0
0 0 0
0 0 0
0 0 0
0 0 0
0 0 0
0 0 0
0 0 0
0 0 0
0 0 0
0 0 0
0 0 0
0 0 0
18 18 22
0 0 0
0 0 0
0 0 0
18 18 22
0 0 0
0 0 0
0 0 0
0 0 0
0 0 0
0 0 0
0 0 0
18 18 22
0 0 0
0 0 0
0 0 0
0 0 0
0 0 0
18 18 22
0 0 0
0 0 0
0 0 0
0 0 0
18 18 22
0 0 0
0 0 0
0 0 0
4 4 6
0 0 0
0 0 0
255 255 255
255 255 255
255 255 255
255 255 255
255 255 255
255 255 255
255 255 255
255 255 255
255 255 255
255 255 255
255 255 255
255 255 255
255 255 255
255 255 255
255 255 255
255 255 255
255 255 255
255 255 255
255 255 255
255 255 255
255 255 255
255 255 255
255 255 255
255 255 255
255 255 255
255 255 255
255 255 255
255 255 255
255 255 255
255 255 255
255 255 255
255 255 255
255 255 255
255 255 255
255 255 255
255 255 255
255 255 255
0 0 0
0 0 0
0 0 0
0 0 0
0 0 0
0 0 0
0 0 0
0 0 0
0 0 0
0 0 0
0 0 0
0 0 0
0 0 0
0 0 0
0 0 0
0 0 0
0 0 0
0 0 0
0 0 0
0 0 0
0 0 0
0 0 0
0 0 0
0 0 0
0 0 0
0 0 0
0 0 0
0 0 0
0 0 0
0 0 0
0 0 0
0 0 0
0 0 0
0 0 0
0 0 0
0 0 0
0 0 0
0 0 0
0 0 0
0 0 0
0 0 0
0 0 0
0 0 0
0 0 0
0 0 0
0 0 0
0 0 0
0 0 0
0 0 0
0 0 0
0 0 0
0 0 0
0 0 0
0 0 0
0 0 0
0 0 0
0 0 0
0 0 0
0 0 0
0 0 0
0 0 0
0 0 0
0 0 0
0 0 0
0 0 0
0 0 0
0 0 0
0 0 0
0 0 0
0 0 0
0 0 0
0 0 0
0 0 0
0 0 0
0 0 0
0 0 0
0 0 0
0 0 0
0 0 0
0 0 0
0 0 0
0 0 0
0 0 0
0 0 0
0 0 0
0 0 0
0 0 0
0 0 0
0 0 0
0 0 0
0 0 0
0 0 0
0 0 0
0 0 0
0 0 0
0 0 0
0 0 0
0 0 0
8 4 19
10 5 23
9 4 21
7 3 17
8 4 19
8 4 19
12 6 25
8 4 19
9 4 22
8 4 19
7 3 17
10 5 22
10 5 24
12 6 26
11 5 24
7 3 16
11 5 25
10 5 23
44 43 52
100 100 105
74 74 83
72 72 77
76 76 86
84 84 95
104 103 117
105 105 110
76 76 81
89 89 99
10 5 24
52 51 58
90 90 95
70 69 76
109 109 120
80 80 90
86 85 90
10 5 22
37 36 39
92 92 102
84 84 89
92 92 102
113 112 125
94 93 108
100 100 110
86 86 96
99 98 110
76 76 83
13 6 27
89 89 97
95 95 105
103 103 115
86 86 96
102 102 115
37 35 48
13 6 30
13 6 29
11 5 26
11 5 24
10 5 22
9 4 20
12 6 28
15 7 32
9 4 22
13 6 29
11 5 26
14 7 32
12 6 29
11 5 24
14 7 32
12 6 26
12 6 27
12 6 28
0 0 0
0 0 0
0 0 0
0 0 0
0 0 0
0 0 0
0 0 0
0 0 0
0 0 0
0 0 0
0 0 0
0 0 0
0 0 1
0 0 5
11 13 18
6 11 0
5 10 0
5 8 0
6 10 0
7 14 0
5 10 0
6 12 0
8 13 0
15 19 5
18 19 6
16 17 6
14 15 6
19 17 9
22 20 11
20 20 11
10 13 9
0 0 16
0 0 14
0 0 12
0 0 14
0 0 14
0 0 17
0 0 18
0 0 17
0 0 19
0 0 18
0 0 20
0 0 19
0 0 22
0 0 22
0 0 22
0 0 24
0 0 27
0 0 28
0 0 24
0 0 31
0 0 33
0 0 30
0 0 34
0 0 33
0 0 32
0 1 36
39 48 25
39 42 11
47 51 14
47 49 16
47 47 14
56 53 19
54 58 19
43 48 12
50 53 33
76 74 33
65 65 25
54 64 22
0 0 47
0 0 47
0 0 46
0 0 49
0 0 51
0 0 46
0 0 27
0 0 0
0 0 0
0 0 0
18 18 22
0 0 0
0 0 0
18 18 22
18 18 22
0 0 0
0 0 0
18 18 22
0 0 0
18 18 22
18 18 22
18 18 23
31 31 38
31 31 40
30 29 37
22 22 28
42 41 51
40 40 51
28 28 36
33 33 41
25 25 33
45 45 57
50 48 59
51 51 65
52 51 65
40 40 51
35 35 43
28 28 34
19 19 23
25 25 31
42 42 50
31 31 37
40 40 48
57 56 67
72 72 83
72 72 86
77 77 90
85 84 98
88 88 100
93 93 106
72 72 81
56 56 65
62 62 68
40 40 45
34 34 38
53 53 58
42 42 46
28 28 31
22 22 24
46 46 49
83 83 90
129 129 139
165 165 176
164 164 177
169 169 180
169 169 178
152 152 161
183 183 192
184 184 195
204 204 214
183 183 195
189 189 201
197 197 208
179 179 189
159 159 168
138 138 148
115 115 121
58 58 61
46 46 49
47 47 49
39 39 42
0 0 0
18 18 22
0 0 0
0 0 0
18 18 22
25 25 32
3 5 2
0 0 0
18 18 22
18 18 22
18 18 22
0 0 0
0 0 0
31 31 39
0 0 0
0 0 0
0 0 0
0 0 0
0 0 0
18 18 22
0 0 0
0 0 0
0 0 0
0 0 0
0 0 0
18 18 22
25 25 32
0 0 0
25 25 32
0 0 0
18 18 22
18 18 22
18 18 22
0 0 0
0 0 0
0 0 0
0 0 0
18 18 22
18 18 22
18 18 22
0 0 0
0 0 0
0 0 0
0 0 0
255 255 255
255 255 255
255 255 255
255 255 255
255 255 255
255 255 255
255 255 255
255 255 255
255 255 255
255 255 255
255 255 255
255 255 255
255 255 255
255 255 255
255 255 255
255 255 255
255 255 255
255 255 255
255 255 255
255 255 255
255 255 255
255 255 255
255 255 255
255 255 255
255 255 255
255 255 255
255 255 255
255 255 255
255 255 255
255 255 255
255 255 255
255 255 255
255 255 255
255 255 255
255 255 255
255 255 255
255 255 255
0 0 0
18 18 22
0 0 0
0 0 0
0 0 0
0 0 0
0 0 0
18 18 22
0 0 0
18 18 22
0 0 0
0 0 0
0 0 0
0 0 0
0 0 0
0 0 0
18 18 22
0 0 0
0 0 0
0 0 0
0 0 0
0 0 0
0 0 0
0 0 0
0 0 0
18 18 22
0 0 0
0 0 0
0 0 0
0 0 0
0 0 0
0 0 0
0 0 0
0 0 0
0 0 0
0 0 0
0 0 0
0 0 0
0 0 0
0 0 0
0 0 0
0 0 0
0 0 0
0 0 0
0 0 0
0 0 0
0 0 0
0 0 0
0 0 0
0 0 0
0 0 0
0 0 0
0 0 0
0 0 0
0 0 0
0 0 0
0 0 0
0 0 0
0 0 0
0 0 0
0 0 0
0 0 0
0 0 0
0 0 0
0 0 0
0 0 0
0 0 0
0 0 0
0 0 0
0 0 0
0 0 0
0 0 0
0 0 0
0 0 0
0 0 0
0 0 0
0 0 0
0 0 0
0 0 0
0 0 0
0 0 0
0 0 0
0 0 0
0 0 0
0 0 0
0 0 0
0 0 0
0 0 0
0 0 0
0 0 0
0 0 0
0 0 0
0 0 0
0 0 0
0 0 0
0 0 0
0 0 0
3 1 8
9 4 20
8 4 19
10 5 23
8 4 20
10 5 22
10 5 22
8 4 18
11 5 24
7 3 17
5 2 12
11 5 23
9 4 21
11 5 24
8 4 20
9 4 20
9 4 21
11 5 25
9 4 20
11 6 24
86 86 92
86 86 94
94 94 99
95 95 101
102 102 107
86 86 100
81 80 90
82 82 93
97 97 108
38 37 51
61 60 70
74 74 81
54 54 60
90 90 99
86 86 96
86 86 88
11 5 25
43 43 50
88 88 95
95 95 107
97 97 109
86 86 96
83 83 95
86 86 98
106 106 114
99 98 106
98 98 104
33 31 44
93 93 103
97 97 107
102 102 113
113 112 120
72 72 79
11 6 25
14 7 30
14 7 31
12 6 26
16 8 36
10 5 23
13 6 28
12 6 26
11 5 24
14 7 30
12 6 27
14 7 30
16 8 35
13 6 30
14 7 29
12 6 27
11 5 25
14 7 32
22 19 35
0 0 0
18 18 22
18 18 22
0 0 0
18 18 22
0 0 0
18 18 22
0 0 0
18 18 22
0 0 0
18 18 22
0 0 0
0 0 0
18 18 24
18 15 17
11 13 4
7 13 0
8 13 0
8 13 0
8 14 0
9 15 1
10 15 3
8 14 1
14 17 6
14 14 6
15 14 7
15 15 9
24 20 13
23 20 11
15 17 6
6 9 13
0 0 15
0 0 17
0 0 14
0 0 15
0 0 16
0 0 15
0 0 18
0 0 21
0 0 20
0 0 23
0 0 19
0 0 18
0 0 19
0 0 23
0 0 24
0 0 28
0 0 24
0 0 25
0 0 28
0 0 29
0 0 29
0 0 28
0 0 37
0 0 33
0 0 36
0 0 39
39 51 34
48 55 16
45 49 12
49 49 18
52 52 16
40 42 10
53 54 16
48 52 16
55 54 20
51 53 29
56 61 14
62 67 22
10 12 43
0 0 47
1 2 44
0 0 52
0 0 49
0 0 44
0 0 16
0 0 0
0 0 0
0 0 0
25 25 32
18 18 22
0 0 0
18 18 22
0 0 0
0 0 0
0 0 0
18 18 22
0 0 0
18 18 22
0 0 0
26 26 34
29 29 39
32 32 40
28 27 34
23 23 30
37 37 46
38 38 48
40 40 51
33 33 43
44 43 55
54 52 64
52 52 65
60 59 74
52 51 66
37 37 48
43 43 53
36 36 44
36 36 44
45 44 54
51 51 62
64 64 77
61 61 73
73 73 86
71 71 84
67 67 80
81 81 91
81 81 95
88 88 102
82 82 94
69 69 79
50 50 55
43 43 48
28 28 30
49 49 53
57 57 63
57 57 61
45 45 50
31 31 34
71 71 76
105 105 115
143 143 156
167 167 179
182 182 196
175 175 188
156 156 168
147 147 159
164 164 176
182 182 191
175 175 186
176 176 186
189 189 202
195 195 206
159 159 168
107 107 113
87 87 92
78 78 81
80 80 84
67 67 70
82 82 86
60 60 64
25 25 32
18 18 22
0 0 0
0 0 0
25 25 32
25 25 32
0 0 0
0 0 0
0 0 0
18 18 22
25 25 32
0 0 0
25 25 32
0 0 0
0 0 0
0 0 0
25 25 32
18 18 22
18 18 22
18 18 22
18 18 22
25 25 32
0 0 0
18 18 22
18 18 22
0 0 0
0 0 0
25 25 32
0 0 0
18 18 22
0 0 0
0 0 0
18 18 22
25 25 32
31 31 39
0 0 0
6 6 9
0 0 0
0 0 0
0 0 0
0 0 0
18 18 22
0 0 0
18 18 22
255 255 255
255 255 255
255 255 255
255 255 255
255 255 255
255 255 255
255 255 255
255 255 255
255 255 255
255 255 255
255 255 255
255 255 255
255 255 255
255 255 255
255 255 255
255 255 255
255 255 255
255 255 255
255 255 255
255 255 255
255 255 255
255 255 255
255 255 255
255 255 255
255 255 255
255 255 255
255 255 255
255 255 255
255 255 255
255 255 255
255 255 255
255 255 255
255 255 255
255 255 255
255 255 255
255 255 255
255 255 255
0 0 0
0 0 0
25 25 32
0 0 0
18 18 22
0 0 0
25 25 32
0 0 0
0 0 0
0 0 0
0 0 0
0 0 0
0 0 0
0 0 0
0 0 0
0 0 0
25 25 32
36 36 45
0 0 0
18 18 22
31 31 39
0 0 0
18 18 22
0 0 0
0 0 0
18 18 22
0 0 0
25 25 32
0 0 0
0 0 0
0 0 0
0 0 0
0 0 0
18 18 22
18 18 22
0 0 0
18 18 22
18 18 22
0 0 0
0 0 0
0 0 0
0 0 0
18 18 22
0 0 0
0 0 0
0 0 0
0 0 0
18 18 22
0 0 0
0 0 0
0 0 0
0 0 0
0 0 0
0 0 0
0 0 0
0 0 0
0 0 0
0 0 0
0 0 0
0 0 0
0 0 0
0 0 0
0 0 0
0 0 0
0 0 0
0 0 0
0 0 0
0 0 0
0 0 0
0 0 0
0 0 0
0 0 0
0 0 0
0 0 0
0 0 0
0 0 0
0 0 0
0 0 0
0 0 0
0 0 0
0 0 0
0 0 0
0 0 0
0 0 0
0 0 0
0 0 0
0 0 0
0 0 0
0 0 0
0 0 0
0 0 0
18 18 22
0 0 0
0 0 0
0 0 0
0 0 0
0 0 0
0 0 0
7 3 19
8 4 18
10 5 24
10 5 22
9 4 19
9 4 19
11 5 24
9 4 20
11 5 24
10 5 22
11 5 27
9 4 19
9 4 22
10 5 23
10 5 23
9 4 21
9 4 21
9 4 20
11 5 24
67 67 74
88 88 97
54 54 66
87 87 103
99 98 108
65 65 75
86 86 94
88 88 92
86 86 94
50 50 56
80 79 90
90 90 101
72 72 80
72 72 80
99 98 110
43 41 50
11 5 26
9 4 21
95 95 103
86 86 100
90 90 99
97 97 104
78 78 91
95 95 105
94 93 101
80 80 88
94 94 103
60 59 70
86 86 100
97 97 108
94 94 110
90 90 100
53 53 60
11 5 25
12 6 26
11 5 26
13 6 28
11 5 24
13 6 29
14 7 32
11 5 25
12 6 26
14 7 31
12 6 27
11 5 25
13 6 30
12 6 27
9 4 21
14 7 32
12 6 27
11 5 25
13 6 29
18 18 22
0 0 0
18 18 22
0 0 0
0 0 0
0 0 0
18 18 22
18 18 22
18 18 22
0 0 0
0 0 0
0 0 0
0 0 0
0 0 8
0 3 17
9 11 16
7 11 0
7 12 0
10 15 1
10 16 2
5 9 0
13 16 4
11 14 3
14 15 6
15 16 8
15 14 9
17 15 11
21 19 11
23 24 10
8 11 11
0 0 13
0 0 14
0 0 15
0 0 17
0 0 18
0 0 13
0 0 17
0 0 21
0 0 18
0 0 22
0 0 19
0 0 18
0 0 20
0 0 20
0 0 19
0 0 23
0 0 24
0 0 23
0 0 24
0 0 28
0 0 25
0 0 29
0 0 27
0 0 30
0 0 34
0 0 34
0 0 33
36 41 32
51 48 21
43 46 13
50 53 19
49 47 16
46 48 12
49 49 14
50 51 18
58 58 22
54 55 32
52 59 17
63 67 27
2 2 47
0 0 42
39 37 47
0 0 44
0 0 46
0 0 42
0 0 5
18 18 22
18 18 22
18 18 22
18 18 22
0 0 0
18 18 22
18 18 22
18 18 22
18 18 22
31 31 39
0 0 0
31 31 39
18 18 22
25 25 32
13 13 18
27 27 34
29 29 39
31 31 39
20 20 24
25 24 30
29 29 36
25 24 31
40 39 49
49 48 61
51 51 63
44 44 56
47 47 60
39 39 49
38 38 49
43 42 52
41 41 50
47 47 60
52 52 64
56 56 68
62 62 74
72 72 89
87 86 102
76 75 92
77 76 88
73 73 86
74 74 87
87 87 100
70 70 81
39 39 44
34 34 38
27 27 31
33 33 36
64 64 71
78 78 88
80 80 87
76 76 82
36 36 39
87 87 94
125 125 135
162 162 174
174 174 186
178 178 189
155 155 166
149 149 159
152 152 164
158 158 170
175 175 184
159 159 170
172 172 185
182 182 193
168 168 177
114 114 121
55 55 58
73 73 78
96 96 103
94 94 101
95 95 101
97 97 102
40 40 42
18 18 22
0 0 0
18 18 22
25 25 32
18 18 22
25 25 32
18 18 22
0 0 0
18 18 22
31 31 39
18 18 22
18 18 22
25 25 32
18 18 22
25 25 32
18 18 22
0 0 0
18 18 22
18 18 22
18 18 22
18 18 22
25 25 32
0 0 0
18 18 22
31 31 39
0 0 0
18 18 22
0 0 0
18 18 22
0 0 0
31 31 39
0 0 0
0 0 0
18 18 22
18 18 22
18 18 22
0 0 0
31 31 39
18 18 22
0 0 0
18 18 22
25 25 32
18 18 22
0 0 0
255 255 255
255 255 255
255 255 255
255 255 255
255 255 255
255 255 255
255 255 255
255 255 255
255 255 255
255 255 255
255 255 255
255 255 255
255 255 255
255 255 255
255 255 255
255 255 255
255 255 255
255 255 255
255 255 255
255 255 255
255 255 255
255 255 255
255 255 255
255 255 255
255 255 255
255 255 255
255 255 255
255 255 255
255 255 255
255 255 255
255 255 255
255 255 255
255 255 255
255 255 255
255 255 255
255 255 255
255 255 255
18 18 22
18 18 22
0 0 0
0 0 0
0 0 0
0 0 0
0 0 0
0 0 0
25 25 32
18 18 22
25 25 32
18 18 22
18 18 22
25 25 32
18 18 22
0 0 0
25 25 32
0 0 0
18 18 22
0 0 0
0 0 0
0 0 0
18 18 22
0 0 0
18 18 22
0 0 0
0 0 0
0 0 0
0 0 0
18 18 22
18 18 22
0 0 0
0 0 0
0 0 0
18 18 22
0 0 0
25 25 32
0 0 0
0 0 0
0 0 0
0 0 0
0 0 0
0 0 0
25 25 32
0 0 0
0 0 0
0 0 0
31 31 39
18 18 22
0 0 0
0 0 0
0 0 0
0 0 0
0 0 0
0 0 0
0 0 0
0 0 0
0 0 0
25 25 32
0 0 0
18 18 22
0 0 0
0 0 0
0 0 0
0 0 0
0 0 0
0 0 0
0 0 0
0 0 0
0 0 0
0 0 0
18 18 22
25 25 32
0 0 0
0 0 0
0 0 0
18 18 22
0 0 0
0 0 0
18 18 22
0 0 0
0 0 0
0 0 0
18 18 22
0 0 0
0 0 0
0 0 0
0 0 0
18 18 22
0 0 0
0 0 0
18 18 22
18 18 22
0 0 0
0 0 0
0 0 0
0 0 0
2 1 5
7 3 16
9 4 18
9 4 20
10 5 22
8 4 18
10 5 21
8 4 19
10 5 23
8 4 21
10 5 23
9 4 20
8 4 20
9 4 20
10 5 22
11 5 25
10 5 23
9 4 21
10 5 23
10 5 23
55 54 64
82 82 88
97 97 106
80 80 89
81 81 90
94 93 104
97 97 105
94 93 103
68 68 80
84 84 91
101 101 116
78 78 89
121 121 130
83 83 94
102 102 109
16 14 26
8 4 19
13 6 28
80 80 87
99 99 104
86 86 92
84 84 93
84 84 93
67 67 78
102 102 113
86 86 92
111 111 123
90 90 100
95 95 105
103 103 113
99 98 106
102 102 114
47 46 53
11 5 25
12 6 28
13 6 28
13 6 29
12 6 27
15 7 35
13 6 29
13 6 28
13 6 30
13 6 28
14 7 31
13 6 29
11 5 25
9 4 21
13 6 30
13 6 28
11 5 26
14 7 31
13 6 29
7 7 9
0 0 0
25 25 32
25 25 32
31 31 39
25 25 32
0 0 0
0 0 0
18 18 22
0 0 0
18 18 22
0 0 0
0 0 0
0 0 5
0 0 12
13 10 10
17 14 8
6 11 0
14 18 3
4 6 0
18 18 9
14 16 6
17 19 7
20 21 10
17 18 9
18 17 11
16 13 9
16 14 7
13 16 5
2 4 10
0 0 15
0 0 13
0 0 17
0 0 14
0 0 16
0 0 17
0 0 15
0 0 16
0 0 18
0 0 21
0 0 20
0 0 20
0 0 20
0 0 19
0 0 25
0 0 24
0 0 26
0 0 25
0 0 25
0 0 29
0 0 26
0 0 27
0 0 30
0 0 31
0 0 35
0 0 34
37 33 43
57 59 31
52 48 24
45 48 16
47 50 18
66 60 35
49 51 16
49 51 16
59 56 21
65 63 26
69 66 38
54 57 17
59 61 30
0 0 44
35 33 49
43 45 35
0 0 45
0 0 43
0 0 33
18 18 22
18 18 22
25 25 32
36 36 45
0 0 0
25 25 32
18 18 22
18 18 22
0 0 0
0 0 0
18 18 22
0 0 0
31 31 39
18 18 22
18 18 22
25 25 32
33 33 42
31 31 41
38 38 49
27 27 37
10 10 13
14 14 17
15 15 20
28 28 35
40 40 52
34 34 44
37 37 47
45 45 55
42 41 51
37 37 46
44 44 53
49 48 59
48 47 59
47 47 59
52 52 64
60 60 73
65 65 78
82 82 96
71 71 85
71 70 83
71 71 83
71 71 85
76 76 87
52 52 59
35 35 41
39 39 44
47 47 52
68 68 77
88 88 97
105 105 114
90 90 98
81 81 91
51 51 56
82 82 91
123 123 133
152 152 164
166 166 178
149 149 162
136 136 146
137 137 148
147 147 157
156 156 166
162 162 173
156 156 167
160 160 170
132 132 140
91 91 98
72 72 77
103 103 109
119 119 126
133 133 140
108 108 117
86 86 93
95 95 101
25 25 32
31 31 39
31 31 39
25 25 32
0 0 0
0 0 0
18 18 22
0 0 0
0 0 0
0 0 0
0 0 0
36 36 45
18 18 22
18 18 23
18 18 22
31 31 40
31 31 39
0 0 0
25 25 32
18 18 22
18 18 22
18 18 22
25 25 32
0 0 0
25 25 32
18 18 22
18 18 22
25 25 32
18 18 22
31 31 39
18 18 22
18 18 22
25 25 32
0 0 0
18 18 22
18 18 22
31 31 39
0 0 0
25 25 32
0 0 0
31 31 39
25 25 32
0 0 0
18 18 22
25 25 32
255 255 255
255 255 255
255 255 255
255 255 255
255 255 255
255 255 255
255 255 255
255 255 255
255 255 255
255 255 255
255 255 255
255 255 255
255 255 255
255 255 255
255 255 255
255 255 255
255 255 255
255 255 255
255 255 255
255 255 255
255 255 255
255 255 255
255 255 255
255 255 255
255 255 255
255 255 255
255 255 255
255 255 255
255 255 255
255 255 255
255 255 255
255 255 255
255 255 255
255 255 255
255 255 255
255 255 255
255 255 255
18 18 22
18 18 22
0 0 0
0 0 0
25 25 32
18 18 22
25 25 32
18 18 22
25 25 32
25 25 32
18 18 22
0 0 0
18 18 22
25 25 32
0 0 0
0 0 0
25 25 32
18 18 22
0 0 0
0 0 0
0 0 0
18 18 22
18 18 22
0 0 0
0 0 0
18 18 22
18 18 22
18 18 22
0 0 0
25 25 32
0 0 0
18 18 22
25 25 32
0 0 0
31 31 39
18 18 22
0 0 0
18 18 22
0 0 0
0 0 0
18 18 22
0 0 0
25 25 32
0 0 0
18 18 22
18 18 22
18 18 22
0 0 0
0 0 0
18 18 22
0 0 0
18 18 22
25 25 32
0 0 0
0 0 0
25 25 32
25 25 32
18 18 22
18 18 22
0 0 0
0 0 0
31 31 39
18 18 22
0 0 0
0 0 0
18 18 22
18 18 22
0 0 0
0 0 0
0 0 0
18 18 22
18 18 22
0 0 0
18 18 22
0 0 0
18 18 22
18 18 22
0 0 0
0 0 0
0 0 0
0 0 0
18 18 22
18 18 22
0 0 0
0 0 0
0 0 0
0 0 0
0 0 0
0 0 0
25 25 32
18 18 22
0 0 0
0 0 0
0 0 0
0 0 0
18 18 22
18 18 22
18 18 23
9 4 19
8 4 20
9 4 20
11 5 24
10 5 22
9 4 21
10 5 22
8 4 19
11 5 24
9 4 21
9 4 20
9 4 21
11 5 26
10 5 21
10 5 22
10 5 21
11 5 24
11 5 25
10 5 22
33 31 39
72 72 82
87 87 96
74 74 85
76 76 81
88 88 97
88 88 97
70 69 76
77 77 82
99 99 109
111 111 121
81 80 88
82 82 93
78 78 89
75 75 81
12 6 27
10 5 22
10 5 23
46 45 52
97 97 106
78 78 91
95 95 103
84 84 91
124 123 135
76 76 86
97 97 106
95 95 110
80 80 92
98 98 108
94 93 108
86 86 98
98 98 108
11 6 25
9 4 20
12 6 28
12 6 27
13 6 29
10 5 24
12 6 27
12 6 26
13 6 28
14 7 30
11 5 26
14 7 31
12 6 28
12 6 28
11 5 25
12 6 27
14 7 31
13 6 28
13 6 31
11 5 24
25 25 32
25 25 32
18 18 22
18 18 22
18 18 22
18 18 22
18 18 22
31 31 39
25 25 32
31 31 39
0 0 0
18 18 22
0 0 0
31 31 39
0 0 7
2 3 14
18 14 17
17 16 13
6 9 0
8 11 0
16 19 7
12 13 6
16 16 10
20 20 12
17 16 10
19 17 12
27 23 17
16 14 7
11 13 10
0 0 12
0 0 14
0 0 18
0 0 17
0 0 19
0 0 19
0 0 18
0 0 18
0 0 19
0 0 19
0 0 19
0 0 18
0 0 20
0 0 20
0 0 26
0 0 21
0 0 22
0 0 24
0 0 25
0 0 25
0 0 27
0 0 27
0 0 27
0 0 32
0 0 31
0 0 34
0 0 37
57 49 47
63 62 33
55 55 29
64 59 33
62 58 34
70 64 40
64 60 33
62 57 28
65 63 26
67 66 27
58 61 22
52 60 13
34 40 43
43 40 52
86 71 44
11 16 41
0 0 41
0 0 45
18 18 35
18 18 22
31 31 39
25 25 32
31 31 39
25 25 32
18 18 22
18 18 22
31 31 39
0 0 0
18 18 23
36 36 45
25 25 32
18 18 22
0 0 0
0 0 0
25 25 32
29 29 37
32 32 42
38 38 50
43 44 57
37 37 46
18 17 22
28 28 36
19 19 24
44 44 56
35 35 43
24 24 31
37 36 45
38 38 47
31 31 40
44 44 55
48 48 61
63 63 79
56 56 70
56 56 70
64 64 78
80 80 98
80 80 98
74 74 92
68 68 80
67 67 80
73 73 85
66 65 77
37 37 43
53 53 60
78 78 87
88 88 98
99 99 112
115 115 127
112 112 124
112 112 124
82 82 91
48 48 53
98 98 107
112 112 121
133 133 144
138 138 151
128 128 140
125 125 134
146 146 156
158 158 171
164 164 177
156 156 167
141 141 149
102 102 110
71 71 75
107 107 115
133 133 141
147 147 157
143 143 150
130 130 137
114 114 121
75 75 80
69 69 76
0 0 0
31 31 39
18 18 22
31 31 39
0 0 0
25 25 32
18 18 22
25 25 32
40 40 51
31 31 39
0 0 0
18 18 23
18 18 23
31 31 39
18 18 22
0 0 0
18 18 22
25 25 32
36 36 45
0 0 0
0 0 0
36 36 45
0 0 0
18 18 22
36 36 45
18 18 22
0 0 0
25 25 32
18 18 22
18 18 22
30 29 34
0 0 0
25 25 32
0 0 0
31 31 39
25 25 32
18 18 22
18 18 22
25 25 32
0 0 0
25 25 32
0 0 0
18 18 22
31 31 39
25 25 32
255 255 255
255 255 255
255 255 255
255 255 255
255 255 255
255 255 255
255 255 255
255 255 255
255 255 255
255 255 255
255 255 255
255 255 255
255 255 255
255 255 255
255 255 255
255 255 255
255 255 255
255 255 255
255 255 255
255 255 255
255 255 255
255 255 255
255 255 255
255 255 255
255 255 255
255 255 255
255 255 255
255 255 255
255 255 255
255 255 255
255 255 255
255 255 255
255 255 255
255 255 255
255 255 255
255 255 255
255 255 255
0 0 0
25 25 32
0 0 0
25 25 32
0 0 0
25 25 32
36 36 45
25 25 32
36 36 45
18 18 22
25 25 32
31 31 39
31 31 39
25 25 32
31 31 39
18 18 22
31 31 39
18 18 22
18 18 22
18 18 22
25 25 32
18 18 22
18 18 22
31 31 39
18 18 22
0 0 0
0 0 0
0 0 0
25 25 32
18 18 22
25 25 32
31 31 39
18 18 22
0 0 0
18 18 22
18 18 22
0 0 0
25 25 32
0 0 0
25 25 32
18 18 22
18 18 22
25 25 32
0 0 0
0 0 0
18 18 22
40 40 51
31 31 39
0 0 0
31 31 39
0 0 0
0 0 0
25 25 32
25 25 32
20 21 25
0 0 0
18 18 22
25 25 32
0 0 0
25 25 32
18 18 22
0 0 0
0 0 0
0 0 0
0 0 0
18 18 22
25 25 32
18 18 22
25 25 32
18 18 22
0 0 0
0 0 0
18 18 22
18 18 22
0 0 0
0 0 0
18 18 22
0 0 0
25 25 32
25 25 32
0 0 0
0 0 0
18 18 22
18 18 22
25 25 32
0 0 0
18 18 22
18 18 22
18 18 22
31 31 39
0 0 0
18 18 22
18 18 22
18 18 22
0 0 0
0 0 0
0 0 0
0 0 0
9 4 21
7 3 16
11 5 23
9 4 20
9 4 21
7 3 15
9 4 21
9 4 20
8 4 19
9 4 21
10 5 23
11 5 24
10 5 22
11 5 23
10 5 21
11 5 25
12 6 27
10 5 23
6 3 14
9 4 20
60 60 69
67 67 73
89 89 101
82 82 86
78 78 91
104 103 111
74 74 81
86 86 96
78 78 84
111 111 119
78 78 84
86 86 94
80 80 85
51 51 58
11 5 25
11 5 24
10 5 23
22 19 35
100 100 107
86 86 96
91 91 103
80 80 90
84 84 95
70 69 81
87 87 96
105 105 114
84 84 93
90 90 97
104 103 115
95 95 105
85 85 95
13 7 27
10 5 22
12 6 28
14 7 31
12 6 28
15 7 33
11 5 26
16 8 36
13 6 28
14 7 31
12 6 28
12 6 26
11 5 26
15 7 32
12 6 27
10 5 23
14 7 31
15 7 32
13 6 30
13 6 29
18 18 22
25 25 32
0 0 0
25 25 32
18 18 22
25 25 32
36 36 45
18 18 22
31 31 39
18 18 22
0 0 0
18 18 22
31 31 39
18 18 22
18 18 23
0 0 12
0 2 22
29 23 23
19 16 12
8 10 1
12 15 2
13 16 6
16 15 10
20 19 13
19 19 10
21 19 12
19 18 11
16 16 7
13 16 10
0 0 15
0 0 16
0 0 14
0 0 14
0 0 15
0 0 15
0 0 17
0 0 16
0 0 16
0 0 21
0 0 15
0 0 17
0 0 20
0 0 24
0 0 22
0 0 19
0 0 25
0 0 23
0 0 26
0 0 26
0 0 27
0 0 30
0 0 26
0 0 34
0 0 34
0 0 37
0 1 49
112 93 73
82 72 49
83 75 52
80 72 46
80 73 46
74 66 42
74 65 37
74 65 39
76 66 38
67 61 32
47 60 26
21 29 42
0 0 48
65 56 46
67 59 36
0 0 39
3 4 43
0 0 39
36 36 47
31 31 39
18 18 22
25 25 32
41 41 52
25 25 32
25 25 32
25 25 32
31 31 39
18 18 22
25 25 32
31 31 39
18 18 22
18 18 22
18 18 22
0 0 0
18 18 22
27 27 35
46 46 61
27 27 35
48 48 62
36 36 47
23 23 30
20 20 25
20 20 26
31 31 40
40 39 47
36 36 46
26 26 32
40 40 51
43 42 54
54 53 66
58 58 73
55 55 70
52 52 66
71 71 88
72 72 86
76 75 92
73 73 91
72 72 87
61 61 74
55 55 67
49 49 58
39 39 46
50 50 58
85 85 98
103 103 114
100 100 112
101 101 113
116 116 129
132 132 147
118 118 132
96 96 105
48 48 51
87 87 94
114 114 125
138 138 151
120 120 131
129 129 139
141 141 153
143 143 156
154 154 166
141 141 154
126 126 134
88 88 93
66 66 71
126 126 135
155 155 166
130 130 142
138 138 149
158 158 170
131 131 140
116 116 123
76 76 82
29 29 35
36 36 45
18 18 22
44 44 56
25 25 32
31 31 39
0 0 0
36 36 45
31 31 39
25 25 32
36 36 45
25 25 32
25 25 32
18 18 22
44 44 56
36 36 45
26 26 32
36 36 45
25 25 32
18 18 22
25 25 32
25 25 32
36 36 45
40 40 51
36 36 45
18 18 22
25 25 32
36 36 45
25 25 32
31 31 39
25 25 32
31 31 39
18 18 22
25 25 32
36 36 45
18 18 22
34 33 41
0 0 0
31 31 39
18 18 22
31 31 39
40 40 51
31 31 39
18 18 22
18 18 22
18 18 22
255 255 255
255 255 255
255 255 255
255 255 255
255 255 255
255 255 255
255 255 255
255 255 255
255 255 255
255 255 255
255 255 255
255 255 255
255 255 255
255 255 255
255 255 255
255 255 255
255 255 255
255 255 255
255 255 255
255 255 255
255 255 255
255 255 255
255 255 255
255 255 255
255 255 255
255 255 255
255 255 255
255 255 255
255 255 255
255 255 255
255 255 255
255 255 255
255 255 255
255 255 255
255 255 255
255 255 255
255 255 255
0 0 0
18 18 22
25 25 32
0 0 0
25 25 32
0 0 0
18 18 22
25 25 32
18 18 22
18 18 22
18 18 22
18 18 22
36 36 45
25 25 32
18 18 22
18 18 22
31 31 39
31 31 39
18 18 22
31 31 39
25 25 32
31 31 39
0 0 0
31 31 39
25 25 32
25 25 32
25 25 32
31 31 39
25 25 32
0 0 0
25 25 32
31 31 39
18 18 22
31 31 39
25 25 32
31 31 39
18 18 22
25 25 32
31 31 39
0 0 0
18 18 22
25 25 32
0 0 0
25 25 32
31 31 39
18 18 22
18 18 22
40 40 51
0 0 0
31 31 39
18 18 22
18 18 22
25 25 32
25 25 32
25 25 32
0 0 0
31 31 39
18 18 22
18 18 22
36 36 45
0 0 0
0 0 0
25 25 32
18 18 22
0 0 0
0 0 0
18 18 22
0 0 0
25 25 32
18 18 22
25 25 32
36 36 45
18 18 22
0 0 0
31 31 39
0 0 0
0 0 0
25 25 32
25 25 32
25 25 32
18 18 22
0 0 0
0 0 0
0 0 0
18 18 22
18 18 22
0 0 0
0 0 0
0 0 0
31 31 39
25 25 32
18 18 22
0 0 0
18 18 22
0 0 0
0 0 0
18 18 22
0 0 0
8 4 19
10 5 22
10 5 22
8 4 18
8 4 19
9 4 21
11 5 25
10 5 23
7 3 16
11 5 25
10 5 22
9 4 20
10 5 23
9 4 20
10 5 22
8 4 18
10 5 21
9 4 21
12 6 26
12 6 25
68 68 76
95 95 105
80 80 87
72 72 79
70 69 79
72 72 79
82 82 90
62 62 71
72 72 83
100 100 108
97 97 104
83 83 95
80 80 89
43 41 54
10 5 23
10 5 25
9 4 20
11 6 24
94 94 104
78 78 89
108 108 118
99 98 108
104 103 112
86 86 95
76 76 86
103 103 111
96 96 103
86 86 92
88 88 99
94 93 104
70 69 81
11 5 25
11 5 24
11 5 24
11 5 25
11 5 25
13 6 28
11 5 24
11 5 25
12 6 28
12 6 27
14 7 33
10 5 24
14 7 32
15 7 32
15 7 32
14 7 31
12 6 27
15 7 32
12 6 27
20 18 32
31 31 39
25 25 32
25 25 32
18 18 22
31 31 39
25 25 32
36 36 45
0 0 0
25 25 32
40 40 51
18 18 22
18 18 22
0 0 0
18 18 22
25 25 32
0 0 9
0 0 10
14 11 17
27 22 17
20 17 11
10 12 3
15 16 8
17 18 10
20 19 13
23 21 13
18 17 10
23 20 12
16 16 8
20 22 12
0 0 17
0 0 14
0 0 14
0 0 15
0 0 14
0 0 13
0 0 15
0 0 16
0 0 19
0 0 20
0 0 20
0 0 18
0 0 18
0 0 18
0 0 24
0 0 22
0 0 26
0 0 24
0 0 23
0 0 24
0 0 30
0 0 28
0 0 28
0 0 31
0 0 35
0 0 36
0 3 48
113 94 78
110 92 65
105 97 77
92 78 57
101 89 60
83 74 49
87 78 52
76 67 44
87 74 49
66 67 35
22 31 48
0 0 43
11 11 44
91 74 49
28 33 42
2 4 40
1 3 41
18 18 42
31 31 39
40 40 51
25 25 32
36 36 45
36 36 45
25 25 32
31 31 39
18 18 22
18 18 22
18 18 22
36 36 45
44 44 56
33 33 42
36 36 45
25 25 32
47 47 60
25 25 32
31 31 39
28 28 36
44 44 56
36 36 46
40 40 51
31 31 39
18 18 23
29 29 38
41 41 52
52 52 66
40 39 48
27 27 34
44 44 56
51 50 65
59 59 75
60 60 75
64 63 79
68 68 86
63 63 79
67 67 82
70 70 85
71 70 86
74 74 90
54 54 65
33 33 39
29 29 36
49 49 58
79 79 90
100 99 118
107 107 124
108 108 126
116 116 129
131 131 147
148 148 162
114 114 131
99 99 109
44 44 49
77 77 86
105 105 117
107 107 118
108 108 119
131 131 144
144 144 157
131 131 142
135 135 145
112 112 123
99 99 107
50 50 54
102 102 110
162 162 175
158 158 169
153 153 163
146 146 154
140 140 150
155 155 167
130 130 140
84 84 91
36 36 45
0 0 0
40 40 51
36 36 45
31 31 39
31 31 39
18 18 22
44 44 56
0 0 0
40 40 51
25 25 32
25 25 32
18 18 22
18 18 22
36 36 45
44 44 56
31 31 39
40 40 51
18 18 22
25 25 32
40 40 51
25 25 32
31 31 39
25 25 32
36 36 45
36 36 45
25 25 32
31 31 39
25 25 32
31 31 39
0 0 0
25 25 32
0 0 0
36 36 45
36 36 45
44 44 56
36 36 45
40 40 51
31 31 39
31 31 39
0 0 0
18 18 22
25 25 32
25 25 32
25 25 32
36 36 45
255 255 255
255 255 255
255 255 255
255 255 255
255 255 255
255 255 255
255 255 255
255 255 255
255 255 255
255 255 255
255 255 255
255 255 255
255 255 255
255 255 255
255 255 255
255 255 255
255 255 255
255 255 255
255 255 255
255 255 255
255 255 255
255 255 255
255 255 255
255 255 255
255 255 255
255 255 255
255 255 255
255 255 255
255 255 255
255 255 255
255 255 255
255 255 255
255 255 255
255 255 255
255 255 255
255 255 255
255 255 255
25 25 32
25 25 32
31 31 39
36 36 45
25 25 32
0 0 0
31 31 39
0 0 0
18 18 22
40 40 51
31 31 39
31 31 39
18 18 22
25 25 32
25 25 32
18 19 23
31 31 39
31 31 39
18 18 22
31 31 39
0 0 0
36 36 45
25 25 32
40 40 51
25 25 32
18 18 22
25 25 32
36 36 45
25 25 32
0 0 0
18 18 22
0 0 0
0 0 0
36 36 45
31 31 39
18 18 22
36 36 45
31 31 39
18 18 22
31 31 39
18 18 22
18 18 22
31 31 39
25 25 32
18 18 22
18 18 22
0 0 0
18 18 22
0 0 0
40 40 51
31 31 39
18 18 22
0 0 0
25 25 32
36 36 45
18 18 22
0 0 0
41 41 51
0 0 0
25 25 32
31 31 39
25 25 32
18 18 22
25 25 32
36 36 45
0 0 0
18 18 22
18 18 22
18 18 22
0 0 0
25 25 32
18 18 22
31 31 39
18 18 22
18 18 22
18 18 22
18 18 22
0 0 0
31 31 39
31 31 39
18 18 22
25 25 32
18 18 22
25 25 32
25 25 32
31 31 39
0 0 0
25 25 32
0 0 0
18 18 22
0 0 0
25 25 32
25 25 32
25 25 32
18 18 22
0 0 0
18 18 22
18 18 22
9 4 19
9 4 21
9 4 19
9 4 21
6 3 14
9 4 21
7 3 16
7 3 17
7 3 16
7 3 16
12 6 26
10 5 22
10 5 22
10 5 23
9 4 21
11 5 24
10 5 23
9 4 20
12 6 25
11 5 26
40 39 51
72 72 77
47 47 57
83 83 94
90 90 95
86 86 94
97 97 106
74 74 90
97 97 106
74 74 85
94 94 106
56 55 69
96 96 106
21 18 31
9 4 21
9 4 22
11 5 27
12 6 27
73 73 80
125 125 138
88 88 95
106 106 119
105 105 116
88 88 100
102 102 109
88 88 101
92 92 100
78 78 91
107 106 114
97 97 111
46 46 58
11 5 25
11 5 24
11 5 25
14 7 31
11 5 26
14 7 33
11 5 27
14 7 31
12 6 27
14 7 31
14 7 32
11 5 24
12 6 26
13 6 28
13 6 29
15 7 33
12 6 27
12 6 28
14 7 31
10 5 24
25 25 32
25 25 32
31 31 39
40 40 51
31 31 39
40 40 51
36 36 45
18 18 22
25 25 32
36 36 45
25 25 32
31 31 39
25 25 32
31 31 39
25 25 32
18 18 24
0 0 10
0 2 12
35 28 31
17 14 12
12 12 7
9 11 4
17 19 9
17 17 10
20 21 12
14 14 8
17 16 9
18 18 9
16 17 15
0 0 17
0 0 14
0 0 15
0 0 14
0 0 18
0 0 14
0 0 19
0 0 16
0 0 18
0 0 18
0 0 18
0 0 23
0 0 23
0 0 19
0 0 25
0 0 24
0 0 23
0 0 24
0 0 23
0 0 24
0 0 27
0 0 28
0 0 31
0 0 28
0 0 31
0 0 36
0 2 45
74 59 72
127 103 74
83 71 50
115 94 70
114 97 73
95 87 60
103 90 66
87 74 52
67 63 38
52 58 26
4 7 46
0 0 43
50 43 44
69 58 38
0 0 42
0 0 43
0 0 46
25 25 37
25 25 32
44 44 56
36 36 45
31 31 39
31 31 39
25 25 32
40 40 51
47 47 60
0 0 0
44 44 56
25 25 32
25 25 32
31 31 39
44 44 56
51 51 64
40 40 51
25 25 32
25 25 32
29 29 37
49 49 64
32 32 41
34 34 45
25 25 33
29 29 37
44 44 57
44 44 57
57 56 71
51 51 65
49 49 61
43 43 53
54 54 69
56 56 72
67 67 85
62 62 79
62 61 78
52 52 67
61 61 75
81 81 98
79 79 96
70 70 85
56 56 67
26 26 31
52 52 61
69 69 82
97 97 115
124 124 145
124 124 143
145 145 165
133 133 151
134 134 151
123 123 139
123 123 137
108 108 120
58 58 64
63 63 70
94 94 102
92 92 101
88 88 96
110 110 121
113 113 124
96 96 106
86 86 95
79 79 86
61 61 66
93 93 101
140 140 153
165 165 178
162 162 175
129 129 140
125 125 135
126 126 137
182 182 194
141 141 153
62 62 70
36 36 45
40 40 51
36 36 45
36 36 45
44 44 56
25 25 32
51 51 64
25 25 32
36 36 45
36 36 45
31 31 39
31 31 39
25 25 32
36 36 45
36 36 46
51 51 64
40 40 51
22 22 28
18 18 22
31 31 39
31 31 39
31 31 39
18 18 22
25 25 32
36 36 45
31 31 39
54 54 68
36 36 45
36 36 45
36 36 45
44 44 56
36 36 45
31 31 39
40 40 51
44 44 56
40 40 51
47 47 60
36 36 45
38 38 48
51 51 64
47 47 60
36 36 45
40 40 51
36 36 45
40 40 51
0 0 0
255 255 255
255 255 255
255 255 255
255 255 255
255 255 255
255 255 255
255 255 255
255 255 255
255 255 255
255 255 255
255 255 255
255 255 255
255 255 255
255 255 255
255 255 255
255 255 255
255 255 255
255 255 255
255 255 255
255 255 255
255 255 255
255 255 255
255 255 255
255 255 255
255 255 255
255 255 255
255 255 255
255 255 255
255 255 255
255 255 255
255 255 255
255 255 255
255 255 255
255 255 255
255 255 255
255 255 255
255 255 255
33 33 41
18 18 22
40 40 51
31 31 39
25 25 32
44 44 56
31 31 39
18 18 22
47 47 60
25 25 32
36 36 45
36 36 45
31 31 39
31 31 39
31 31 39
36 36 45
31 31 39
40 40 51
40 40 51
25 25 32
36 36 45
36 36 45
44 44 56
31 31 39
25 25 32
25 25 32
18 18 22
18 18 22
31 31 40
31 31 39
25 25 32
25 25 32
44 44 56
25 25 32
18 18 22
18 18 22
25 25 32
36 36 45
0 0 0
40 40 51
25 25 32
31 31 39
18 18 22
40 40 51
0 0 0
18 18 22
25 25 32
18 18 22
18 18 22
18 18 22
31 31 39
25 25 32
25 25 32
31 31 39
40 40 51
36 36 45
18 18 22
25 25 32
31 31 39
18 18 22
31 31 39
25 25 32
18 18 22
40 40 51
40 40 51
18 18 22
18 18 22
18 18 22
0 0 0
31 31 39
25 25 32
18 18 22
31 31 39
25 25 32
18 18 22
18 18 22
18 18 22
31 31 39
18 18 22
0 0 0
25 25 32
31 31 39
25 25 32
31 31 39
18 18 22
25 25 32
0 0 0
18 18 22
0 0 0
18 18 22
25 25 32
36 36 45
25 25 32
18 18 23
18 18 22
25 25 32
25 25 32
18 18 22
20 18 32
9 4 21
8 4 19
9 4 21
10 5 23
6 3 16
11 5 24
9 4 20
9 4 21
11 5 25
10 5 24
10 5 22
10 5 22
10 5 23
9 4 21
12 6 26
11 5 26
11 5 23
10 5 24
9 4 20
15 11 26
97 97 105
88 88 97
92 92 106
76 76 88
86 86 96
92 92 100
97 97 108
75 75 85
92 92 106
90 90 99
46 45 52
82 82 89
9 4 19
11 5 25
9 4 23
10 5 23
9 4 22
42 40 48
99 99 107
87 87 102
95 95 105
86 86 94
97 97 107
94 93 102
70 70 74
70 69 79
88 88 97
90 90 101
109 109 118
22 21 28
12 6 27
11 5 25
13 6 30
10 5 24
12 6 26
14 7 31
12 6 27
9 4 20
10 5 23
13 6 29
14 7 32
11 5 26
11 5 24
12 6 27
11 5 25
12 6 27
12 6 29
12 6 28
15 7 33
21 19 35
40 40 51
18 18 22
40 40 51
31 31 39
25 25 32
44 44 56
25 25 32
36 36 45
25 25 32
31 31 39
18 18 22
36 36 45
40 40 51
51 51 64
40 40 51
18 18 24
0 0 10
0 0 14
13 9 12
29 24 20
15 16 8
14 17 6
15 18 7
17 18 9
15 16 8
17 19 9
8 9 5
13 16 13
12 14 17
0 0 12
0 0 14
0 0 16
0 0 14
0 0 16
0 0 20
0 0 15
0 0 16
0 0 17
0 0 19
0 0 19
0 0 21
0 0 17
0 0 23
0 0 18
0 0 25
0 0 26
0 0 25
0 0 24
0 0 29
0 0 26
0 0 27
0 0 31
0 0 30
0 0 31
0 0 33
0 1 41
26 30 68
153 133 107
92 76 57
112 91 68
112 96 73
96 86 60
87 74 52
88 75 52
67 65 36
47 50 30
0 0 40
0 0 42
84 68 57
33 29 39
0 0 36
0 0 40
47 47 69
31 31 39
31 31 39
18 18 22
57 57 72
44 44 56
44 44 56
36 36 45
47 47 60
31 31 39
31 31 39
31 31 39
60 60 75
44 44 56
36 36 45
60 60 75
36 36 45
31 31 39
31 31 39
40 40 51
25 25 32
38 38 49
42 42 55
19 19 26
32 32 41
30 30 39
49 49 62
46 46 60
51 51 65
58 58 75
57 56 72
44 44 56
51 51 65
57 56 70
55 55 68
63 63 80
69 69 86
51 51 61
67 67 83
66 66 82
83 83 104
73 73 91
61 61 71
32 32 38
58 58 69
85 85 102
111 111 130
131 131 147
133 132 151
141 141 163
148 148 168
157 157 175
129 129 144
129 129 149
97 97 110
64 64 71
53 53 59
69 69 77
51 51 55
59 59 65
60 60 66
68 68 75
62 62 67
36 36 39
46 46 50
62 62 68
122 122 131
156 156 170
164 164 177
127 127 137
92 92 101
107 107 116
152 152 166
173 173 189
122 122 134
32 32 41
40 40 51
40 40 51
25 25 32
18 18 22
40 40 51
31 31 39
25 25 32
32 32 41
47 47 60
36 36 45
40 40 51
51 51 64
36 36 45
36 36 46
25 25 32
40 40 51
25 25 32
47 47 60
36 36 45
31 31 39
51 51 64
36 36 45
44 44 56
25 25 32
36 36 45
40 40 51
47 47 60
54 54 68
40 40 51
36 36 45
40 40 51
47 47 60
36 36 45
25 25 32
36 36 45
31 31 39
31 31 39
54 54 68
44 44 56
51 51 64
36 36 45
54 54 68
40 40 51
40 40 51
25 25 32
31 31 39
255 255 255
255 255 255
255 255 255
255 255 255
255 255 255
255 255 255
255 255 255
255 255 255
255 255 255
255 255 255
255 255 255
255 255 255
255 255 255
255 255 255
255 255 255
255 255 255
255 255 255
255 255 255
255 255 255
255 255 255
255 255 255
255 255 255
255 255 255
255 255 255
255 255 255
255 255 255
255 255 255
255 255 255
255 255 255
255 255 255
255 255 255
255 255 255
255 255 255
255 255 255
255 255 255
255 255 255
255 255 255
40 40 51
36 36 45
31 31 39
25 25 32
36 36 45
28 28 36
37 37 47
25 25 32
31 31 39
36 36 45
25 25 32
0 0 0
40 40 51
40 40 51
18 18 23
0 0 0
25 25 33
47 47 60
44 44 56
40 40 51
47 47 60
31 31 39
31 31 39
0 0 0
31 31 39
47 47 60
25 25 32
25 25 32
25 25 32
31 31 39
18 18 22
25 25 32
31 31 39
31 31 39
18 18 22
31 31 39
57 57 72
40 40 51
25 25 32
25 25 32
31 31 39
18 18 22
26 26 34
31 31 39
31 31 39
25 25 32
18 18 22
31 31 39
31 31 39
0 0 0
36 36 45
25 25 32
36 36 45
0 0 0
18 18 22
31 31 39
31 31 39
31 31 39
25 25 32
31 31 39
25 25 32
25 25 32
25 25 32
31 31 39
25 25 32
25 25 32
31 31 39
31 31 39
18 18 22
26 26 33
31 31 39
36 36 45
31 31 39
25 25 32
25 25 32
31 31 39
31 31 39
25 25 32
40 40 51
36 36 45
40 40 51
18 18 22
44 44 56
18 18 22
25 25 32
25 25 32
25 25 32
40 40 51
18 18 22
0 0 0
18 18 22
25 25 32
0 0 0
0 0 0
31 31 39
18 18 22
36 36 45
18 18 22
19 18 29
8 4 19
8 4 17
11 5 25
8 4 19
11 5 26
9 4 21
5 2 14
11 5 25
10 5 22
11 5 24
11 5 24
12 5 26
9 4 21
8 4 19
9 4 22
10 5 22
11 5 24
8 4 19
9 4 21
10 5 22
64 64 73
74 74 87
84 84 93
65 65 80
99 98 108
70 69 76
83 82 88
100 100 110
102 102 113
87 87 96
100 100 116
68 68 80
10 5 24
9 4 21
11 5 25
9 4 20
10 5 23
39 38 43
95 95 104
100 100 107
102 102 113
92 92 96
104 103 115
93 92 102
99 98 106
115 115 129
80 80 92
106 106 117
107 107 114
10 5 24
11 5 25
14 7 31
15 7 33
10 5 24
13 6 28
11 5 26
14 7 31
12 6 28
12 6 26
10 5 23
11 5 26
13 6 28
11 5 26
13 6 29
12 6 28
13 6 28
11 5 26
11 5 24
13 6 30
22 19 36
40 40 51
25 25 32
31 31 39
44 44 56
31 31 39
25 25 32
31 31 39
31 31 39
40 40 51
36 36 45
31 31 39
36 36 45
51 51 65
25 25 32
31 31 39
44 44 56
18 18 24
0 0 11
24 18 17
24 19 19
9 9 4
6 8 3
11 14 5
8 11 4
10 13 3
10 14 4
3 6 14
0 0 16
0 0 12
0 0 13
0 0 19
0 0 19
0 0 19
0 0 14
0 0 21
0 0 22
0 0 19
0 0 18
0 0 21
0 0 17
0 0 16
0 0 20
0 0 22
0 0 26
0 0 20
0 0 24
0 0 23
0 0 22
0 0 25
0 0 32
0 0 31
0 0 29
0 0 29
0 0 32
0 0 37
0 0 43
38 34 64
127 92 69
114 87 69
152 116 91
127 105 78
88 76 55
72 64 44
72 62 41
51 54 41
8 10 45
0 0 47
0 0 40
21 18 46
0 0 40
0 0 41
0 0 38
40 40 54
47 47 60
51 51 64
40 40 51
44 44 56
40 40 51
31 31 39
44 44 56
36 36 45
52 52 66
51 51 65
40 40 51
25 25 32
44 44 56
40 40 51
57 57 72
62 62 79
51 51 64
40 40 51
36 36 47
36 36 45
57 57 73
36 36 47
30 30 39
14 14 18
23 23 30
39 39 51
70 70 90
54 53 68
58 57 74
58 58 74
50 49 63
49 49 62
43 42 52
41 41 53
58 58 74
63 63 79
64 64 80
65 65 82
67 67 84
77 77 95
75 75 92
62 62 74
34 34 42
37 37 45
78 78 91
110 110 129
118 118 137
128 128 148
137 137 156
135 135 154
125 124 146
150 150 171
149 149 169
123 123 136
89 89 99
57 57 64
57 57 62
34 34 37
40 40 43
53 53 57
77 77 84
63 63 69
28 28 30
35 35 38
92 92 100
113 113 124
138 138 152
120 120 129
71 71 78
87 87 94
135 135 148
190 190 203
170 170 186
67 67 81
54 54 68
51 51 64
47 47 60
40 40 51
40 40 51
36 36 45
65 65 82
44 44 56
36 36 45
40 40 51
31 31 39
51 51 65
51 51 64
31 31 40
44 44 56
44 44 56
44 44 56
28 28 35
47 47 60
40 40 51
45 45 57
54 54 68
47 47 60
44 44 56
25 25 32
40 40 51
44 44 56
51 51 64
54 54 68
44 44 56
47 47 60
60 60 76
51 51 64
31 31 39
40 40 51
48 48 61
47 47 60
36 36 45
44 44 56
60 60 75
54 54 68
40 40 51
40 40 51
25 25 32
51 51 64
37 37 47
36 36 45
255 255 255
255 255 255
255 255 255
255 255 255
255 255 255
255 255 255
255 255 255
255 255 255
255 255 255
255 255 255
255 255 255
255 255 255
255 255 255
255 255 255
255 255 255
255 255 255
255 255 255
255 255 255
255 255 255
255 255 255
255 255 255
255 255 255
255 255 255
255 255 255
255 255 255
255 255 255
255 255 255
255 255 255
255 255 255
255 255 255
255 255 255
255 255 255
255 255 255
255 255 255
255 255 255
255 255 255
255 255 255
47 47 60
40 40 51
47 47 60
72 72 91
40 40 51
40 40 51
44 44 56
40 40 51
40 40 51
18 18 22
51 51 64
44 44 56
25 25 32
47 47 60
40 40 51
36 36 45
40 40 51
25 25 32
18 18 22
2 2 2
18 18 22
25 25 32
31 31 39
40 40 51
44 44 56
36 36 46
36 36 45
40 40 51
31 31 39
36 36 45
47 47 60
47 47 60
36 36 45
25 25 32
44 44 56
18 18 22
36 36 45
36 36 45
31 31 39
40 40 51
36 36 45
44 44 56
40 40 51
40 40 51
51 51 64
31 31 39
36 36 45
47 47 60
0 0 0
40 40 51
36 36 45
25 25 32
25 25 32
36 36 45
31 31 39
47 47 60
18 18 22
25 25 32
51 51 64
36 36 45
31 31 39
25 25 32
31 31 39
31 31 39
25 25 32
40 40 51
40 40 51
18 18 22
31 31 39
31 31 39
18 18 22
18 18 22
44 44 56
31 31 39
31 31 39
36 36 45
31 31 39
25 25 32
40 40 51
0 0 0
31 31 39
31 31 39
25 25 32
25 25 32
18 18 22
31 31 39
25 25 32
25 25 32
18 18 22
18 18 22
0 0 0
40 40 51
0 0 0
25 25 32
25 25 32
40 40 51
25 25 32
18 18 22
8 4 18
10 5 21
9 4 20
8 4 18
7 3 17
11 5 24
9 4 20
7 3 17
11 5 24
9 4 20
9 4 20
12 6 28
10 5 23
9 4 20
9 4 21
10 5 22
9 4 20
13 6 29
10 5 22
11 5 27
6 3 14
55 55 65
81 81 92
92 92 102
76 76 86
79 79 95
99 98 112
90 90 103
95 95 109
102 102 113
84 84 93
72 72 77
29 28 40
10 5 23
11 5 24
13 6 29
11 5 26
9 4 21
10 5 24
68 68 83
94 93 101
104 103 112
81 81 94
92 92 98
92 92 96
86 86 96
86 86 96
90 89 101
97 97 112
64 64 73
12 6 27
12 6 27
9 4 22
13 6 30
11 5 26
12 6 28
13 6 27
12 6 26
14 7 30
12 6 28
13 6 30
10 5 24
16 8 34
13 6 31
11 5 26
12 6 28
11 5 26
12 6 27
14 7 31
14 7 30
14 7 31
47 47 60
47 47 60
51 51 64
47 47 60
36 36 45
25 25 32
47 47 60
36 36 45
36 36 45
47 47 60
40 40 51
18 18 22
36 36 45
51 51 64
36 36 45
36 36 45
25 25 32
0 0 7
0 0 10
25 20 21
29 24 19
17 19 10
11 13 5
11 13 4
9 11 4
9 13 6
0 0 15
0 0 15
0 0 16
0 0 14
0 0 18
0 0 16
0 0 13
0 0 14
0 0 17
0 0 19
0 0 18
0 0 14
0 0 15
0 0 17
0 0 21
0 0 22
0 0 21
0 0 24
0 0 19
0 0 23
0 0 24
0 0 27
0 0 23
0 0 27
0 0 28
0 0 29
0 0 30
0 0 27
0 0 37
0 0 43
34 32 57
163 123 91
128 99 77
160 116 87
109 87 65
96 78 58
91 74 53
71 65 39
11 14 40
0 0 42
0 0 40
0 0 46
0 0 36
0 0 43
0 0 35
18 18 40
31 31 40
54 54 68
47 47 60
51 51 64
62 62 79
31 31 39
65 65 82
60 60 75
51 51 64
54 54 68
54 54 68
47 47 60
45 45 57
0 0 0
57 57 72
51 51 65
54 54 69
70 70 88
54 54 68
44 44 56
62 62 79
47 47 60
52 52 66
24 24 32
22 22 29
21 21 27
40 40 52
54 54 69
60 60 77
54 54 69
46 47 59
55 55 71
57 57 73
47 47 60
36 36 46
44 44 55
53 52 66
57 57 72
68 67 84
68 68 85
67 67 83
77 77 93
62 61 76
51 51 61
32 32 38
74 74 88
87 87 105
106 106 127
110 109 131
130 130 153
129 129 154
125 124 144
138 138 159
141 141 158
135 135 153
100 100 113
94 94 107
62 62 69
34 34 39
42 42 47
61 61 67
66 66 73
50 50 55
61 60 66
45 45 50
44 44 48
82 82 89
105 105 115
71 71 78
69 69 75
102 102 112
154 154 168
194 194 211
127 127 141
48 48 61
44 44 56
60 60 75
36 36 45
57 57 72
44 44 56
44 44 56
54 54 68
36 36 45
44 44 56
44 44 56
46 46 59
60 60 75
54 54 68
54 54 68
48 48 61
36 36 45
62 62 79
51 51 64
47 47 60
57 57 72
47 47 60
51 51 65
36 36 45
51 51 65
67 67 85
54 54 69
47 47 60
51 51 64
54 54 68
60 60 75
57 57 72
51 51 64
54 54 69
65 65 82
54 54 68
57 57 72
36 36 45
47 47 60
40 40 51
51 51 64
47 47 60
40 40 51
57 57 72
54 54 68
51 51 64
51 51 64
44 44 56
255 255 255
255 255 255
255 255 255
255 255 255
255 255 255
255 255 255
255 255 255
255 255 255
255 255 255
255 255 255
255 255 255
255 255 255
255 255 255
255 255 255
255 255 255
255 255 255
255 255 255
255 255 255
255 255 255
255 255 255
255 255 255
255 255 255
255 255 255
255 255 255
255 255 255
255 255 255
255 255 255
255 255 255
255 255 255
255 255 255
255 255 255
255 255 255
255 255 255
255 255 255
255 255 255
255 255 255
255 255 255
54 54 68
40 40 51
40 40 51
40 40 51
44 44 56
31 31 39
54 54 68
44 44 56
47 47 60
51 51 64
47 47 60
36 36 45
40 40 51
62 62 79
57 57 72
37 37 47
44 44 56
51 51 64
54 54 68
25 25 32
31 31 39
54 54 68
54 54 68
44 44 56
36 36 45
51 51 64
54 54 68
57 57 72
18 18 22
51 51 64
44 44 56
54 54 68
47 47 60
31 31 39
40 40 51
51 51 64
25 25 32
31 31 39
44 44 56
40 40 51
36 36 45
51 51 64
47 47 60
31 31 39
44 44 56
36 36 46
44 44 56
25 25 32
57 57 72
40 40 51
36 36 45
32 32 40
44 44 56
47 47 60
40 40 51
31 31 39
36 36 45
36 36 45
31 31 39
25 25 32
18 18 22
45 45 57
25 25 32
40 40 51
31 31 39
44 44 56
36 36 45
18 18 22
0 0 0
51 51 64
25 25 32
25 25 32
36 36 45
36 36 45
31 31 39
31 31 39
36 36 45
25 25 32
18 18 22
40 40 51
36 36 45
40 40 51
47 47 60
25 25 32
31 31 39
31 31 39
25 25 32
31 31 39
25 25 32
31 31 39
22 22 30
44 44 56
18 18 22
25 25 32
31 31 39
0 0 0
31 31 39
36 36 45
9 4 21
8 4 19
11 5 25
11 5 24
11 5 24
9 4 20
4 2 10
7 3 16
6 3 13
8 4 19
7 3 17
10 5 25
8 4 19
10 5 23
9 4 20
12 6 27
11 5 24
11 5 23
7 3 17
9 4 20
10 5 23
10 5 22
82 82 97
86 86 94
76 76 86
90 90 101
88 88 96
76 76 86
80 80 92
80 80 90
85 85 92
86 86 97
12 7 24
10 5 23
12 6 25
12 6 26
12 6 26
12 6 26
11 5 24
47 46 56
121 121 134
82 82 90
95 95 101
65 65 75
83 82 93
82 82 98
114 114 119
97 97 108
88 88 94
52 52 65
13 6 28
13 6 27
11 5 26
11 5 25
13 6 27
11 5 24
13 6 29
12 6 28
12 6 27
9 4 19
13 6 29
13 6 29
11 5 27
12 6 28
14 7 32
11 5 25
14 7 30
14 7 31
14 7 30
13 6 29
12 6 28
44 44 56
44 44 56
54 54 68
40 40 51
40 40 51
62 62 79
31 31 39
40 40 51
40 40 51
44 44 56
51 51 64
47 47 60
44 44 56
36 36 45
47 47 60
41 41 52
40 40 51
0 0 7
0 0 10
26 22 26
22 19 16
11 11 7
17 19 10
12 12 6
18 20 10
13 15 7
4 7 17
0 0 14
0 0 17
0 0 11
0 0 17
0 0 14
0 0 14
0 0 14
0 0 18
0 0 15
0 0 17
0 0 17
0 0 17
0 0 19
0 0 22
0 0 19
0 0 22
0 0 24
0 0 19
0 0 25
0 0 27
0 0 26
0 0 26
0 0 29
0 0 27
0 0 23
0 0 29
0 0 28
0 0 31
0 0 39
6 11 57
101 79 70
139 105 79
124 93 70
90 74 56
83 69 47
68 58 38
23 24 38
0 0 38
0 0 41
0 0 37
0 0 41
0 0 39
0 0 35
25 25 48
57 57 74
62 62 79
51 51 64
65 65 82
54 54 68
54 54 68
54 54 68
74 74 94
72 72 91
62 62 79
54 54 68
70 70 88
65 65 82
62 62 79
54 54 68
62 62 79
54 54 68
47 47 60
62 62 79
40 40 51
72 72 91
77 77 97
65 65 82
57 57 72
38 38 49
16 16 21
13 13 17
39 39 50
52 52 67
56 56 72
64 64 82
52 52 66
54 54 68
53 53 68
53 53 69
59 59 75
47 47 60
48 48 62
52 52 66
59 58 73
51 51 65
63 63 79
69 69 87
71 70 87
58 57 69
26 26 32
43 43 54
81 81 98
91 91 108
95 95 113
108 109 128
106 106 125
118 118 133
124 124 144
120 120 139
123 123 138
91 91 105
89 89 99
64 64 72
44 44 49
34 34 39
64 64 71
75 75 84
63 63 70
66 66 73
53 53 59
57 57 64
50 50 56
63 63 70
57 57 62
62 62 69
131 131 145
194 194 212
141 141 158
57 57 72
74 74 94
65 65 82
76 76 97
57 57 72
54 54 69
60 60 75
65 65 82
65 65 82
57 57 72
51 51 64
57 57 72
62 62 79
60 60 75
47 47 60
70 70 88
65 65 82
62 62 79
60 60 75
44 44 56
31 31 39
78 78 99
67 67 85
76 76 97
72 72 91
51 51 64
54 54 68
57 57 72
60 60 75
54 54 68
70 70 88
67 68 85
57 57 73
60 60 75
78 78 99
57 57 72
60 60 75
65 65 82
60 60 75
47 47 60
54 54 68
44 44 56
37 37 46
60 60 75
57 57 72
76 76 97
62 63 79
18 18 22
65 65 82
60 60 75
54 54 68
156 156 162
255 255 255
255 255 255
255 255 255
255 255 255
255 255 255
255 255 255
255 255 255
255 255 255
255 255 255
255 255 255
255 255 255
255 255 255
255 255 255
255 255 255
255 255 255
255 255 255
255 255 255
255 255 255
255 255 255
255 255 255
255 255 255
255 255 255
255 255 255
255 255 255
255 255 255
255 255 255
255 255 255
255 255 255
255 255 255
255 255 255
255 255 255
255 255 255
255 255 255
255 255 255
36 36 45
47 47 60
74 74 94
44 44 56
57 57 73
51 51 64
44 44 56
25 25 32
47 47 60
60 60 75
67 67 85
54 54 68
60 60 75
25 25 32
54 54 68
52 52 65
58 58 73
60 60 75
40 40 51
40 40 51
36 36 45
54 54 68
54 54 68
40 40 51
36 36 45
31 31 39
51 51 64
40 40 51
51 51 64
47 47 60
48 48 62
54 54 68
54 54 68
47 47 60
36 36 46
40 40 51
40 40 51
44 44 56
41 41 52
47 47 60
44 44 56
60 60 75
25 25 32
47 47 60
40 40 51
51 51 64
31 31 39
40 40 51
36 36 45
40 40 51
31 31 39
36 36 45
51 51 64
47 47 60
31 31 39
57 57 72
40 40 51
47 47 60
47 47 60
47 47 60
18 18 22
57 57 72
40 40 51
51 51 64
25 25 32
36 36 45
60 60 75
18 18 22
47 47 60
36 36 45
48 48 61
31 31 39
44 44 56
31 31 39
36 36 45
40 40 51
44 44 56
44 44 56
44 44 56
44 44 56
44 44 56
57 57 72
47 47 60
40 40 51
51 51 64
31 31 39
25 25 32
51 51 64
40 40 51
18 18 22
25 25 32
25 25 32
25 25 32
18 18 22
25 25 32
31 31 39
18 18 22
36 36 45
10 5 22
11 5 25
12 6 26
7 3 17
9 4 22
11 5 24
9 4 20
8 4 20
7 3 17
9 4 18
10 5 22
10 5 24
11 5 25
9 4 21
9 4 21
9 4 20
11 5 25
8 4 19
8 4 18
9 4 19
11 5 25
12 10 21
87 87 99
78 78 89
81 81 90
78 78 89
76 76 86
95 95 105
88 88 97
72 72 77
86 86 96
72 71 81
13 6 28
10 5 22
11 5 25
13 6 28
12 6 28
9 4 21
10 5 21
48 47 56
98 98 111
74 74 80
77 77 85
83 83 92
97 97 107
84 84 93
90 90 98
96 96 107
85 84 92
17 11 32
13 6 29
10 5 21
13 6 28
12 6 27
15 7 32
10 5 22
12 6 28
12 6 26
10 5 23
14 7 31
12 6 28
13 6 30
15 7 33
12 6 27
15 7 33
13 6 29
13 6 30
12 6 26
13 6 30
12 6 27
12 5 27
40 40 51
47 47 60
47 47 60
47 47 60
51 51 64
36 36 45
47 47 60
25 25 32
47 47 60
52 52 65
47 47 60
51 51 64
44 44 56
47 47 60
44 44 56
47 47 60
54 54 68
51 51 64
0 0 8
0 0 12
19 16 17
16 15 11
13 12 10
15 16 9
15 17 8
12 19 19
0 0 15
0 0 14
0 0 17
0 0 16
0 0 16
0 0 13
0 0 16
0 0 21
0 0 16
0 0 16
0 0 16
0 0 18
0 0 16
0 0 19
0 0 18
0 0 18
0 0 21
0 0 21
0 0 23
0 0 20
0 0 25
0 0 24
0 0 26
0 0 24
0 0 30
0 0 29
0 0 30
0 0 35
0 0 32
0 0 37
0 8 54
59 51 65
105 86 62
107 85 63
82 66 47
74 62 43
41 36 38
0 0 38
0 0 40
0 0 36
0 0 40
0 0 37
0 0 38
0 0 35
47 47 64
72 72 91
76 76 97
57 57 72
70 70 88
51 51 64
60 60 76
76 76 97
70 70 88
62 62 79
62 62 79
78 78 99
72 72 91
74 74 94
63 63 80
78 78 99
62 62 79
70 70 88
79 79 100
77 77 97
76 76 97
65 65 83
65 65 82
67 67 85
76 75 95
72 72 91
34 34 43
9 9 12
20 20 27
37 37 48
42 42 54
65 65 83
59 58 74
67 67 84
67 67 87
61 61 77
64 64 82
60 60 76
43 43 55
50 50 65
52 52 66
55 55 69
62 62 78
67 67 83
64 64 78
68 68 83
55 55 67
36 36 43
59 59 70
81 81 95
92 92 111
95 95 112
95 95 111
94 94 107
92 92 108
107 107 123
99 99 112
104 104 118
98 98 109
82 82 92
56 56 63
46 45 52
82 82 89
92 92 103
69 69 75
86 86 95
92 92 103
78 78 86
46 46 51
76 76 84
56 56 60
109 109 120
178 178 196
163 163 182
77 77 97
74 74 94
76 76 97
74 74 94
65 65 82
74 74 94
51 51 64
74 74 94
54 54 68
62 62 79
54 54 68
72 72 91
72 72 91
54 54 68
82 82 104
72 72 91
68 68 86
66 66 83
65 65 82
62 62 79
74 74 95
60 60 75
70 70 88
62 62 79
47 47 60
77 77 98
72 72 91
67 67 85
47 47 60
77 77 97
60 60 76
67 67 85
67 67 85
70 70 88
74 74 94
67 67 85
67 67 85
74 73 92
65 65 82
78 78 99
60 60 75
65 65 82
54 54 68
67 67 85
65 65 82
65 65 82
57 57 72
80 80 102
44 44 56
54 54 68
78 78 99
65 65 82
65 65 82
70 70 88
65 65 82
66 66 84
62 62 79
51 51 64
245 245 249
255 255 255
255 255 255
255 255 255
255 255 255
255 255 255
255 255 255
255 255 255
255 255 255
255 255 255
255 255 255
255 255 255
255 255 255
255 255 255
255 255 255
255 255 255
255 255 255
255 255 255
255 255 255
255 255 255
255 255 255
255 255 255
255 255 255
255 255 255
255 255 255
255 255 255
255 255 255
255 255 255
255 255 255
40 40 51
62 62 79
60 60 75
51 51 64
60 60 77
57 57 72
44 44 56
52 52 65
66 66 83
51 51 64
57 57 72
54 54 68
62 62 79
31 31 39
51 51 64
67 67 85
51 51 64
51 51 64
51 51 64
60 60 75
31 31 39
57 57 72
57 57 72
40 40 51
65 65 82
57 57 72
47 47 60
54 54 68
62 62 79
47 47 60
25 25 32
40 40 51
57 57 72
51 51 64
41 41 52
47 47 60
54 54 68
54 54 68
57 57 72
57 57 73
51 51 64
51 51 65
44 44 56
54 54 68
44 44 56
54 54 68
40 40 51
51 51 64
47 47 60
54 54 68
51 51 65
44 44 56
36 36 45
47 47 60
47 47 60
40 40 51
44 44 56
51 51 64
36 36 45
44 44 56
47 47 60
57 57 72
31 31 39
44 44 56
40 40 51
31 31 39
36 36 45
44 44 56
44 44 56
51 51 64
44 44 56
44 44 56
44 44 56
47 47 60
36 36 45
40 40 51
40 40 51
25 25 32
31 31 39
51 51 64
36 36 45
36 36 45
18 18 22
40 40 51
44 44 56
54 54 68
25 25 32
40 40 51
36 36 45
25 25 32
18 18 22
31 31 39
31 31 39
31 31 39
25 25 32
31 31 39
31 31 39
47 47 60
20 18 29
7 3 16
11 5 22
7 3 17
11 5 23
9 4 20
8 4 17
11 5 23
11 5 23
9 4 22
6 3 16
10 5 23
10 5 21
11 5 24
12 6 26
10 5 23
11 5 24
9 4 21
9 4 21
9 4 21
10 5 23
8 4 18
46 45 50
48 47 53
42 41 47
39 38 43
33 32 40
59 59 64
46 45 51
13 10 23
37 36 48
12 9 23
10 5 21
9 4 21
13 6 30
12 6 26
8 4 18
13 6 28
9 4 19
12 6 26
9 5 19
11 7 25
14 8 30
12 7 27
14 8 29
11 5 24
12 7 28
12 6 28
12 6 27
10 5 23
11 5 24
13 6 29
13 6 28
11 5 25
12 6 27
11 5 26
11 5 26
11 5 24
13 6 30
10 5 24
12 6 26
9 4 22
14 7 30
14 7 32
13 6 28
11 5 24
12 6 28
12 5 27
15 7 33
15 7 33
28 26 42
52 52 67
47 47 60
70 70 88
54 54 68
54 54 69
47 47 60
51 51 64
44 44 56
51 51 64
58 58 73
65 65 82
60 60 75
57 57 72
44 44 56
36 36 46
47 47 60
44 44 56
57 57 72
31 31 39
0 1 13
3 5 16
19 17 18
16 16 12
14 16 8
13 15 9
12 18 27
0 1 16
0 0 15
0 0 14
0 0 15
0 0 16
0 0 17
0 0 15
0 0 17
0 0 15
0 0 16
0 0 18
0 0 16
0 0 17
0 0 16
0 0 19
0 0 20
0 0 22
0 0 24
0 0 24
0 0 20
0 0 24
0 0 23
0 0 26
0 0 29
0 0 31
0 0 29
0 0 29
0 0 35
0 0 36
0 0 37
0 1 45
36 39 41
73 63 44
71 60 50
58 56 42
20 23 39
0 0 41
0 0 39
0 0 41
0 0 38
0 0 42
0 0 35
0 0 40
36 36 54
62 62 79
85 85 108
74 74 94
82 82 104
78 78 99
76 76 97
77 77 97
68 68 86
70 70 88
81 81 102
70 70 88
74 74 94
70 70 88
74 74 94
60 60 76
74 74 94
85 85 108
62 62 79
87 87 110
60 60 75
88 88 112
82 82 105
70 70 88
90 90 114
70 70 88
80 80 102
74 74 94
21 21 27
12 12 16
30 30 38
45 45 57
64 64 81
60 60 78
68 68 87
67 67 86
71 71 91
43 43 55
41 41 54
50 50 63
61 61 78
59 59 75
66 66 83
76 76 94
73 73 91
72 72 90
77 77 96
78 78 96
55 55 67
33 33 41
49 49 59
65 64 78
87 87 103
74 74 86
71 71 84
75 75 85
89 89 103
94 94 105
105 105 124
102 102 118
100 100 114
58 58 66
69 69 78
102 102 116
106 106 118
101 101 112
103 103 115
95 95 105
82 82 90
97 97 107
79 79 88
80 80 89
129 129 146
154 154 173
92 92 112
57 57 73
67 67 85
75 75 95
74 74 95
74 74 94
79 79 100
81 81 102
54 54 68
72 72 91
70 70 88
66 66 83
80 80 102
72 72 92
73 73 92
70 70 88
81 81 102
90 90 114
74 74 94
81 81 102
67 67 85
72 72 91
78 78 99
76 76 97
70 70 88
83 83 104
76 76 97
76 76 97
76 76 97
76 76 97
70 70 89
72 72 91
82 82 104
70 70 88
70 70 88
78 78 99
72 72 91
79 79 100
82 82 104
70 70 88
67 67 85
80 80 102
57 57 72
70 70 89
84 84 107
72 72 91
86 86 109
54 54 68
65 65 82
70 70 89
70 70 88
74 74 94
70 70 88
76 76 97
70 70 88
57 57 72
54 54 68
67 67 85
60 60 75
74 74 94
51 51 64
76 76 97
70 70 88
74 74 94
142 142 153
255 255 255
255 255 255
255 255 255
255 255 255
255 255 255
255 255 255
255 255 255
255 255 255
255 255 255
255 255 255
255 255 255
255 255 255
255 255 255
255 255 255
255 255 255
255 255 255
255 255 255
255 255 255
255 255 255
255 255 255
255 255 255
255 255 255
255 255 255
68 68 86
65 65 82
70 70 89
62 62 79
74 74 94
51 51 64
65 65 82
47 47 60
67 67 85
54 54 68
67 67 85
60 60 75
65 65 82
44 44 56
47 47 60
55 55 69
72 72 92
54 54 68
54 54 68
60 60 75
62 62 79
70 70 88
57 57 72
65 65 83
54 54 68
62 62 79
70 70 88
67 67 85
65 65 82
51 51 64
51 51 64
57 57 72
62 62 79
57 57 72
44 44 56
74 74 94
44 44 56
51 51 64
51 51 64
51 51 64
54 54 68
51 51 64
51 51 64
60 60 75
51 51 64
68 68 86
54 54 68
57 57 72
51 51 64
47 47 60
51 51 64
52 52 66
54 54 68
54 54 68
67 67 85
44 44 56
51 51 64
54 54 68
47 47 60
47 47 60
47 47 60
47 47 60
67 67 85
51 51 64
31 31 39
54 54 68
51 51 64
36 36 45
44 44 56
48 48 61
40 40 51
25 25 32
40 40 51
47 47 60
47 47 60
57 57 72
54 54 68
44 44 56
51 51 64
40 40 51
47 47 60
40 40 51
54 54 68
40 40 51
40 40 51
58 58 73
36 36 45
54 54 68
51 51 64
26 26 33
18 18 22
47 47 60
40 40 51
36 36 45
47 47 60
31 31 39
36 36 45
36 36 45
19 18 26
8 4 18
9 4 21
9 4 20
8 4 19
9 4 18
8 4 19
11 5 24
9 4 19
10 5 22
11 5 26
10 5 22
12 6 26
10 5 21
7 3 17
8 4 17
8 4 18
9 4 22
8 4 18
9 4 22
9 4 19
9 4 21
11 5 24
10 5 23
9 4 20
10 5 22
12 5 26
9 4 20
12 6 27
11 5 24
10 5 22
7 3 16
10 5 22
10 5 22
11 5 24
8 4 19
10 5 22
12 6 26
10 5 24
10 5 22
12 6 28
11 5 25
12 6 27
11 5 26
11 5 25
11 5 23
12 6 28
12 6 27
12 6 25
12 6 27
11 5 25
11 5 24
12 6 27
12 5 26
11 5 24
10 5 23
11 5 25
12 6 27
11 5 25
13 6 29
11 5 25
12 6 26
12 6 28
11 5 26
16 8 36
13 6 29
11 5 25
12 6 26
12 6 26
12 6 27
15 7 33
40 40 51
57 57 72
47 47 60
70 70 88
67 67 85
51 51 64
70 70 88
47 47 60
57 57 73
60 60 76
54 54 68
57 57 72
57 57 73
62 62 79
57 57 72
62 62 79
51 51 64
44 44 56
67 67 85
36 36 46
0 2 12
21 19 23
11 10 7
15 15 10
10 13 7
4 19 37
0 2 19
0 0 11
0 0 16
0 0 17
0 0 19
0 0 17
0 0 16
0 0 15
0 0 14
0 0 19
0 0 15
0 0 15
0 0 16
0 0 17
0 0 20
0 0 20
0 0 21
0 0 21
0 0 25
0 0 24
0 0 26
0 0 24
0 0 30
0 0 26
0 0 29
0 0 33
0 0 32
0 0 35
0 0 35
0 0 41
0 0 41
12 14 44
15 15 49
0 0 41
0 0 38
0 0 43
0 0 39
0 0 43
0 0 41
0 0 42
0 0 40
0 0 38
0 0 37
76 76 97
70 70 88
74 74 94
84 84 107
79 79 100
76 76 97
92 92 116
88 88 112
80 80 102
74 74 94
94 94 119
88 88 112
74 74 94
82 82 104
84 84 107
84 84 107
90 90 114
90 90 114
94 94 119
92 92 116
82 82 104
83 83 105
82 82 104
92 92 116
74 74 94
91 91 116
97 97 123
90 90 114
73 73 92
17 17 22
15 15 20
30 30 39
41 41 53
52 52 68
71 71 90
72 72 92
63 63 81
53 53 67
31 31 39
31 31 39
49 49 62
58 58 74
64 64 82
76 76 97
68 68 84
65 65 80
74 73 92
75 75 92
78 78 94
55 55 64
37 37 46
33 33 41
60 60 69
51 51 61
49 49 58
51 51 57
53 53 62
70 70 82
87 87 103
100 100 114
79 79 90
52 52 58
79 79 91
97 97 109
101 101 117
109 109 124
89 89 100
100 100 112
83 83 93
69 69 77
46 46 51
90 90 101
125 125 142
90 90 111
72 72 91
92 92 116
97 97 123
74 74 94
94 94 119
98 98 124
72 72 91
94 94 118
83 83 104
67 67 85
99 99 125
83 83 104
78 78 99
88 88 112
78 78 99
70 70 88
90 90 114
78 78 99
74 74 94
94 94 119
82 82 104
86 86 108
84 84 107
84 85 107
70 70 88
78 78 99
87 87 110
76 76 97
88 88 112
95 95 121
78 78 99
85 85 108
82 82 104
76 76 97
87 87 110
84 84 107
79 79 100
84 84 107
94 94 118
75 75 95
65 65 82
88 88 112
76 76 97
74 74 94
82 82 104
90 90 114
83 83 105
97 97 123
80 81 102
80 80 102
89 89 113
90 90 114
83 83 105
90 90 114
74 74 94
63 63 80
70 70 88
70 70 88
72 72 91
78 78 99
88 88 112
73 73 92
70 70 88
72 72 91
67 67 85
75 75 95
80 80 102
78 78 99
82 82 104
74 74 94
226 226 237
255 255 255
255 255 255
255 255 255
255 255 255
255 255 255
255 255 255
255 255 255
255 255 255
255 255 255
255 255 255
255 255 255
255 255 255
255 255 255
255 255 255
255 255 255
255 255 255
255 255 255
82 82 104
74 74 94
72 72 91
70 70 88
78 78 99
88 88 112
67 67 85
72 72 91
54 54 68
36 36 45
67 67 85
72 72 91
57 57 72
72 72 91
48 48 61
70 70 88
65 65 82
76 76 97
62 62 79
70 70 88
67 67 85
74 74 94
62 62 79
55 55 70
44 44 56
65 65 82
54 54 68
72 72 91
51 51 65
67 67 85
65 65 82
54 54 68
60 60 75
67 67 85
54 54 68
47 47 60
54 54 68
54 54 69
51 51 64
31 31 39
67 67 85
62 62 79
54 54 68
76 76 97
60 60 76
44 44 56
62 62 79
55 55 69
62 62 79
54 54 68
57 57 72
51 51 64
54 54 68
67 67 86
67 67 85
45 45 57
57 57 72
54 54 68
67 67 85
36 36 45
51 51 64
54 54 68
62 62 79
54 54 68
51 51 64
52 52 66
60 60 75
51 51 64
60 60 75
31 31 39
44 44 56
54 54 68
44 44 56
47 47 60
47 47 60
51 51 64
40 40 51
44 44 56
55 55 70
40 40 51
40 40 51
51 51 64
51 51 64
47 47 60
57 57 72
40 40 52
36 36 45
36 36 45
62 62 79
47 47 60
60 60 75
47 47 60
18 18 22
40 40 51
44 44 56
40 40 51
51 51 64
47 47 60
26 25 35
12 6 27
7 3 17
7 3 16
11 5 23
6 3 13
8 4 18
10 5 21
7 3 17
9 4 20
10 5 23
10 5 23
10 5 22
7 3 15
9 4 21
11 5 24
8 4 18
8 4 19
8 4 18
11 5 24
10 5 23
10 5 23
8 4 19
10 5 23
10 5 22
13 6 30
12 6 28
10 5 22
10 5 22
8 4 19
12 6 27
10 5 23
9 4 21
11 5 26
12 6 26
13 6 28
12 6 27
10 5 22
11 5 25
10 5 22
11 5 24
10 5 23
12 6 28
11 5 25
9 4 20
9 4 21
9 4 20
11 5 25
11 5 25
12 6 26
13 6 27
12 5 25
12 6 26
12 6 27
11 5 26
12 6 27
10 5 22
13 6 29
11 5 25
11 5 26
15 7 32
12 6 26
15 7 32
9 4 21
11 5 26
13 6 29
11 5 24
12 6 26
16 8 34
14 7 31
33 31 47
65 65 82
47 47 60
54 54 68
57 57 72
60 60 75
51 51 65
62 62 79
67 67 85
57 57 72
57 57 72
65 65 82
60 60 75
60 60 75
51 51 64
67 67 85
62 62 79
74 74 94
70 70 89
54 54 68
76 76 97
25 25 33
4 4 10
9 9 9
10 9 6
17 19 17
4 8 19
0 0 21
0 0 18
0 0 20
0 0 18
0 0 23
0 0 20
0 0 16
0 0 16
0 0 17
0 0 17
0 0 13
0 0 19
0 0 21
0 0 21
0 0 21
0 0 21
0 0 22
0 0 26
0 0 24
0 0 22
0 0 25
0 0 25
0 0 29
0 0 29
0 0 32
0 0 36
0 0 34
0 0 33
0 0 35
0 0 41
0 0 40
0 0 40
0 0 40
0 0 40
0 0 42
0 0 40
0 0 41
0 0 38
0 0 40
0 0 47
0 0 38
18 18 49
82 82 105
88 88 112
102 102 129
77 77 97
87 87 110
85 85 107
82 82 104
92 92 116
90 90 114
79 79 99
84 84 107
89 89 112
95 95 121
84 84 107
92 92 116
89 89 112
92 92 116
90 90 114
92 92 116
95 95 121
105 105 133
99 99 125
94 94 119
92 92 116
94 94 118
99 99 125
99 99 125
107 107 135
95 95 121
86 86 109
79 79 100
30 30 39
19 19 24
27 27 34
42 42 54
49 49 63
60 60 78
51 51 66
55 55 71
49 49 63
54 54 70
48 48 61
57 57 72
64 64 82
71 71 89
71 71 90
65 65 81
67 67 82
58 58 72
68 68 83
79 79 97
68 67 81
32 32 40
19 19 23
28 28 33
38 38 45
27 27 32
36 36 42
56 56 66
50 50 58
52 52 60
47 47 54
68 68 79
92 92 105
98 98 112
87 87 100
85 85 97
83 83 92
83 83 95
73 73 81
55 55 62
46 46 52
83 83 98
111 111 138
105 105 133
100 100 127
102 102 129
89 89 113
100 100 127
78 78 99
94 94 119
92 92 116
90 90 114
94 94 118
92 92 117
94 94 118
94 94 118
99 99 125
77 77 98
108 108 137
86 86 109
81 81 103
90 90 114
92 92 116
70 70 88
86 86 109
78 78 99
65 65 82
95 95 121
94 94 118
80 80 102
94 94 118
105 105 133
78 78 99
84 84 107
103 103 131
70 70 88
84 84 107
97 97 123
80 80 102
88 88 112
82 82 104
90 90 114
94 94 118
79 79 100
88 88 112
100 100 127
102 102 129
94 94 118
94 94 119
70 70 89
77 77 97
80 80 102
92 92 116
95 95 121
94 94 119
94 94 118
90 90 114
85 85 107
94 94 118
94 94 118
92 92 116
88 88 112
83 83 105
86 86 109
78 78 99
90 90 114
84 84 107
90 90 114
78 78 99
65 65 82
67 67 85
84 84 107
92 92 116
72 72 91
99 99 125
70 70 88
74 74 94
78 78 99
92 92 116
124 124 145
255 255 255
255 255 255
255 255 255
255 255 255
255 255 255
255 255 255
255 255 255
255 255 255
255 255 255
255 255 255
255 255 255
255 255 255
84 84 107
74 74 94
63 63 80
80 80 102
76 76 97
84 84 107
95 95 120
86 86 109
76 76 97
72 72 91
70 70 88
78 78 99
84 84 107
86 86 109
60 60 76
63 63 79
74 74 94
70 70 88
72 72 91
65 65 82
78 78 99
67 67 85
74 74 94
82 82 104
82 82 104
74 74 94
74 74 94
67 67 85
78 78 99
67 67 85
75 75 94
52 52 66
67 67 85
57 57 72
58 58 73
75 75 94
47 47 60
70 70 88
68 68 87
51 51 64
60 60 75
70 70 88
76 76 97
70 70 88
65 65 82
57 57 72
60 60 75
47 47 60
60 60 75
65 65 82
54 54 69
60 60 75
54 54 68
67 67 85
54 54 68
52 52 65
57 57 72
65 65 82
51 51 64
57 57 72
47 47 60
60 60 75
67 67 85
51 51 64
67 67 85
62 62 79
67 67 85
65 65 82
44 44 56
65 65 82
47 47 60
64 64 81
52 52 66
60 60 75
51 51 64
57 57 72
60 60 75
54 54 68
47 47 60
60 60 75
60 60 75
57 57 72
47 47 60
51 51 64
47 47 60
36 36 45
40 40 51
40 40 51
60 60 75
36 36 45
36 36 45
40 40 51
40 40 51
36 36 45
47 47 60
41 41 52
44 44 56
31 31 40
10 5 21
9 4 20
10 5 23
8 4 17
11 5 24
8 4 18
9 4 20
9 4 22
10 5 24
12 6 27
10 5 22
9 4 21
8 4 20
11 5 24
12 6 26
8 4 19
11 5 24
8 4 18
10 5 24
7 3 17
4 2 10
9 4 21
9 4 20
12 6 27
11 5 24
11 5 24
10 5 23
9 4 21
10 5 23
7 3 18
11 5 24
9 4 21
9 4 22
9 4 21
11 5 25
11 5 26
11 5 26
12 6 27
11 5 25
12 6 26
9 4 20
9 4 22
11 5 26
9 4 22
8 4 20
10 5 24
9 4 21
12 6 26
12 6 27
13 6 30
13 6 29
10 5 23
12 5 26
10 5 23
13 6 27
12 6 27
14 7 31
13 6 28
13 6 29
13 6 28
13 6 28
14 7 31
15 7 32
13 6 29
11 5 27
12 5 26
13 6 29
12 6 26
13 6 29
14 7 33
12 6 26
74 74 94
72 72 91
62 62 79
57 57 72
68 68 88
44 44 56
60 60 76
57 57 72
62 62 79
66 66 84
54 54 68
54 54 68
62 62 79
80 80 102
88 88 112
60 60 75
76 76 97
84 84 107
80 80 102
72 72 92
72 72 91
31 31 41
2 3 11
20 16 13
15 14 12
0 4 23
0 2 18
0 1 20
0 0 22
0 0 23
0 0 16
0 0 18
0 0 22
0 0 24
0 0 19
0 0 23
0 0 21
0 0 20
0 0 19
0 0 24
0 0 28
0 0 30
0 0 31
0 0 29
0 0 31
0 0 36
0 0 28
0 0 28
0 0 30
0 0 36
0 0 34
0 0 39
0 0 36
0 0 32
0 0 36
0 0 36
0 0 40
0 0 40
0 0 40
0 0 41
0 0 46
0 0 42
0 0 39
0 0 46
0 0 55
0 0 44
25 25 54
85 85 110
92 92 116
108 108 137
81 81 102
94 94 119
107 107 135
85 85 107
107 107 136
92 92 116
90 90 114
90 90 114
95 95 121
107 107 135
94 94 119
110 110 139
108 108 137
110 110 139
94 94 119
105 105 133
107 107 135
76 76 97
114 114 144
88 88 112
135 135 171
102 102 130
115 115 146
104 104 132
102 102 129
108 108 137
122 122 155
111 111 141
111 111 141
104 104 132
36 36 47
32 32 40
28 28 35
36 36 46
49 49 63
56 56 72
56 55 72
56 56 72
57 57 73
61 61 79
64 64 82
62 62 79
82 82 105
74 74 94
77 77 98
73 73 90
57 57 69
58 58 73
50 50 63
52 52 62
33 33 40
28 28 35
29 29 36
30 30 35
21 21 25
30 30 36
47 47 55
32 32 38
32 32 39
63 63 72
85 85 98
80 80 92
75 75 85
73 73 83
57 57 66
73 73 83
68 68 77
56 56 64
53 53 61
75 75 88
111 111 139
105 105 133
122 122 154
113 113 142
100 100 127
105 105 133
114 114 144
103 103 131
97 97 123
121 121 154
99 99 125
111 111 141
95 95 121
100 100 127
108 108 137
102 102 129
105 105 133
88 88 112
99 99 125
100 100 127
96 96 121
85 85 107
111 111 141
95 95 121
95 95 121
102 102 129
117 117 148
100 100 127
98 98 124
91 91 115
86 86 109
110 110 139
94 94 119
99 99 126
104 104 132
111 111 141
107 107 135
94 94 119
107 107 135
108 108 137
94 94 119
110 110 139
94 94 118
99 99 125
100 100 127
80 80 102
90 90 114
99 99 125
111 111 141
79 79 100
88 88 112
107 107 135
105 105 133
105 105 133
102 102 130
100 100 127
82 82 104
74 74 95
95 95 121
90 90 114
105 105 133
101 101 127
100 100 127
100 100 127
78 78 99
105 105 133
85 85 108
79 79 100
94 94 118
87 87 110
82 82 105
103 103 131
60 60 75
99 99 126
79 79 100
88 88 112
87 87 110
84 84 106
90 90 114
74 74 94
82 82 104
90 90 114
95 95 121
99 99 125
215 215 226
255 255 255
255 255 255
255 255 255
255 255 255
255 255 255
255 255 255
80 80 102
76 76 97
86 86 109
78 78 99
86 86 109
90 90 114
84 84 107
95 95 121
76 76 97
85 85 107
67 67 85
82 82 104
82 82 104
86 86 109
75 75 94
85 85 107
76 76 97
99 99 126
70 70 88
66 66 83
91 91 115
74 74 94
72 72 91
80 80 102
82 82 104
76 76 97
57 57 72
74 74 94
84 84 107
82 82 104
61 61 77
80 80 102
76 76 97
70 70 88
86 86 109
70 70 88
79 79 100
70 70 88
62 62 79
76 76 97
70 70 88
70 70 88
51 51 64
74 74 94
74 74 94
76 76 97
67 67 85
72 72 91
54 54 68
62 62 79
65 65 82
80 80 102
67 67 85
86 86 109
76 76 97
74 74 94
67 67 85
60 60 75
67 67 85
65 65 82
82 82 104
80 80 102
57 57 72
51 51 64
70 70 88
62 62 79
80 80 102
65 65 82
68 68 87
62 62 79
60 60 75
70 70 88
65 65 82
72 72 91
51 51 64
57 57 72
72 72 91
54 54 68
57 57 72
60 60 75
51 51 64
60 60 75
51 51 64
62 62 79
63 63 80
65 65 82
65 65 82
54 54 68
51 51 64
31 31 39
47 47 60
47 47 60
40 40 51
40 40 51
18 18 22
36 36 45
31 31 39
40 40 51
20 18 30
8 4 19
10 5 21
11 5 24
8 4 19
10 5 22
5 2 12
7 3 16
11 5 25
10 5 23
8 4 17
9 4 21
8 4 19
9 4 21
12 6 27
9 4 21
9 4 20
9 4 20
9 4 20
11 5 24
8 4 19
8 4 17
10 5 23
6 3 14
5 2 12
7 3 17
11 5 23
10 5 22
10 5 23
13 6 30
9 4 19
8 4 20
14 7 31
11 5 25
10 5 22
10 5 23
10 5 23
12 6 27
12 6 27
11 5 25
11 5 24
10 5 22
13 6 30
11 5 26
12 6 28
12 6 27
11 5 25
11 5 26
9 4 20
10 5 24
10 5 24
11 5 25
11 5 24
10 5 24
10 5 22
10 5 22
13 6 28
13 6 30
11 5 25
10 5 23
13 6 30
14 7 31
12 6 27
13 6 29
12 6 27
12 6 28
12 6 27
9 4 22
11 5 27
13 6 29
20 18 32
83 83 105
70 70 88
54 54 68
86 86 109
65 65 82
80 80 102
62 62 79
74 74 94
60 60 75
60 60 76
72 72 91
68 68 88
62 62 79
57 57 72
90 90 114
74 74 94
83 83 105
94 94 119
84 84 107
78 78 99
76 76 97
86 86 109
44 44 56
1 3 11
12 10 10
8 8 18
0 2 19
0 3 21
0 1 22
0 1 22
0 0 20
0 0 21
0 1 20
0 2 25
0 0 26
0 0 25
0 0 20
0 0 23
0 0 30
0 0 25
0 0 24
0 0 28
0 1 33
0 1 36
0 0 27
0 0 32
0 0 30
0 0 33
0 0 37
0 0 37
0 0 34
0 0 37
0 0 37
0 0 40
0 0 40
0 0 42
0 0 44
0 0 41
0 0 39
0 0 46
0 0 49
0 0 49
0 0 45
0 4 50
0 4 54
18 18 54
86 86 111
85 85 108
110 110 139
92 92 116
111 111 141
105 105 133
108 108 137
100 100 127
105 105 133
106 106 134
110 110 139
92 92 116
113 113 143
105 105 133
88 88 112
107 107 135
114 114 144
97 97 123
90 90 114
100 100 127
125 125 158
99 99 125
110 110 139
110 110 139
122 122 155
110 110 139
124 124 157
124 124 157
122 122 155
107 107 135
118 118 150
126 126 160
122 122 155
124 124 157
103 103 131
64 65 82
21 21 28
25 25 33
34 34 44
35 35 45
55 55 70
60 60 78
66 66 83
68 68 88
68 67 87
76 76 97
73 73 94
71 71 91
71 71 91
72 72 90
65 65 82
55 55 70
42 42 52
29 29 35
31 31 38
26 26 31
25 25 30
44 44 53
41 41 49
42 42 50
42 42 52
57 57 69
61 61 73
59 59 69
52 52 61
42 42 50
60 60 68
50 50 58
53 53 60
67 67 76
57 57 65
41 41 46
68 68 84
113 113 142
130 130 165
124 124 157
134 134 170
110 110 139
112 112 142
114 114 145
116 116 147
104 104 131
120 120 151
120 120 151
108 108 137
110 110 139
102 102 129
125 125 158
125 125 159
100 100 127
125 125 158
108 108 137
100 100 127
121 121 153
100 100 127
105 105 133
114 114 145
100 100 127
107 107 135
114 114 144
104 104 131
107 107 135
103 103 131
104 104 131
120 120 152
97 97 123
117 117 148
88 88 112
116 116 146
102 102 129
117 117 148
108 108 137
103 103 131
99 99 125
97 97 123
107 107 135
102 102 129
110 110 139
110 110 139
99 99 125
98 98 124
102 102 129
92 92 117
99 99 126
104 104 131
109 109 137
101 101 128
99 99 125
96 96 122
102 102 129
95 95 121
105 105 133
105 105 133
115 115 146
101 101 127
121 121 154
113 113 143
107 107 135
105 105 133
112 112 141
94 94 118
95 95 121
121 121 154
96 96 121
97 97 123
86 86 109
99 99 126
113 113 142
90 90 114
110 110 139
97 97 123
103 103 130
104 104 132
108 108 136
92 92 116
102 102 129
108 108 137
92 92 117
102 102 129
97 97 123
94 94 118
90 90 114
102 102 129
107 107 128
198 198 211
97 97 123
84 84 107
90 90 114
100 100 127
97 97 123
113 113 142
100 100 127
92 92 116
99 99 125
118 118 150
105 105 133
97 97 123
86 86 109
90 90 114
78 78 99
76 76 97
82 82 104
74 74 94
90 90 114
70 70 88
85 85 107
84 84 107
82 82 104
77 77 97
65 65 83
82 82 104
90 90 114
85 85 108
70 70 88
67 67 85
80 80 102
90 90 114
84 84 107
76 76 97
87 87 110
74 74 94
76 76 97
81 81 102
72 72 91
77 77 97
54 54 68
95 95 121
76 76 97
92 92 116
78 78 99
74 74 94
72 72 91
72 72 91
84 84 107
80 80 102
78 78 99
68 68 86
76 76 97
78 78 99
72 72 91
65 65 82
80 80 102
68 68 86
51 51 64
83 83 105
84 84 107
70 70 88
82 82 104
60 60 75
74 74 94
76 76 97
74 74 94
74 74 94
60 60 75
63 63 80
65 65 82
72 72 91
63 63 79
72 72 91
80 80 102
62 62 79
51 51 64
72 72 91
51 51 65
70 70 88
62 62 79
62 62 79
70 70 89
60 60 75
65 65 82
54 54 68
57 57 72
47 47 60
62 62 79
47 47 60
31 31 39
51 51 64
47 47 60
40 40 51
36 36 45
31 31 39
54 54 68
62 62 79
26 25 37
7 3 15
8 4 18
10 5 22
9 4 22
11 5 26
9 4 19
8 4 18
10 5 23
7 3 18
9 4 21
9 4 20
9 4 20
11 5 24
11 5 24
8 4 18
9 4 20
9 4 21
10 5 23
8 4 18
9 4 20
12 6 25
10 5 22
12 6 26
11 5 24
13 6 28
9 4 20
11 5 25
7 3 18
11 5 25
9 4 22
11 5 25
9 4 19
9 4 21
11 5 25
8 4 19
9 4 22
12 6 27
9 4 21
12 6 27
10 5 23
11 5 25
12 6 27
12 6 27
9 4 21
9 4 21
12 6 27
11 5 23
13 6 28
14 7 31
12 6 27
11 5 25
8 4 19
12 6 27
11 5 26
13 6 28
11 5 25
12 6 27
16 8 33
12 6 26
12 6 27
10 5 23
12 5 26
10 5 23
13 6 27
12 6 28
13 6 30
13 6 30
13 6 29
14 7 31
12 6 26
65 65 82
82 82 104
82 82 104
76 76 97
78 78 99
65 65 82
88 88 112
76 76 97
84 84 107
85 85 107
77 77 98
84 84 107
88 88 112
90 90 114
86 86 110
94 94 118
94 94 118
80 80 102
79 79 100
67 67 85
84 84 107
86 86 109
97 97 124
51 51 65
17 16 25
11 11 14
0 2 17
0 2 20
0 2 24
0 2 19
0 0 19
0 1 20
0 3 27
0 2 19
0 1 27
0 0 21
0 0 23
0 0 22
0 0 20
0 0 25
0 0 28
0 0 23
0 0 27
0 1 34
0 0 28
0 0 32
0 0 35
0 0 34
0 0 34
0 0 40
0 0 34
0 0 35
0 0 37
0 0 41
0 0 39
0 0 41
0 0 41
0 0 45
0 0 45
0 0 44
0 1 50
0 0 46
0 0 49
0 5 48
31 31 58
84 84 108
113 113 143
135 135 171
107 107 135
99 99 125
110 110 139
110 110 139
129 129 163
107 107 136
117 117 148
99 99 125
110 110 139
126 126 160
128 128 162
118 118 150
131 131 166
127 127 160
116 116 147
110 110 139
120 120 152
110 110 139
126 126 160
113 113 143
111 111 141
104 104 131
129 129 163
121 121 154
115 114 145
108 108 137
117 117 148
125 125 158
124 124 157
114 114 144
121 121 153
134 134 169
105 105 134
116 116 147
85 85 108
25 25 32
17 17 23
30 30 38
48 48 62
66 66 84
67 67 87
66 66 85
70 70 91
75 74 95
79 79 102
69 69 88
86 86 109
72 71 88
66 66 83
60 60 76
44 44 56
32 32 40
20 20 25
43 43 53
64 64 79
62 62 76
67 67 80
51 51 61
48 48 59
54 54 63
69 69 80
55 55 65
25 25 28
38 38 43
43 43 51
46 46 52
41 41 46
40 40 46
51 51 59
103 103 128
137 137 172
126 126 160
115 115 145
117 117 148
114 114 144
118 118 150
115 115 146
121 121 153
124 124 157
121 122 154
135 135 171
134 134 170
120 120 152
117 117 148
135 135 171
125 125 159
99 99 126
133 133 168
120 120 151
110 110 139
117 117 148
108 108 137
117 117 149
111 111 141
113 113 143
124 124 156
116 116 147
120 120 151
130 130 165
115 115 146
94 94 119
122 122 154
108 108 137
123 123 155
120 120 151
108 108 137
112 112 141
135 135 171
117 117 148
119 119 151
118 118 150
111 111 141
116 116 146
117 117 148
111 111 141
102 102 129
120 120 151
117 117 148
97 97 124
125 125 158
117 117 148
107 107 135
114 114 144
120 120 151
117 117 148
113 113 143
111 111 141
92 92 117
111 111 141
118 118 150
110 110 139
85 85 107
107 107 135
108 108 137
100 100 127
104 104 132
120 120 151
121 121 154
105 105 133
120 120 152
115 115 146
116 116 147
117 117 148
113 113 142
107 107 135
105 105 133
90 90 114
111 111 141
118 118 150
90 90 114
97 97 123
113 113 142
91 91 115
113 113 143
115 115 146
99 99 125
102 102 129
101 101 128
99 99 125
108 108 137
113 113 142
113 113 143
120 120 151
113 113 143
108 108 137
108 108 137
94 94 118
102 102 129
95 95 121
100 100 127
114 114 145
107 107 135
110 110 139
102 102 129
102 102 129
102 102 129
86 86 109
88 88 112
104 104 132
97 97 123
79 79 100
90 90 114
94 94 118
94 94 118
90 90 114
90 90 114
85 85 108
92 92 117
110 110 139
105 105 133
103 103 131
90 90 114
94 94 119
95 95 121
90 90 114
88 88 112
95 95 121
102 102 129
79 79 100
99 99 125
76 76 97
91 91 115
95 95 121
100 100 127
81 81 102
89 89 113
83 83 105
90 90 114
82 82 104
84 84 107
92 92 117
88 88 112
86 86 109
78 78 99
76 76 97
76 76 97
92 92 116
83 83 105
70 70 88
90 90 114
85 85 107
70 70 88
94 94 118
74 74 94
72 72 91
80 80 102
78 78 99
65 65 82
78 78 99
88 88 112
80 80 102
60 60 75
62 62 79
82 82 104
72 72 91
62 62 79
65 65 82
82 82 104
65 65 83
78 78 99
74 74 94
88 88 112
70 70 89
76 76 97
68 68 86
82 82 104
85 85 108
80 80 102
74 74 94
72 72 92
67 67 85
79 79 100
36 36 45
47 47 60
57 57 72
62 62 79
47 47 60
40 40 51
40 40 51
44 44 56
44 44 56
20 18 29
8 4 19
10 5 24
9 4 21
10 5 22
10 5 22
10 5 22
8 4 19
12 6 28
7 3 16
7 3 17
8 4 18
9 4 21
7 3 17
10 5 23
11 5 24
12 6 26
9 4 21
11 5 25
8 4 18
9 4 19
11 5 24
9 4 20
6 3 15
8 4 19
10 5 23
8 4 19
9 4 20
11 5 24
12 6 28
9 4 22
11 5 25
11 5 24
10 5 22
9 4 20
11 5 24
9 4 20
10 5 22
13 6 29
11 5 25
10 5 22
12 6 26
11 5 24
11 5 26
9 4 23
12 6 26
10 5 22
12 5 26
13 6 29
12 5 25
9 4 22
8 4 19
14 7 30
10 5 22
11 5 25
11 5 25
10 5 24
12 6 27
11 5 24
15 7 32
13 6 28
14 7 30
13 6 29
12 6 27
13 6 28
16 8 36
14 7 30
12 6 26
11 5 25
13 6 29
13 6 28
72 72 91
80 80 102
84 84 107
79 79 100
86 86 109
84 84 107
80 80 102
74 74 94
70 70 88
87 87 111
86 86 110
72 72 91
88 88 112
84 84 107
90 90 114
80 80 102
107 107 135
82 82 104
85 85 107
82 82 105
87 87 110
80 80 102
78 78 99
113 113 143
60 60 77
23 22 30
12 12 18
0 0 15
0 1 20
0 1 20
0 1 19
0 2 24
0 3 26
0 2 19
0 3 27
0 2 28
0 1 26
0 3 25
0 1 31
0 0 23
0 0 27
0 0 28
0 0 29
0 0 26
0 0 24
0 0 30
0 0 33
0 0 31
0 0 38
0 0 40
0 0 31
0 0 30
0 0 35
0 0 37
0 0 36
0 0 31
0 0 40
0 0 42
0 0 44
0 0 46
0 0 44
0 0 47
0 0 44
70 70 95
110 110 140
115 115 146
125 125 158
114 114 145
105 105 133
111 111 141
116 116 147
128 128 162
125 125 158
111 111 141
126 126 160
97 97 123
114 114 145
128 128 162
120 120 152
128 128 162
99 99 125
135 135 171
108 108 137
134 134 170
118 118 150
111 111 141
130 130 165
107 107 136
124 124 157
134 134 170
139 139 175
128 128 162
121 121 153
118 118 150
120 120 152
117 117 148
108 108 137
129 129 163
124 124 157
113 113 143
121 121 153
118 118 150
137 138 174
110 110 140
52 52 67
23 23 29
21 21 27
35 35 46
58 58 75
73 72 93
71 71 92
86 86 112
86 85 109
87 87 111
79 79 101
75 75 96
70 70 89
62 62 80
53 53 66
43 43 55
44 44 55
46 46 55
56 56 69
51 50 61
53 53 64
39 39 47
45 45 55
60 60 73
50 50 62
35 35 40
31 31 35
46 46 57
50 50 58
55 55 63
60 60 72
73 73 89
120 120 151
127 127 161
139 139 176
136 136 172
133 133 168
147 147 186
142 142 180
118 118 150
135 135 171
121 121 153
130 130 165
125 125 158
128 128 163
145 145 183
124 124 157
124 124 157
132 132 167
107 107 135
131 131 166
125 125 158
117 117 148
131 131 166
114 114 144
119 119 150
118 118 150
122 122 154
108 108 137
120 120 152
117 117 149
129 129 163
123 123 155
120 120 152
113 113 144
114 114 144
131 131 166
120 120 151
127 127 160
120 120 153
128 128 162
121 121 154
123 123 155
105 105 133
143 143 181
123 123 155
129 129 163
136 136 172
131 131 166
117 117 148
128 128 162
134 134 169
120 120 152
124 124 157
128 128 162
111 111 141
95 95 121
121 121 154
116 116 147
121 121 153
116 116 148
129 129 163
117 117 148
128 128 161
124 124 157
105 105 133
120 120 152
128 128 161
117 117 148
113 113 144
117 117 149
121 121 153
128 128 162
121 121 154
124 124 156
131 131 166
115 115 146
118 118 150
99 99 125
122 122 155
114 114 144
118 118 150
123 123 156
124 124 157
120 120 151
118 118 150
110 110 139
120 120 152
120 120 152
114 114 144
120 120 151
120 120 152
108 108 137
100 100 127
108 108 137
132 132 167
110 110 139
110 110 139
103 103 131
100 100 127
120 120 151
117 117 148
107 107 135
111 111 141
107 107 135
122 122 155
113 113 143
113 113 142
99 99 125
115 115 146
99 99 126
108 108 137
94 94 118
113 113 143
111 111 141
102 102 129
107 107 136
125 125 158
120 120 151
92 92 116
111 111 141
117 117 148
86 86 109
99 99 125
114 114 144
95 95 121
110 110 139
104 104 132
92 92 116
95 95 121
95 95 121
94 94 118
101 101 128
92 92 116
90 90 114
105 105 133
94 94 118
90 90 114
78 78 99
95 95 121
97 97 123
100 100 127
97 97 123
88 88 112
84 84 107
97 97 124
82 82 104
76 76 97
80 80 102
84 84 107
88 88 112
88 88 112
88 88 112
82 82 104
102 102 129
82 82 104
75 75 95
97 97 123
90 90 114
97 97 123
88 88 112
84 84 107
80 80 102
100 100 127
70 70 88
80 80 102
77 77 98
100 100 127
80 80 102
91 91 115
94 94 118
76 76 97
72 72 91
62 62 79
78 78 99
88 88 112
82 82 104
62 62 79
80 80 102
83 83 105
80 80 102
62 62 79
70 70 88
67 67 85
65 65 83
78 78 99
47 47 60
40 40 51
54 54 68
54 54 68
44 44 56
54 54 68
25 25 32
40 40 51
52 52 67
27 26 38
9 4 19
7 3 17
8 4 17
8 4 19
10 5 23
7 3 16
8 4 19
8 4 18
7 3 15
11 5 24
5 2 14
7 3 16
9 4 22
6 3 14
9 4 20
10 5 22
11 5 25
11 5 23
9 4 22
11 5 24
8 4 19
12 6 26
10 5 20
10 5 23
9 4 22
12 6 27
12 6 27
9 4 19
7 3 16
12 5 25
10 5 22
10 5 24
11 5 24
12 6 28
12 6 27
9 4 22
10 5 23
11 5 24
9 4 20
13 6 30
9 4 21
11 5 24
10 5 25
12 6 27
12 6 27
12 6 26
11 5 23
10 5 22
11 5 25
14 7 31
12 6 27
10 5 25
11 5 27
13 6 29
8 4 19
11 5 25
14 7 31
12 6 28
14 7 32
13 6 27
13 6 28
10 5 23
11 5 25
13 6 29
13 6 28
15 7 32
12 5 26
13 6 29
15 7 32
11 5 25
92 92 116
76 76 97
74 74 94
65 65 82
88 88 112
82 82 104
70 70 88
82 82 104
92 92 117
94 94 119
94 94 119
95 95 121
82 82 104
85 84 107
74 74 94
79 79 100
74 74 94
96 96 122
95 95 121
108 108 137
94 94 119
86 86 110
85 85 108
95 95 121
90 90 115
88 88 112
31 31 41
10 10 19
4 6 17
0 1 17
0 0 21
0 0 20
0 0 21
0 0 22
0 2 28
0 1 18
0 0 24
0 1 22
0 1 28
0 0 27
0 0 28
0 0 22
0 0 26
0 0 28
0 0 24
0 0 28
0 0 27
0 0 34
0 0 27
0 0 39
0 0 36
0 0 37
0 0 30
0 0 38
0 0 35
0 0 37
0 0 42
0 0 46
0 0 44
0 0 43
0 2 47
0 0 43
99 99 129
136 136 173
100 100 127
120 120 151
106 106 134
116 116 147
116 116 146
121 121 153
122 122 155
119 119 151
120 120 152
121 121 153
105 105 133
124 124 157
131 130 165
123 123 156
129 129 164
123 123 155
132 132 167
108 108 138
121 121 154
126 126 160
122 122 154
122 121 155
104 104 132
108 108 137
104 104 132
107 107 135
133 133 168
119 119 150
105 105 134
118 118 150
116 116 147
108 108 138
82 82 104
99 99 126
97 97 124
113 113 144
98 98 124
83 83 105
100 100 127
92 92 116
91 91 115
55 55 70
24 24 32
21 21 26
24 24 32
43 42 55
50 50 66
66 65 84
79 79 102
81 81 105
76 76 98
80 80 103
59 59 76
63 63 81
56 56 71
45 45 56
34 34 43
38 38 47
31 31 38
48 48 58
51 51 63
54 54 66
50 50 62
43 43 52
35 35 41
36 36 43
35 35 42
54 54 62
69 69 84
84 84 103
102 102 127
108 108 137
104 104 131
114 114 145
110 110 139
120 120 152
98 98 124
121 121 154
116 116 148
125 125 158
113 113 143
124 124 157
123 123 156
135 135 171
128 128 162
125 125 158
125 125 159
126 126 159
138 138 175
120 120 152
135 135 171
124 124 157
135 135 172
125 125 159
137 137 174
129 129 164
118 118 149
136 136 172
127 127 161
131 131 166
112 112 142
136 136 172
127 127 161
125 125 159
104 104 132
125 125 158
130 130 164
112 112 142
130 130 165
124 124 157
137 137 174
125 125 158
133 133 169
127 127 161
138 138 175
134 134 169
133 133 168
131 131 166
124 124 157
123 123 156
136 136 172
128 128 162
122 122 155
126 126 160
121 121 154
118 118 149
143 143 181
120 120 152
133 133 168
139 139 176
138 138 175
129 129 163
134 134 169
132 132 167
134 134 169
123 123 156
138 138 174
144 144 182
136 136 172
131 131 166
126 126 159
126 126 160
117 117 148
126 126 160
142 142 180
143 143 182
110 110 139
125 125 159
146 146 184
139 139 176
126 126 160
137 137 173
128 128 163
136 136 173
133 133 168
131 131 166
133 133 168
132 132 167
116 116 146
124 124 157
116 116 147
131 131 166
107 107 136
134 134 170
133 133 168
124 124 157
118 118 150
118 118 150
129 129 163
125 125 158
121 121 153
118 118 150
118 118 150
114 114 144
133 133 168
109 109 138
129 129 163
113 113 142
134 134 169
119 119 150
117 117 148
126 126 160
101 101 128
116 116 147
113 113 142
107 107 135
118 118 150
129 129 163
113 113 143
117 117 148
111 111 141
113 113 143
111 111 141
113 113 142
116 116 147
100 100 127
101 101 127
105 105 133
97 97 123
121 121 153
88 88 112
107 107 135
114 114 144
102 102 129
92 92 117
108 108 137
122 122 155
90 90 114
111 111 141
108 108 137
99 99 126
103 103 131
100 100 127
106 106 134
107 107 135
84 84 107
92 92 116
84 84 107
99 99 125
101 101 127
105 105 133
89 89 113
102 102 129
96 96 121
103 103 131
100 100 126
97 97 123
86 86 109
84 84 107
99 99 125
108 108 137
82 82 104
88 88 111
76 76 97
92 92 116
81 81 103
72 72 91
51 51 64
99 99 125
86 86 109
105 105 133
78 78 99
90 90 114
84 84 107
86 86 109
82 82 104
86 86 109
76 76 97
74 74 94
70 70 88
84 84 107
76 76 97
67 67 85
79 79 99
88 88 112
70 70 88
40 40 51
54 54 68
44 44 56
54 54 68
60 60 76
51 51 64
57 57 72
57 57 72
47 47 60
6 3 13
8 4 18
7 3 17
10 5 23
9 4 20
9 4 20
11 5 24
9 4 20
11 5 23
7 3 17
9 4 21
8 4 18
11 5 25
7 3 18
8 4 18
10 5 22
12 6 26
8 4 19
8 4 20
9 4 20
8 4 19
10 5 24
8 4 18
5 2 14
11 5 25
12 6 27
11 5 25
11 5 25
11 5 24
11 5 24
9 4 22
10 5 23
10 5 21
11 5 26
11 5 24
10 5 22
10 5 21
10 5 22
12 6 25
10 5 22
10 5 21
12 6 27
13 6 27
9 4 20
12 5 25
10 5 25
12 6 27
10 5 23
8 4 20
10 5 22
11 5 25
10 5 23
12 6 26
10 5 21
13 6 28
11 5 26
10 5 24
13 6 27
10 5 23
13 6 29
13 6 29
14 7 30
13 6 29
13 6 29
12 6 27
13 6 28
10 5 22
12 6 27
14 7 29
13 6 28
12 6 27
92 92 116
84 84 107
81 80 102
76 76 97
84 84 107
86 86 110
92 92 116
88 88 112
88 88 112
97 97 123
105 105 133
78 78 99
94 94 118
97 97 123
92 92 117
92 92 117
90 90 114
80 80 102
90 90 114
82 82 105
94 94 119
108 108 137
81 81 102
92 92 116
99 99 125
104 103 131
80 80 102
51 51 65
18 19 27
1 4 19
0 1 18
0 0 18
0 0 20
0 2 24
0 2 21
11 12 28
0 1 23
0 2 28
0 1 29
0 0 27
0 0 28
0 0 29
0 0 28
0 0 21
0 0 28
0 0 29
0 0 27
0 0 32
0 0 28
0 0 33
0 0 37
0 0 35
0 0 33
0 0 34
0 0 42
0 2 46
0 7 42
0 3 49
0 2 54
0 2 49
57 57 83
125 125 160
116 116 147
130 130 165
130 130 165
108 108 137
107 107 135
131 131 166
134 134 170
130 130 165
109 109 137
115 115 146
119 119 152
114 114 145
103 103 131
109 108 137
122 122 155
110 110 139
105 105 133
110 110 140
97 98 124
118 118 150
117 117 149
99 99 126
91 91 115
112 112 142
103 103 131
94 94 119
104 104 132
101 101 128
82 82 105
81 81 104
89 89 114
93 93 118
68 68 86
68 68 87
78 78 99
66 66 85
41 41 54
70 71 90
52 52 67
55 55 71
40 40 52
28 28 36
41 41 53
18 18 24
32 31 40
11 11 18
15 15 21
17 17 22
28 28 36
44 44 58
52 52 69
56 55 72
52 51 66
50 50 66
61 61 78
44 44 56
46 46 59
43 43 55
30 30 38
27 27 34
40 40 50
43 43 54
53 53 66
49 49 62
43 43 53
29 29 36
42 42 53
68 68 84
82 82 99
83 83 103
77 77 100
97 97 123
82 82 105
76 76 98
61 61 79
94 94 119
76 76 97
105 105 134
88 88 112
104 104 132
103 103 131
100 100 127
111 111 141
108 108 137
112 112 142
111 111 141
117 117 148
109 109 138
128 128 163
114 114 145
119 119 152
120 120 152
123 123 157
131 131 166
110 110 139
128 128 162
133 133 169
142 142 180
137 137 174
137 137 173
128 128 162
130 130 165
122 122 155
132 132 168
118 118 149
125 125 159
119 119 150
109 109 138
116 116 147
125 125 158
113 113 143
124 124 157
124 124 158
139 139 176
117 117 149
125 125 158
132 132 168
126 126 159
147 147 186
147 147 186
127 127 162
111 111 140
132 132 168
131 131 166
123 123 156
145 145 183
140 140 178
131 131 166
147 147 187
149 149 189
133 133 169
132 132 167
128 128 162
145 145 184
158 158 200
152 152 193
138 138 175
142 142 180
143 143 181
146 146 185
140 140 177
149 149 189
136 136 172
165 165 209
147 147 186
132 132 167
144 144 182
137 137 174
142 142 180
149 149 188
134 134 169
148 148 187
145 145 183
144 144 182
139 139 176
152 152 192
149 149 188
143 143 181
137 137 174
143 143 181
150 150 190
139 139 176
136 136 173
123 123 155
145 145 184
150 150 190
147 147 186
139 139 175
134 134 170
145 145 184
140 140 177
128 128 161
125 125 158
126 126 160
130 130 165
131 131 166
128 128 161
133 133 168
145 145 183
133 133 168
121 121 154
120 120 151
129 129 163
129 129 163
126 126 160
128 128 161
137 137 174
129 129 163
135 135 171
122 122 155
118 118 150
127 127 160
114 114 144
130 130 165
139 139 175
128 128 162
118 118 150
120 120 152
120 120 151
120 120 151
117 117 148
118 118 150
122 122 155
115 115 146
114 114 145
122 122 155
113 113 142
115 115 146
118 118 150
113 113 142
124 124 156
103 103 131
110 110 139
113 113 142
125 125 158
113 113 142
103 103 131
111 111 141
106 106 134
112 112 141
108 108 137
100 100 127
94 94 118
102 102 129
107 107 135
89 89 113
104 104 131
90 90 114
99 99 125
102 102 129
100 100 127
110 110 139
105 105 133
107 107 135
103 103 131
110 110 139
104 104 131
82 82 104
80 80 102
86 86 110
108 108 137
100 100 127
92 92 117
80 80 102
99 99 126
86 86 109
85 85 108
78 78 99
90 90 115
76 76 97
83 83 106
86 86 109
90 90 114
100 100 127
78 78 99
84 84 107
94 94 118
90 90 114
40 40 51
40 40 51
36 36 45
60 60 75
40 40 51
44 44 56
44 44 56
44 44 56
42 42 55
18 18 25
7 3 17
9 4 18
8 4 18
9 4 19
7 3 15
7 3 17
10 5 22
8 4 18
10 5 22
8 4 20
9 4 21
9 4 20
8 4 17
9 4 20
8 4 16
8 4 19
9 4 21
8 4 19
9 4 21
10 5 22
9 4 21
10 5 24
12 6 26
10 5 22
8 4 19
10 5 24
10 5 22
10 5 21
12 5 25
12 6 26
11 5 25
8 4 19
10 5 23
12 6 28
11 5 24
11 5 23
11 5 24
10 5 24
9 4 20
10 5 23
11 5 24
10 5 23
13 6 29
11 5 26
11 5 24
11 5 24
10 5 23
12 5 25
12 6 28
13 6 28
12 6 26
13 6 30
8 4 18
10 5 21
14 7 31
13 6 31
11 5 26
13 6 28
13 6 28
13 6 29
11 5 25
13 6 28
14 7 30
10 5 23
8 4 18
12 6 26
12 5 27
13 6 29
11 5 27
28 26 43
83 83 105
84 84 107
76 76 97
80 80 102
72 72 91
82 82 105
94 94 119
65 65 83
97 97 123
84 84 107
70 70 89
80 80 102
92 92 117
88 88 112
81 80 102
65 65 83
95 95 121
104 104 132
78 78 100
100 100 127
94 94 119
82 82 104
78 78 100
94 94 119
88 88 112
84 84 107
110 110 139
90 90 114
84 84 107
57 57 74
0 4 26
0 4 24
0 1 18
0 2 20
0 5 27
0 4 23
0 4 23
0 5 27
0 4 32
1 5 28
0 3 23
0 4 31
0 3 28
0 0 27
0 1 30
0 2 31
0 0 31
0 2 34
0 2 33
0 5 40
0 1 37
0 1 35
0 4 46
0 3 39
0 3 42
0 12 53
0 9 52
17 20 54
44 48 80
110 110 141
132 132 167
124 124 157
113 113 144
128 128 162
125 125 159
119 119 151
134 134 170
131 131 166
118 117 149
123 123 156
111 111 141
118 118 150
111 111 141
98 98 125
113 113 144
85 85 108
110 110 139
97 97 124
103 103 132
101 101 129
97 97 123
89 89 113
85 85 109
89 89 113
90 90 115
76 76 97
89 89 114
93 93 118
60 60 76
57 57 73
64 64 83
52 52 68
33 33 44
35 35 46
7 7 14
26 25 27
11 11 20
15 14 23
7 8 10
15 12 16
15 14 20
7 8 11
15 16 26
11 10 18
15 15 23
8 8 13
4 5 13
6 6 13
15 15 25
8 7 12
9 9 12
18 18 23
26 26 35
36 35 48
42 42 54
50 50 65
52 52 68
41 41 53
31 31 41
27 27 34
27 27 34
34 34 43
40 40 50
36 36 45
32 32 41
46 46 58
56 56 71
66 66 84
65 65 84
65 65 86
84 84 107
81 81 104
67 67 87
65 65 84
78 78 101
74 74 96
74 74 96
84 84 107
88 88 113
89 89 114
79 79 102
104 104 133
81 81 104
98 98 126
90 90 116
94 94 120
102 102 131
82 82 105
109 109 139
106 106 136
94 94 121
99 99 127
117 117 149
126 126 160
111 111 142
113 113 144
104 104 133
136 136 173
130 130 166
135 135 172
129 129 164
136 136 172
131 131 167
142 142 180
139 139 176
125 125 159
115 115 147
120 120 153
131 131 167
129 129 164
118 118 149
136 136 172
111 111 141
123 123 156
127 127 161
126 126 161
128 128 162
122 122 155
135 135 171
131 131 166
129 129 164
134 134 169
148 148 188
146 146 185
154 154 195
141 141 179
126 126 160
141 141 178
144 144 183
148 148 187
156 156 197
138 138 175
141 141 179
151 151 192
136 136 172
147 147 186
140 140 178
133 133 168
154 154 195
138 138 175
137 137 174
155 155 196
150 150 190
148 148 187
149 149 189
140 140 178
168 168 212
144 144 182
144 144 182
152 152 193
146 146 184
173 173 219
148 148 187
162 162 205
139 139 176
152 152 193
151 151 192
165 165 209
170 170 215
155 155 196
164 164 207
155 155 196
164 164 207
167 167 212
154 154 196
138 138 174
171 171 217
154 154 196
131 131 165
159 159 202
151 151 191
140 140 177
141 141 179
163 163 206
150 150 190
156 156 198
149 149 188
152 152 192
157 157 199
148 148 187
151 151 191
152 152 192
143 143 182
152 152 193
141 141 178
141 141 178
155 155 197
150 150 190
149 149 189
147 147 186
142 142 180
143 143 181
143 143 182
151 151 191
150 150 191
148 148 187
140 140 177
124 124 157
134 134 170
130 130 165
135 135 171
124 124 156
134 134 169
147 147 186
131 131 166
128 128 161
138 138 174
130 130 165
113 113 143
136 136 172
120 120 152
118 118 150
126 126 160
129 129 163
110 110 139
130 130 165
110 110 139
116 116 147
114 114 144
126 126 160
115 115 146
115 115 145
119 119 151
110 110 139
104 104 131
120 120 151
99 99 125
101 101 128
118 118 150
99 99 125
113 113 143
103 103 131
90 90 115
99 99 125
100 100 127
108 108 137
115 115 146
99 99 125
100 100 127
107 107 135
110 110 139
78 78 99
84 84 107
92 92 116
110 110 139
108 108 137
113 113 143
97 97 123
94 94 119
86 86 109
106 106 134
97 97 123
99 99 125
82 82 103
80 80 102
94 94 118
100 100 127
84 84 107
95 95 121
88 88 112
51 51 64
47 47 60
62 62 79
44 44 56
51 51 64
54 54 68
47 47 60
51 51 64
67 67 85
19 18 27
5 2 12
8 4 19
9 4 20
10 5 23
7 3 17
9 4 19
10 5 22
10 5 23
5 2 12
9 4 20
5 2 12
8 4 20
8 4 17
10 5 22
9 4 20
9 4 19
8 4 19
10 5 24
8 4 17
9 4 20
12 5 26
9 4 20
8 4 19
9 4 21
11 5 23
13 6 27
11 5 25
13 6 28
8 4 17
10 5 22
14 7 29
10 5 21
7 3 17
12 6 27
12 6 27
11 5 26
8 4 19
10 5 24
12 6 26
11 5 24
11 5 24
13 6 29
11 5 24
10 5 21
12 6 26
10 5 23
13 6 29
8 4 19
11 5 25
11 5 25
11 5 26
11 5 25
10 5 24
13 6 29
13 6 27
13 6 28
13 6 28
14 7 31
14 7 31
11 5 25
11 5 26
11 5 25
11 5 25
10 5 23
10 5 23
13 6 28
11 5 26
13 6 29
15 7 31
21 18 34
41 41 53
74 74 95
65 65 82
65 65 82
67 67 87
36 36 46
62 62 79
51 51 65
54 54 69
65 65 83
60 60 76
48 47 61
47 47 61
44 44 56
64 64 82
65 65 83
54 54 69
57 57 73
79 79 101
74 74 94
55 55 72
74 74 95
67 67 85
76 76 97
62 62 80
57 57 73
54 54 69
67 67 86
62 62 79
67 67 86
48 47 61
22 22 35
25 25 36
2 2 18
38 38 57
42 43 67
25 26 46
46 46 66
47 47 65
30 31 48
13 16 37
20 22 43
21 22 42
14 15 39
20 22 42
4 9 42
1 5 27
31 31 49
36 39 68
28 30 50
57 58 82
38 41 71
50 52 79
65 67 98
91 92 121
91 93 121
98 99 131
104 105 134
128 128 163
121 121 154
128 128 162
118 117 149
113 113 144
131 130 165
117 117 148
127 127 161
135 135 171
116 116 148
127 127 161
125 125 158
101 101 129
117 117 149
106 106 134
118 118 150
122 122 155
120 120 152
113 113 143
98 98 125
98 98 125
89 89 113
81 81 104
92 92 117
88 87 112
76 76 97
82 82 104
57 57 73
61 61 79
43 43 57
51 51 66
33 33 46
20 20 29
8 7 15
25 24 36
14 14 24
12 12 16
12 12 22
14 15 23
9 9 17
15 16 26
21 21 31
24 23 32
17 17 26
8 9 13
8 9 16
9 10 14
9 9 15
6 6 16
7 7 16
4 5 9
2 2 5
0 0 5
5 5 9
5 5 9
9 9 12
15 15 20
9 9 15
23 23 31
18 18 25
23 23 31
15 15 20
19 19 24
20 20 26
21 21 26
15 15 20
28 28 37
48 48 62
53 53 70
35 35 48
70 70 91
84 84 108
72 72 96
95 95 125
95 95 123
105 105 136
103 103 134
102 102 134
108 108 139
105 105 137
105 105 137
105 105 137
110 110 143
104 104 135
94 94 124
109 109 141
120 120 155
113 113 147
120 120 154
100 100 130
103 103 133
107 107 139
126 126 161
102 102 131
123 123 157
106 106 136
120 120 153
115 115 147
144 144 184
145 145 185
124 124 159
132 132 169
135 135 171
137 137 174
157 157 199
141 141 179
151 151 192
140 140 178
133 133 169
139 139 177
150 150 190
138 138 175
145 145 184
116 116 147
151 151 192
151 151 192
141 141 179
123 123 155
123 123 157
153 153 194
131 131 167
135 135 171
118 118 150
120 120 152
122 122 155
129 129 163
154 154 195
146 146 185
129 129 163
140 140 177
135 135 171
138 138 175
156 156 198
150 150 190
150 150 190
157 157 199
141 141 179
151 151 192
157 157 199
159 159 202
165 165 209
152 152 193
172 172 217
155 155 196
185 185 235
172 172 218
169 169 214
169 169 214
166 166 210
170 170 215
175 175 222
177 177 224
177 177 224
185 185 235
179 179 226
179 179 227
179 179 227
172 172 218
188 188 238
188 188 239
172 172 218
161 161 205
163 163 207
164 164 207
182 182 230
158 158 200
176 176 223
170 170 216
187 187 237
174 174 221
180 180 227
170 170 215
193 193 244
161 161 204
170 170 216
171 171 217
163 163 207
162 162 205
180 180 227
164 164 207
168 168 212
158 158 200
150 150 190
165 165 208
151 151 191
156 156 197
162 162 204
164 164 207
164 164 207
152 152 192
167 167 211
151 151 191
163 163 206
153 153 194
156 156 198
150 150 190
168 168 212
147 147 186
144 144 182
145 145 183
134 134 170
140 140 177
150 150 190
149 149 188
137 137 174
148 148 187
134 134 169
138 138 175
144 144 183
136 136 172
120 120 151
142 142 180
125 125 158
146 146 184
120 120 152
125 125 158
120 120 151
148 148 187
140 140 177
132 132 167
126 126 160
134 134 169
114 114 144
123 123 155
126 126 160
119 119 150
121 121 154
125 125 158
113 113 142
119 119 150
130 130 165
110 110 139
122 122 155
128 128 161
121 121 153
116 116 147
104 104 131
108 108 137
115 115 146
121 121 153
92 92 116
113 113 142
108 108 137
102 102 129
84 84 107
102 102 129
84 84 107
114 114 144
106 106 134
99 99 125
94 94 118
107 107 135
100 100 127
108 108 137
102 102 129
100 100 127
105 105 133
99 99 126
85 85 108
73 73 92
100 100 127
100 100 127
61 61 79
51 51 64
44 44 56
40 40 51
54 54 68
44 44 56
54 54 68
47 47 60
51 51 64
7 3 14
10 5 22
6 3 12
10 5 23
8 4 16
9 4 22
10 5 21
8 4 18
10 5 22
10 5 24
10 5 21
12 6 25
9 4 20
9 4 20
9 4 20
10 5 22
7 3 16
8 4 19
7 3 17
9 4 20
8 4 17
9 4 19
9 4 20
10 5 22
7 3 16
7 3 15
5 2 13
10 5 23
7 3 18
11 5 25
8 4 19
10 5 23
11 5 23
9 4 21
10 5 21
10 5 22
10 5 22
11 5 24
12 6 26
8 4 18
11 5 26
11 5 25
10 5 23
13 6 27
12 5 26
9 4 20
9 4 20
13 6 29
11 5 26
12 5 26
11 5 25
12 6 27
9 4 21
12 6 28
14 7 31
10 5 23
13 6 28
10 5 22
11 5 24
11 5 24
12 6 27
12 5 26
12 6 26
9 4 20
13 6 29
9 4 20
12 6 26
14 7 32
10 5 23
11 5 24
13 6 30
44 44 56
31 31 40
31 31 40
36 36 46
18 18 23
2 1 6
18 18 24
18 18 23
4 2 13
3 1 9
18 18 24
18 18 22
31 31 40
3 1 8
3 2 10
18 18 26
4 2 11
3 1 12
12 12 22
5 4 14
4 2 14
18 18 25
3 1 12
2 1 7
18 18 25
0 0 6
18 18 24
18 18 25
2 1 7
25 25 34
4 3 11
4 4 14
25 25 35
31 31 42
45 45 61
47 47 67
47 47 68
42 42 59
65 65 92
58 58 79
65 65 86
73 73 102
62 63 98
69 69 103
89 89 120
73 74 105
66 66 95
90 90 119
92 92 127
104 105 143
108 108 141
89 90 127
99 100 138
91 92 126
87 88 120
67 67 90
83 83 108
84 84 111
85 85 109
100 100 128
104 104 133
109 109 142
100 100 129
112 112 144
125 125 160
110 110 141
133 133 170
135 135 172
122 122 156
107 107 137
107 107 137
125 125 158
116 116 147
122 122 156
122 122 156
114 114 146
110 110 140
102 102 130
102 102 130
92 92 117
91 90 115
79 79 102
72 72 93
66 66 86
53 53 70
81 81 103
69 69 89
38 38 49
63 63 81
27 26 35
34 34 47
27 27 36
23 23 35
28 28 40
33 33 46
33 33 46
19 20 27
21 21 30
32 32 42
31 31 45
24 24 34
34 32 41
23 23 33
35 35 48
27 26 34
32 32 43
33 33 43
35 34 46
38 38 50
10 10 19
42 41 53
36 36 50
21 21 30
47 47 61
34 34 45
34 34 45
38 38 51
44 44 58
52 52 66
49 49 62
51 51 66
60 60 77
57 57 73
63 63 82
80 80 105
82 82 107
84 84 109
102 102 133
97 97 130
112 112 147
119 119 157
126 126 166
131 131 172
112 112 145
116 116 153
127 127 166
114 114 148
125 125 161
140 140 180
118 118 155
133 133 172
117 117 153
134 134 173
123 123 159
130 130 169
122 122 158
134 134 172
142 142 182
121 121 156
144 144 184
136 136 175
136 136 174
140 140 180
152 152 194
129 129 166
150 150 191
163 163 207
161 161 205
157 157 200
141 141 180
149 149 190
148 148 188
161 161 205
155 155 198
175 175 223
158 158 201
151 151 192
155 155 197
156 156 199
171 171 217
175 175 222
160 160 203
164 164 208
148 148 188
159 159 202
141 141 179
154 154 195
152 152 192
142 142 180
145 145 183
150 150 190
139 139 177
133 133 168
134 134 170
136 136 173
123 123 156
143 143 182
122 122 155
150 150 190
135 135 172
153 153 194
147 147 186
144 144 182
155 155 196
157 157 199
164 164 207
170 170 215
169 169 214
160 160 203
173 173 219
175 175 222
170 170 215
173 173 219
176 176 223
186 186 235
182 182 231
191 191 242
198 198 251
191 191 242
187 187 236
193 193 244
176 176 222
187 187 237
187 187 237
171 171 216
188 188 238
205 205 255
204 204 255
198 198 251
180 180 228
202 202 255
193 193 245
197 197 250
203 203 255
208 208 255
208 208 255
191 191 241
196 196 248
195 195 247
200 200 253
189 189 239
185 185 234
209 209 255
194 194 246
179 179 226
191 191 242
178 178 226
184 184 233
182 182 230
188 188 238
198 198 251
175 175 222
173 173 219
174 174 220
166 166 211
175 175 221
183 183 232
168 168 212
172 172 218
190 190 240
175 175 222
157 157 199
165 165 208
150 150 190
164 164 207
160 160 203
157 157 199
169 169 214
154 154 195
156 156 198
163 163 207
161 161 204
154 154 195
158 158 199
161 161 204
136 136 172
158 158 200
167 167 211
162 162 205
156 156 197
136 136 173
150 150 190
135 135 171
155 155 196
160 160 202
148 148 187
139 139 175
127 127 161
149 149 189
137 137 174
142 142 180
136 136 173
140 140 177
140 140 177
136 136 173
143 143 181
130 130 165
125 125 158
143 143 181
120 120 151
136 136 172
120 120 151
128 128 161
116 116 147
134 134 169
130 130 165
121 121 153
113 113 142
107 107 136
117 117 148
110 110 139
124 124 156
99 99 125
131 131 166
117 117 148
99 99 125
100 100 127
122 122 155
115 115 146
110 110 139
97 97 123
115 115 146
104 104 132
102 102 129
120 120 152
113 113 143
97 97 123
128 128 161
107 107 135
97 97 123
47 47 60
51 51 64
36 36 46
44 44 56
47 47 60
42 42 55
36 36 45
31 31 39
44 44 56
19 18 28
12 5 25
9 4 18
13 6 28
11 5 25
8 4 18
9 4 19
11 5 24
7 3 16
9 4 21
10 5 22
11 5 24
9 4 20
9 4 20
10 5 23
10 5 23
10 5 23
8 4 17
6 3 14
9 4 19
10 5 25
9 4 18
10 5 21
7 3 17
9 4 20
10 5 23
6 3 15
10 5 23
12 6 27
10 5 21
9 4 21
9 4 21
9 4 21
9 4 21
11 5 23
9 4 21
10 5 22
10 5 21
10 5 23
10 5 23
12 5 26
10 5 23
10 5 23
9 4 20
10 5 24
14 7 30
9 4 21
10 5 22
12 6 27
9 4 20
12 6 28
11 5 24
9 4 21
11 5 24
11 5 26
13 6 30
9 4 18
9 4 20
12 6 26
11 5 24
14 7 30
10 5 23
10 5 23
12 5 26
13 6 29
11 5 25
12 6 26
14 7 30
11 5 26
12 6 27
12 6 26
3 1 8
1 0 5
12 12 20
3 1 9
3 1 11
5 4 13
4 3 16
2 1 7
3 1 9
18 18 30
5 2 14
4 2 12
4 2 12
18 18 24
12 12 21
25 25 33
4 2 13
25 25 34
2 1 9
5 5 10
5 2 17
5 5 15
29 28 41
13 12 23
13 12 25
9 9 19
13 12 24
5 5 12
2 1 6
18 18 24
3 1 10
3 1 9
12 13 24
18 18 31
12 12 20
6 6 21
7 8 23
30 30 47
23 23 56
41 41 73
58 59 94
70 70 104
66 67 106
69 70 104
82 83 126
71 72 110
82 83 120
78 80 124
89 91 133
81 83 127
82 85 127
69 71 111
71 72 113
59 60 95
71 72 110
70 71 104
76 77 118
74 74 103
77 77 109
71 72 104
90 90 122
72 72 101
98 98 130
93 93 124
118 118 151
112 112 145
131 132 169
135 135 173
124 124 159
142 142 182
130 130 167
132 132 169
113 113 145
125 125 160
124 124 159
113 113 145
124 124 158
131 131 167
102 102 131
118 118 151
109 109 140
109 109 139
109 109 139
91 91 117
107 107 137
103 103 132
97 97 124
99 99 127
93 93 120
88 88 114
76 76 99
73 73 94
77 77 100
60 60 78
91 91 117
75 74 97
75 75 99
67 67 89
73 73 97
63 63 83
66 66 86
79 79 105
72 71 93
96 97 126
81 81 107
82 82 107
99 98 128
92 92 122
88 88 117
83 83 108
97 97 128
98 98 129
109 109 143
119 119 155
103 103 135
106 106 138
98 98 129
95 94 124
109 109 141
100 100 129
119 119 153
110 110 142
105 105 135
122 122 157
126 125 160
128 128 164
134 134 171
128 128 163
140 140 179
142 142 181
132 132 168
139 139 177
137 137 177
135 135 173
145 145 186
134 134 171
137 137 176
152 152 194
139 139 178
139 139 179
152 152 194
161 161 206
154 154 197
144 144 185
153 153 195
151 151 193
161 160 205
140 140 180
152 152 194
157 157 200
166 166 211
170 170 216
178 178 228
163 163 207
178 178 227
179 179 228
172 172 218
179 179 229
172 172 219
178 177 225
173 173 219
199 199 253
187 187 238
191 191 243
170 170 216
194 194 246
178 178 226
194 194 245
191 191 242
195 195 247
189 189 240
176 176 223
174 174 221
184 184 234
190 190 241
172 172 218
195 195 247
185 185 235
180 180 228
182 182 231
176 176 223
170 170 215
166 166 210
168 168 213
157 157 198
135 135 171
155 155 196
147 147 186
131 131 166
128 128 162
141 141 179
138 138 175
132 132 168
155 155 196
160 160 203
157 157 199
161 161 203
167 167 212
178 178 225
167 167 212
179 179 227
201 201 254
209 209 255
220 220 255
199 199 252
187 187 237
206 206 255
208 208 255
218 218 255
209 209 255
211 211 255
198 198 251
226 226 255
212 212 255
216 216 255
213 213 255
225 225 255
209 209 255
206 206 255
212 212 255
229 229 255
221 221 255
226 226 255
217 217 255
210 210 255
227 227 255
220 220 255
216 216 255
221 221 255
206 206 255
208 208 255
208 208 255
197 197 249
186 186 236
190 190 241
215 215 255
206 206 255
199 199 252
203 203 255
202 202 255
193 193 244
193 193 244
186 186 235
205 205 255
207 207 255
197 197 249
190 190 241
192 192 243
189 189 239
197 197 250
195 195 246
192 192 243
188 188 238
191 191 242
190 190 241
173 173 219
173 173 219
161 161 204
175 175 221
172 172 217
179 179 227
183 183 232
154 154 195
168 168 213
174 174 220
165 165 209
163 163 207
172 172 218
166 166 210
148 148 187
169 169 213
143 143 181
155 155 196
148 148 187
160 160 202
156 156 197
158 158 200
159 159 202
149 149 188
142 142 180
153 153 194
154 154 195
150 150 190
157 157 199
145 145 184
147 147 186
143 143 181
132 132 167
143 143 181
134 134 170
139 139 175
135 135 171
140 140 177
134 134 169
124 124 156
124 124 157
149 149 188
140 140 177
123 123 155
108 108 137
118 118 150
116 116 147
121 121 153
122 122 154
120 120 152
108 108 137
118 118 150
117 117 148
124 124 156
113 113 143
118 118 150
134 134 169
108 108 137
100 100 127
108 108 137
103 103 131
120 120 151
99 99 125
103 103 130
111 111 141
31 31 39
31 31 39
25 25 32
25 25 32
25 25 32
36 36 46
25 25 32
31 31 39
31 31 39
36 36 46
7 3 15
10 5 22
9 4 19
8 4 18
7 3 15
8 4 18
9 4 20
9 4 20
9 4 19
9 4 19
10 5 22
8 4 18
6 3 15
8 4 17
10 5 22
10 5 22
10 5 22
9 4 22
8 4 19
9 4 20
10 5 23
10 5 23
8 4 18
8 4 19
7 3 16
10 5 22
13 6 29
5 2 13
7 3 18
9 4 20
12 6 27
12 6 26
8 4 18
10 5 24
9 4 20
9 4 22
11 5 25
10 5 22
12 6 26
8 4 18
7 3 17
9 4 20
10 5 23
11 5 24
8 4 18
11 5 24
11 5 24
10 5 23
11 5 23
12 6 27
12 6 27
11 5 24
11 5 25
13 6 29
11 5 24
11 5 26
13 6 29
11 5 25
11 5 26
9 4 19
13 6 28
11 5 24
12 6 28
12 5 26
10 5 24
14 7 31
11 5 24
10 5 24
10 5 23
14 7 31
22 22 31
12 12 20
2 1 7
19 18 25
19 19 27
18 18 24
3 1 11
18 18 25
3 1 10
3 2 13
6 3 16
3 1 10
13 12 23
4 2 11
4 2 12
6 3 16
4 2 13
19 19 29
13 13 22
21 20 29
12 12 22
13 12 22
18 18 25
22 22 32
2 1 10
6 3 16
1 0 4
1 1 10
13 13 25
4 3 18
13 13 25
22 22 33
9 9 22
28 28 48
6 6 24
13 12 24
19 19 38
24 23 36
3 3 16
13 13 29
26 26 41
10 10 31
37 38 58
27 28 55
47 49 86
46 47 82
37 38 73
50 51 95
64 65 112
72 74 124
79 81 125
81 82 125
98 100 148
84 85 134
103 104 157
88 89 130
96 97 143
83 84 124
87 88 123
83 83 119
78 78 110
103 104 138
94 94 126
114 114 149
116 116 149
117 117 151
135 136 175
143 143 184
145 145 186
149 149 190
153 153 197
146 146 186
142 142 181
142 142 182
154 154 197
129 129 166
152 152 193
152 152 194
140 140 179
128 128 163
130 130 166
139 139 177
135 135 173
124 124 159
137 137 176
131 131 167
124 124 158
130 130 165
125 125 159
123 123 156
119 119 152
120 120 154
119 119 152
113 113 144
134 133 169
106 106 137
104 104 134
102 102 131
107 107 137
103 103 131
110 110 141
116 116 148
104 104 134
112 111 143
125 125 160
112 112 145
129 129 165
120 119 153
106 106 137
122 122 156
102 102 132
116 116 150
122 123 158
140 140 180
132 132 169
135 135 173
137 137 173
139 139 178
117 117 150
131 131 168
129 129 166
137 137 176
134 133 171
141 141 180
119 119 153
144 144 184
130 130 166
147 147 187
160 160 205
145 145 184
143 143 183
156 156 199
143 143 182
141 141 180
139 139 177
156 156 198
162 162 206
149 148 188
159 159 203
153 153 195
159 159 203
173 173 220
156 156 198
170 170 216
158 158 202
186 186 236
182 182 231
174 174 221
172 172 218
189 189 240
179 178 226
193 193 246
202 202 255
189 189 240
220 220 255
188 188 238
199 199 252
188 188 239
188 188 238
207 207 255
212 212 255
216 216 255
203 203 255
212 212 255
230 229 255
210 210 255
214 214 255
224 224 255
214 214 255
228 228 255
220 220 255
214 214 255
212 212 255
218 218 255
219 219 255
216 216 255
219 219 255
220 220 255
203 203 255
201 201 254
205 205 255
205 205 255
203 203 255
215 215 255
215 215 255
198 198 252
199 199 252
192 192 243
175 175 222
172 171 217
167 167 211
139 139 176
142 142 180
134 134 170
141 141 179
148 148 188
138 138 174
150 150 190
169 169 214
189 189 239
200 200 253
195 195 247
205 205 255
210 210 255
214 214 255
233 233 255
226 226 255
232 232 255
223 223 255
235 235 255
230 230 255
247 247 255
231 231 255
238 238 255
228 228 255
255 255 255
247 247 255
254 254 255
240 240 255
245 245 255
239 239 255
249 249 255
251 251 255
238 238 255
230 230 255
246 246 255
229 229 255
238 238 255
241 241 255
229 229 255
249 249 255
245 245 255
238 238 255
249 249 255
229 229 255
225 225 255
229 229 255
227 227 255
219 219 255
227 227 255
218 218 255
207 207 255
221 221 255
223 223 255
200 200 253
203 203 255
199 199 252
201 201 254
214 214 255
198 198 250
199 199 252
205 205 255
205 205 255
194 194 245
205 205 255
188 188 238
205 205 255
195 195 247
193 193 244
193 193 244
188 188 238
195 195 246
170 170 216
172 172 218
182 182 230
179 179 227
199 199 252
183 183 232
177 177 225
171 171 217
167 167 212
164 164 207
175 175 222
175 175 222
168 168 213
168 168 213
164 164 207
172 172 217
162 162 206
158 158 201
159 159 202
150 150 190
142 142 180
166 166 210
149 149 189
134 134 169
159 159 202
146 146 185
154 154 195
151 151 192
144 144 183
136 136 173
140 140 177
167 167 212
141 141 178
133 133 168
147 147 186
141 141 178
148 148 187
140 140 177
133 133 168
126 126 160
136 136 172
126 126 160
130 130 165
127 127 160
137 137 174
120 120 151
130 130 165
126 126 160
126 126 160
118 118 150
113 113 142
114 114 144
115 115 145
108 108 137
129 129 163
115 115 146
109 109 138
114 114 144
0 0 0
18 18 22
0 0 0
25 25 32
0 0 0
0 0 0
25 25 32
0 0 1
18 18 22
8 4 16
9 4 20
8 4 17
9 4 20
8 4 18
8 4 18
8 4 18
7 3 16
8 4 20
7 3 16
8 4 19
8 4 19
6 3 14
8 4 17
8 4 17
9 4 19
9 4 19
12 5 25
10 5 23
9 4 20
11 5 25
9 4 22
9 4 21
8 4 19
9 4 21
6 3 14
9 4 19
10 5 21
10 5 22
10 5 24
6 3 13
9 4 20
9 4 20
8 4 19
10 5 21
12 5 26
10 5 24
9 4 20
11 5 25
6 3 14
11 5 24
13 6 29
7 3 16
9 4 20
10 5 22
8 4 19
11 5 25
13 6 28
12 6 26
13 6 28
9 4 18
11 5 24
8 4 19
13 6 29
12 6 26
11 5 24
14 7 31
9 4 21
12 6 27
10 5 23
12 6 28
11 5 25
9 4 22
13 6 29
12 5 25
11 5 25
9 4 20
11 5 25
12 6 28
12 6 26
10 5 22
18 18 27
29 28 41
18 18 25
19 18 27
36 36 49
25 25 33
29 28 42
4 2 11
26 26 37
28 28 40
18 18 32
10 10 25
22 22 38
19 18 26
31 31 42
46 46 61
19 18 27
25 25 34
25 25 33
36 36 51
26 25 36
23 22 35
29 28 42
29 28 41
22 22 35
29 29 43
31 31 42
32 32 47
13 12 23
29 28 41
31 31 42
28 28 41
54 53 75
40 40 58
41 41 62
51 51 75
54 54 81
55 55 78
54 54 82
56 56 84
69 69 100
68 68 97
57 57 91
94 95 143
81 81 118
68 69 107
76 77 116
88 88 129
89 90 129
96 96 137
81 81 117
89 89 128
91 91 126
99 99 135
88 88 125
91 91 129
83 83 112
103 103 139
98 98 131
106 106 139
113 113 148
117 117 151
126 126 162
137 137 176
134 134 172
125 125 162
135 136 174
146 146 186
167 167 213
155 155 198
151 151 193
144 144 183
138 138 176
154 154 195
155 155 196
144 144 184
145 145 185
139 139 177
136 136 173
142 142 181
148 148 187
147 147 187
155 155 197
144 144 183
164 164 208
151 151 191
150 150 191
139 139 176
156 156 199
152 152 193
150 150 190
164 164 208
148 148 188
154 155 196
159 159 202
128 128 163
152 152 193
141 141 179
150 150 190
155 155 196
139 139 177
157 157 199
149 149 190
149 149 189
128 128 164
138 138 177
147 147 187
128 128 163
122 122 156
143 141 179
165 165 211
152 152 193
148 148 188
147 148 187
142 142 182
147 147 188
156 156 199
155 155 198
141 141 180
154 154 195
156 156 198
156 156 199
158 158 202
139 139 177
156 156 198
166 166 211
143 143 182
169 169 215
162 162 206
171 171 216
165 165 209
164 164 208
177 177 226
174 174 221
191 191 242
176 176 224
188 187 238
179 179 227
179 178 227
180 180 228
200 200 254
200 200 253
200 200 253
214 214 255
193 193 246
187 187 238
211 211 255
213 212 255
195 195 248
211 211 255
208 208 255
221 221 255
230 230 255
224 223 255
219 219 255
223 223 255
223 223 255
235 235 255
224 224 255
218 218 255
237 237 255
234 234 255
237 237 255
225 225 255
229 229 255
241 241 255
246 246 255
242 242 255
248 248 255
241 241 255
248 248 255
234 234 255
237 237 255
236 236 255
231 231 255
251 251 255
237 237 255
255 255 255
255 255 255
246 246 255
255 255 255
242 242 255
248 248 255
255 255 255
241 241 255
247 247 255
235 235 255
224 224 255
237 237 255
207 207 255
204 204 255
199 198 251
197 197 249
183 183 232
173 173 220
147 147 186
148 148 188
126 126 160
134 134 170
134 134 170
161 161 204
168 168 212
185 185 235
206 206 255
191 191 242
203 203 255
235 235 255
217 217 255
248 248 255
246 246 255
242 242 255
255 255 255
245 245 255
247 247 255
251 251 255
246 246 255
248 248 255
254 253 255
255 255 255
239 239 255
255 255 255
246 246 255
253 253 255
255 255 255
255 255 255
255 255 255
255 255 255
255 255 255
245 245 255
250 250 255
255 255 255
247 247 255
251 251 255
250 250 255
252 252 255
244 244 255
233 233 255
230 230 255
239 239 255
233 233 255
238 238 255
238 238 255
222 222 255
242 242 255
229 229 255
237 237 255
230 230 255
242 242 255
215 215 255
232 232 255
224 224 255
210 210 255
222 222 255
194 194 245
200 200 254
207 207 255
212 212 255
207 207 255
198 198 251
204 204 255
193 193 244
191 191 242
205 205 255
195 195 247
208 208 255
187 187 236
195 195 246
181 181 228
176 176 223
179 179 226
186 186 235
187 187 237
178 178 225
188 188 237
170 170 216
180 180 228
186 186 235
164 164 208
167 167 212
179 179 227
161 161 204
179 179 227
166 166 211
162 162 206
174 174 221
142 142 180
167 167 212
160 160 202
150 150 190
156 156 198
146 146 185
141 141 178
154 154 195
151 151 191
151 151 191
164 164 207
131 131 166
140 140 177
147 147 186
151 151 191
141 141 179
150 150 190
131 131 166
133 133 168
140 140 177
140 140 177
133 133 168
135 135 171
120 120 151
153 153 194
136 136 173
153 153 194
128 128 161
128 128 161
120 120 152
130 130 165
117 117 148
111 111 141
114 114 144
115 115 145
0 0 0
0 0 0
0 0 0
0 0 1
0 0 0
0 0 0
0 0 0
0 0 0
0 0 1
9 4 20
7 3 16
7 3 17
8 4 19
7 3 16
6 3 16
7 3 16
7 3 16
6 3 13
8 4 18
11 5 24
10 5 23
11 5 25
11 5 25
9 4 20
10 5 22
9 4 19
10 5 22
10 5 21
10 5 24
9 4 21
10 5 22
9 4 20
12 5 26
9 4 21
11 5 23
9 4 20
9 4 20
9 4 22
8 4 18
9 4 20
11 5 24
9 4 19
11 5 24
7 3 16
9 4 20
10 5 23
11 5 24
11 5 23
13 6 27
12 5 27
11 5 25
13 6 29
10 5 23
10 5 23
7 3 17
10 5 21
13 6 29
9 4 20
10 5 23
14 7 30
13 6 28
11 5 25
10 5 24
9 4 19
9 4 22
10 5 23
11 5 25
15 7 32
9 4 21
13 6 28
13 6 30
12 5 26
12 6 27
10 5 23
12 6 27
10 5 24
12 6 26
12 6 27
12 6 26
9 4 20
26 25 37
40 40 53
41 40 55
36 36 48
40 40 53
36 36 48
36 36 49
36 36 48
42 41 55
44 44 60
41 40 57
19 18 29
51 51 67
57 57 75
42 42 56
32 31 43
50 49 66
59 58 79
60 60 77
48 47 62
48 48 63
56 55 73
34 34 47
63 62 81
65 65 85
48 47 63
62 62 81
57 57 75
64 64 83
52 52 71
77 77 99
58 58 76
65 65 83
66 66 86
64 63 83
75 75 98
58 58 78
85 84 109
70 70 92
79 79 102
76 76 99
73 73 97
85 85 110
69 69 91
75 75 99
75 75 98
81 81 105
64 64 88
90 90 116
79 79 104
89 89 116
80 80 105
102 102 131
108 108 140
101 101 131
100 100 129
111 111 142
119 119 154
100 100 128
142 142 181
141 141 180
133 133 170
136 135 172
147 147 187
162 161 206
163 162 206
158 158 201
138 138 175
163 162 206
140 140 178
136 136 173
157 157 199
158 158 200
158 158 201
149 148 188
168 168 214
153 153 194
156 156 197
158 158 201
143 143 182
173 173 219
163 163 207
164 164 208
171 171 216
140 140 177
169 168 213
169 169 215
166 166 210
167 167 213
166 166 210
154 154 195
157 157 199
152 152 193
159 159 203
139 139 177
176 176 223
176 176 223
171 171 217
157 157 198
152 152 193
162 162 206
166 166 210
160 160 203
164 164 209
165 165 209
173 173 219
165 165 209
145 145 185
154 154 196
169 169 214
168 168 212
173 173 219
170 170 216
181 181 229
174 174 222
179 178 226
187 187 237
190 190 240
193 192 244
175 175 221
172 172 218
167 167 210
186 186 236
200 200 253
175 175 222
185 185 233
192 192 244
184 184 234
179 179 226
185 185 235
191 191 242
197 197 250
201 201 255
193 193 245
187 187 237
217 217 255
201 201 255
191 191 242
214 214 255
210 210 255
212 212 255
212 212 255
217 217 255
209 209 255
213 213 255
219 219 255
228 228 255
214 214 255
217 216 255
227 227 255
216 216 255
228 228 255
229 229 255
241 241 255
232 232 255
228 228 255
244 244 255
244 244 255
246 246 255
227 227 255
249 249 255
254 254 255
237 237 255
255 255 255
247 247 255
249 249 255
255 255 255
235 235 255
249 249 255
255 255 255
255 255 255
255 255 255
255 255 255
255 255 255
255 255 255
255 255 255
255 255 255
255 255 255
255 255 255
255 255 255
255 255 255
255 255 255
255 255 255
255 255 255
255 255 255
255 255 255
255 255 255
255 255 255
248 248 255
250 250 255
253 253 255
249 249 255
243 243 255
231 231 255
227 227 255
223 224 255
188 188 237
194 194 246
174 174 221
162 162 205
157 157 199
137 137 173
138 138 175
138 138 174
169 169 214
182 182 231
196 196 248
208 208 255
223 223 255
221 221 255
232 232 255
244 244 255
226 226 255
239 239 255
255 255 255
255 255 255
253 253 255
255 255 255
255 255 255
255 255 255
255 255 255
255 255 255
254 254 255
247 247 255
255 255 255
254 254 255
249 249 255
252 252 255
255 255 255
255 255 255
255 255 255
255 255 255
251 251 255
255 255 255
255 255 255
251 251 255
255 255 255
255 255 255
247 247 255
255 255 255
231 231 255
255 255 255
237 237 255
244 244 255
244 244 255
250 250 255
252 252 255
235 235 255
233 233 255
229 229 255
217 217 255
226 226 255
231 231 255
231 231 255
217 217 255
215 215 255
217 217 255
228 228 255
212 212 255
225 225 255
204 204 255
206 206 255
199 199 251
212 212 255
200 200 253
215 215 255
205 205 255
188 188 238
184 184 233
200 200 253
198 198 250
184 184 232
186 186 236
165 165 209
181 181 229
184 184 233
183 183 232
188 188 237
165 165 209
172 172 218
177 177 225
178 178 225
187 187 236
172 172 218
165 165 209
173 173 219
191 191 242
164 164 208
164 164 208
161 161 204
160 160 203
179 179 226
160 160 202
158 158 200
143 143 181
151 151 191
156 156 198
165 165 209
160 160 202
144 144 183
129 129 163
143 143 182
140 140 177
153 153 194
139 139 175
148 148 187
128 128 161
144 144 183
154 154 195
144 144 182
134 134 169
129 129 163
124 124 156
115 115 146
140 140 177
120 120 152
110 110 139
124 124 156
128 128 161
131 131 166
0 0 0
0 0 0
0 0 0
0 0 0
0 0 0
0 0 0
0 0 0
0 0 0
0 0 0
8 4 18
8 4 18
7 3 16
11 5 26
8 4 18
6 3 15
8 4 18
8 4 19
8 4 18
9 4 20
8 4 18
11 5 22
9 4 21
10 5 22
7 3 17
9 4 20
9 4 18
9 4 19
9 4 19
6 3 15
8 4 17
12 6 26
11 5 25
9 4 20
8 4 18
10 5 23
11 5 25
8 4 18
9 4 21
11 5 24
8 4 18
10 5 22
8 4 19
9 4 18
9 4 20
12 5 26
11 5 23
12 6 26
7 3 16
7 3 15
11 5 23
11 5 25
11 5 23
11 5 24
9 4 22
9 4 21
9 4 19
13 6 28
8 4 18
12 6 25
8 4 17
7 3 18
10 5 20
9 4 20
12 6 25
12 6 25
11 5 24
11 5 24
11 5 26
10 5 22
13 6 29
10 5 23
12 6 27
12 6 26
10 5 24
10 5 24
11 5 25
13 6 28
13 6 27
12 6 26
11 5 24
55 54 71
54 54 72
84 84 109
72 72 93
48 48 64
60 60 79
59 58 76
54 54 71
51 51 67
60 60 79
45 44 59
60 60 78
68 68 87
63 63 80
63 63 82
58 58 75
60 60 78
63 62 80
67 66 87
48 48 64
67 67 88
54 54 71
65 65 84
54 54 70
79 78 100
62 62 81
65 65 84
63 62 81
76 76 98
65 65 85
86 85 110
76 76 97
82 81 105
79 79 101
79 79 101
68 67 88
74 74 96
83 83 106
70 70 90
80 79 102
87 87 112
83 83 106
94 94 121
92 92 118
88 88 113
93 93 118
96 96 123
98 97 125
111 111 142
107 106 135
107 107 137
118 118 151
129 129 165
122 122 154
123 123 156
131 131 167
144 144 183
145 145 184
145 145 184
144 144 183
148 148 187
139 138 176
157 157 199
148 147 187
149 149 189
135 135 172
155 155 197
143 143 181
139 139 176
147 147 186
141 141 179
152 152 193
146 146 185
159 158 201
162 162 205
157 157 200
159 159 201
142 141 180
152 152 192
169 169 214
147 147 186
158 157 199
155 155 197
173 173 219
169 169 213
169 168 213
161 161 203
159 159 202
153 153 194
157 158 200
174 173 219
162 161 204
157 157 198
148 147 186
177 177 224
176 175 223
187 187 237
154 154 195
161 161 204
154 154 196
168 168 214
173 173 219
163 163 207
166 165 210
170 169 214
179 179 227
173 173 219
181 181 230
177 177 224
177 177 224
176 176 223
189 189 240
178 178 225
178 178 226
181 181 229
166 166 211
192 192 243
180 180 228
202 201 254
200 200 253
186 185 234
204 204 255
191 191 242
212 211 255
188 188 238
211 211 255
194 194 246
203 203 255
201 201 254
198 198 251
202 202 255
200 200 254
214 214 255
199 199 252
204 204 255
200 200 254
210 210 255
228 228 255
208 208 255
222 222 255
218 219 255
232 231 255
222 222 255
225 225 255
222 222 255
219 219 255
207 207 255
227 227 255
227 227 255
242 242 255
232 232 255
238 238 255
238 238 255
238 237 255
237 237 255
246 246 255
233 233 255
252 252 255
254 254 255
255 255 255
255 255 255
254 254 255
255 255 255
255 255 255
248 248 255
246 246 255
255 255 255
255 255 255
255 255 255
255 255 255
255 255 255
255 255 255
255 255 255
255 255 255
255 255 255
255 255 255
255 255 255
255 255 255
255 255 255
255 255 255
255 255 255
255 255 255
255 255 255
255 255 255
255 255 255
255 255 255
255 255 255
255 255 255
255 255 255
255 255 255
255 255 255
255 255 255
255 255 255
255 255 255
255 255 255
255 255 255
247 247 255
229 229 255
226 226 255
213 213 255
204 204 255
189 189 240
181 181 229
172 172 218
133 133 168
136 136 172
145 145 183
159 159 201
167 167 212
165 165 209
201 201 255
223 223 255
228 228 255
234 234 255
242 242 255
243 243 255
246 246 255
249 249 255
243 243 255
239 239 255
255 255 255
255 255 255
255 255 255
255 255 255
255 255 255
254 254 255
255 255 255
255 255 255
255 255 255
255 255 255
255 255 255
255 255 255
255 255 255
255 255 255
255 255 255
255 255 255
255 255 255
255 255 255
255 255 255
251 251 255
245 245 255
244 244 255
244 244 255
253 253 255
255 255 255
243 243 255
248 248 255
248 248 255
234 234 255
229 229 255
220 220 255
232 232 255
236 236 255
233 233 255
224 224 255
232 232 255
227 227 255
218 218 255
224 224 255
214 214 255
207 207 255
196 196 248
205 205 255
217 217 255
204 204 255
189 189 239
206 206 255
216 216 255
198 198 250
194 194 245
199 199 252
187 187 236
204 204 255
188 188 239
200 200 253
179 179 226
182 182 230
190 190 241
181 181 230
193 193 244
199 199 252
174 174 220
192 192 243
172 172 218
166 166 210
173 173 219
162 162 206
179 179 226
178 178 225
169 169 214
164 164 207
158 158 200
158 158 200
152 152 193
161 161 204
167 167 212
145 145 183
166 166 210
156 156 197
151 151 191
144 144 183
137 137 174
151 151 191
141 141 178
154 154 196
141 141 179
156 156 198
143 143 181
139 139 176
121 121 154
144 144 183
137 137 173
133 133 168
134 134 169
139 139 175
130 130 165
119 119 150
143 143 181
134 134 170
135 135 171
1 0 5
0 0 0
0 0 0
0 0 0
0 0 0
0 0 0
0 0 0
0 0 0
0 0 0
6 3 14
9 4 19
10 5 21
9 4 20
8 4 17
9 4 20
12 6 27
8 4 17
9 4 20
9 4 20
5 2 13
8 4 20
7 3 16
6 3 15
11 5 24
8 4 19
11 5 24
9 4 19
7 3 14
9 4 19
8 4 18
9 4 18
8 4 19
10 5 23
8 4 18
9 4 21
8 4 19
8 4 18
9 4 19
10 5 23
7 3 17
11 5 24
8 4 19
7 3 18
11 5 24
11 5 23
10 5 22
9 4 19
12 6 27
12 6 26
8 4 17
13 6 27
10 5 21
9 4 20
10 5 23
12 6 25
8 4 20
9 4 21
12 6 26
9 4 19
11 5 24
12 5 25
9 4 21
11 5 24
9 4 21
12 6 26
13 6 28
12 6 26
10 5 23
12 5 25
9 4 21
12 6 26
12 5 25
11 5 25
9 4 20
9 4 20
9 4 21
12 6 26
20 18 29
27 26 40
27 26 39
58 57 76
67 66 88
68 67 88
68 68 88
38 37 52
55 54 72
54 54 71
60 60 80
60 60 77
68 67 87
70 70 89
51 51 67
72 72 93
70 70 90
60 60 78
64 64 84
64 64 83
60 60 77
48 48 62
79 79 101
93 93 119
58 58 75
67 67 87
74 74 96
79 78 101
77 77 98
62 62 81
79 79 101
77 77 99
90 90 115
83 83 107
92 91 118
87 86 111
90 90 115
103 103 132
102 102 131
111 111 141
97 97 124
97 97 124
103 102 131
112 112 143
101 101 129
102 102 130
113 113 144
95 95 121
135 135 172
115 115 146
115 115 145
123 123 156
130 129 165
139 139 176
128 128 162
134 134 170
123 123 156
144 144 182
135 135 171
143 143 181
148 148 188
148 148 188
151 151 192
146 146 186
147 147 186
141 140 178
162 162 205
154 154 196
159 159 201
150 150 191
155 155 196
150 150 190
165 165 209
151 151 192
160 160 203
151 150 190
146 146 185
151 151 191
144 144 182
148 148 188
145 145 183
162 162 205
168 168 213
134 134 170
149 149 189
167 167 212
164 164 207
166 166 211
174 174 221
189 189 239
156 156 198
152 152 194
173 172 218
165 164 208
163 163 207
171 171 216
171 171 216
179 179 226
178 178 225
178 178 226
159 159 201
182 181 229
173 172 217
194 194 245
169 169 215
177 177 224
194 194 245
176 176 223
181 181 229
180 180 228
182 182 231
188 188 237
196 196 248
164 164 208
187 187 236
186 186 235
174 174 220
189 189 240
185 185 233
189 189 239
186 186 236
189 189 239
168 168 213
183 183 231
192 192 243
197 197 249
193 193 245
205 204 255
193 193 244
200 200 253
188 188 239
213 213 255
204 204 255
210 210 255
196 196 249
217 217 255
200 199 253
214 214 255
224 224 255
214 214 255
233 233 255
213 213 255
213 213 255
203 203 255
219 219 255
235 235 255
231 231 255
221 221 255
228 228 255
242 242 255
217 217 255
228 228 255
225 225 255
235 235 255
220 220 255
238 238 255
242 242 255
246 246 255
245 245 255
242 241 255
252 252 255
254 254 255
250 250 255
250 250 255
248 248 255
253 253 255
255 255 255
255 255 255
255 255 255
255 255 255
255 255 255
255 255 255
255 255 255
255 255 255
255 255 255
255 255 255
255 255 255
255 255 255
255 255 255
255 255 255
255 255 255
255 255 255
255 255 255
255 255 255
255 255 255
255 255 255
255 255 255
255 255 255
255 255 255
255 255 255
255 255 255
255 255 255
255 255 255
255 255 255
255 255 255
255 255 255
255 255 255
255 255 255
255 255 255
255 255 255
255 255 255
255 255 255
255 255 255
252 252 255
234 234 255
225 225 255
222 222 255
196 196 248
200 200 253
171 171 217
157 157 199
120 120 152
111 111 141
141 141 178
156 156 198
163 163 207
176 176 222
213 213 255
204 204 255
206 206 255
235 235 255
240 240 255
243 243 255
255 255 255
245 245 255
255 255 255
255 255 255
255 255 255
255 255 255
255 255 255
249 249 255
255 255 255
255 255 255
255 255 255
250 250 255
255 255 255
255 255 255
237 237 255
255 255 255
255 255 255
255 255 255
255 255 255
255 255 255
248 248 255
255 255 255
255 255 255
247 247 255
246 246 255
255 255 255
255 255 255
254 254 255
255 255 255
224 224 255
231 231 255
229 229 255
239 239 255
237 236 255
223 223 255
228 228 255
245 245 255
231 231 255
233 233 255
247 247 255
218 218 255
232 232 255
219 219 255
221 221 255
211 211 255
219 219 255
202 202 255
208 208 255
198 198 251
202 202 255
194 194 246
202 202 255
198 198 250
200 200 253
190 190 240
194 194 245
212 212 255
175 175 222
189 189 240
184 184 233
173 173 219
190 190 241
182 182 230
188 188 237
170 170 215
170 170 216
168 168 213
187 187 236
175 175 221
172 172 217
164 164 207
165 165 208
144 144 183
148 148 187
174 174 221
164 164 207
143 143 181
170 170 216
146 146 184
153 153 194
153 153 194
153 153 194
162 163 206
155 155 196
137 137 174
143 143 181
133 133 168
142 142 180
139 139 175
146 146 184
131 131 166
143 143 181
136 136 172
128 128 161
155 155 197
143 143 181
131 131 166
142 142 180
128 128 161
128 128 162
0 0 0
1 0 5
0 0 0
0 0 0
0 0 0
0 0 0
0 0 0
0 0 0
0 0 0
8 4 18
9 4 19
9 4 21
8 4 18
7 3 16
6 3 13
9 4 21
7 3 16
9 4 20
6 3 13
7 3 16
11 5 23
9 4 18
6 3 13
12 6 25
10 5 21
9 4 21
5 2 10
9 4 19
10 5 22
9 4 20
9 4 18
6 3 13
7 3 16
7 3 15
11 5 23
8 4 18
12 6 26
8 4 19
8 4 17
7 3 16
9 4 21
6 3 14
7 3 15
10 5 20
8 4 17
9 4 20
8 4 16
5 2 11
8 4 18
10 5 22
6 3 13
8 4 16
8 4 19
8 4 18
7 3 17
7 3 16
8 4 18
7 3 16
9 4 20
4 2 10
5 2 10
19 18 26
19 18 26
19 18 26
26 25 34
31 31 40
36 36 47
31 31 41
26 25 34
2 1 7
31 31 40
40 40 52
40 40 51
44 44 56
44 44 57
36 36 47
40 40 53
57 57 74
76 76 98
74 74 95
57 57 74
51 51 66
62 62 80
65 65 84
57 57 74
68 67 87
74 74 96
68 67 86
66 66 86
75 74 96
77 76 98
65 65 84
76 76 98
90 90 115
92 92 117
67 67 86
82 82 106
75 75 95
90 90 115
86 86 110
78 77 100
88 88 112
85 85 109
69 69 90
91 91 115
77 76 98
91 91 116
81 81 103
108 108 138
102 102 130
85 85 108
104 104 132
101 100 128
108 108 138
117 117 149
104 104 132
125 125 159
117 117 149
128 128 163
118 118 150
120 120 152
115 115 146
128 128 163
126 125 159
113 113 144
126 126 160
125 125 159
139 139 176
132 132 167
129 129 163
147 147 186
128 128 162
141 141 179
146 146 185
132 132 167
154 154 194
146 146 185
134 134 170
140 140 177
145 145 184
139 139 176
145 145 184
132 131 166
153 152 192
152 152 193
147 147 186
130 130 164
158 157 199
159 159 200
151 151 192
140 140 178
143 143 180
141 141 179
160 159 201
145 145 183
130 130 165
143 143 181
160 160 203
141 140 177
146 146 185
166 166 210
158 158 199
158 158 200
162 162 204
172 172 218
158 158 200
168 168 213
158 158 201
168 167 210
163 162 205
162 162 205
175 175 221
165 165 209
178 177 224
165 165 209
160 160 202
189 189 239
164 164 208
165 165 209
172 172 218
170 170 215
173 172 217
183 183 231
161 161 204
183 183 232
174 173 218
176 176 222
194 193 244
184 183 232
170 170 215
183 183 231
165 165 209
168 168 213
181 181 230
189 189 240
190 190 241
177 177 225
179 179 226
187 187 236
174 174 220
190 190 240
198 198 250
209 209 255
192 192 243
180 180 228
194 194 245
206 206 255
207 207 255
209 209 255
198 198 251
202 202 255
198 198 251
212 212 255
202 201 255
213 213 255
224 224 255
199 199 252
227 227 255
225 225 255
210 210 255
214 214 255
226 226 255
219 219 255
228 228 255
242 242 255
218 218 255
230 230 255
227 227 255
246 246 255
227 227 255
222 222 255
222 221 255
240 240 255
246 246 255
244 244 255
234 234 255
232 232 255
245 245 255
254 254 255
255 255 255
255 255 255
255 255 255
249 249 255
255 255 255
255 255 255
255 255 255
249 249 255
255 255 255
255 255 255
255 255 255
255 255 255
255 255 255
255 255 255
248 248 255
255 255 255
255 255 255
255 255 255
255 255 255
255 255 255
255 255 255
255 255 255
255 255 255
255 255 255
255 255 255
255 255 255
255 255 255
255 255 255
255 255 255
255 255 255
255 255 255
255 255 255
255 255 255
255 255 255
255 255 255
255 255 255
255 255 255
255 255 255
255 255 255
255 255 255
255 255 255
255 255 255
255 255 255
255 255 255
255 255 255
250 250 255
226 226 255
222 222 255
222 222 255
198 198 251
188 188 238
174 174 220
144 144 183
144 144 182
116 116 147
120 120 152
146 146 185
178 178 225
169 169 215
201 201 254
210 210 255
209 209 255
217 217 255
222 222 255
240 240 255
254 254 255
255 255 255
251 251 255
254 254 255
255 255 255
255 255 255
255 255 255
255 255 255
246 246 255
255 255 255
255 255 255
255 255 255
255 255 255
255 255 255
255 255 255
255 255 255
255 255 255
253 253 255
255 255 255
255 255 255
246 246 255
238 238 255
253 253 255
255 255 255
255 255 255
247 247 255
246 246 255
245 245 255
246 246 255
252 252 255
238 238 255
236 236 255
232 232 255
223 223 255
242 242 255
231 231 255
214 214 255
229 229 255
207 207 255
217 217 255
215 214 255
234 234 255
217 217 255
202 202 255
209 209 255
221 221 255
195 195 246
210 210 255
185 185 234
188 188 238
203 203 255
195 195 247
199 199 252
185 185 234
199 199 251
194 194 246
183 183 232
207 207 255
178 178 225
184 184 233
181 181 230
174 174 220
185 185 234
172 172 218
168 168 213
169 169 213
182 182 231
159 159 202
167 167 212
157 157 199
191 191 242
138 138 174
159 159 202
151 151 191
161 161 204
159 159 201
166 166 211
148 148 187
149 149 189
139 139 175
148 148 187
122 122 155
150 150 190
156 156 198
153 153 194
151 151 191
144 144 183
152 152 192
141 141 178
139 139 175
136 136 172
145 145 184
144 144 183
137 137 174
128 128 161
119 119 150
1 0 5
0 0 1
0 0 0
0 0 0
0 0 0
12 12 20
0 0 0
0 0 0
1 0 5
5 2 12
9 4 20
6 3 14
9 4 20
8 4 18
5 2 10
3 1 8
5 2 14
4 2 10
6 3 12
6 3 13
7 3 15
7 3 16
5 2 10
6 3 14
3 1 6
3 1 8
4 2 9
5 2 12
5 2 12
3 1 8
4 2 9
3 1 6
2 1 5
2 1 7
4 2 9
5 2 12
0 0 0
25 25 32
18 18 22
18 18 24
25 25 33
25 25 32
31 31 40
25 25 33
36 36 48
25 25 33
40 40 52
44 44 56
47 47 61
40 40 51
31 31 42
31 31 41
51 51 65
57 57 73
32 31 43
60 60 77
49 49 64
57 57 73
58 58 76
58 58 75
60 60 77
73 73 95
62 62 80
68 67 86
67 67 86
67 67 86
60 60 76
82 81 105
73 73 94
54 54 70
83 82 105
67 67 87
81 81 103
46 46 60
87 87 112
65 65 82
51 51 65
90 90 115
67 67 86
77 77 98
72 72 92
90 90 114
85 85 107
73 73 95
79 78 100
63 62 80
83 83 105
82 82 105
92 92 117
90 90 115
96 96 123
95 94 121
88 88 113
97 97 123
99 99 126
90 90 115
85 84 108
94 94 120
102 102 130
104 104 132
86 86 110
92 92 117
102 102 130
97 97 124
107 107 136
88 88 112
106 106 134
101 101 128
118 118 150
113 113 143
102 102 130
105 104 132
128 128 163
108 108 138
127 127 161
116 116 147
111 110 140
116 116 146
125 125 159
116 116 147
125 125 159
117 117 149
132 132 166
120 120 152
112 112 142
126 126 160
134 134 169
126 126 159
138 138 175
139 139 176
134 134 170
148 148 187
141 141 179
137 137 173
145 144 183
136 136 172
132 132 167
132 132 167
133 133 168
125 124 157
146 145 184
146 146 186
142 142 179
122 122 155
134 134 168
135 135 171
161 161 203
144 144 182
138 137 174
148 148 187
137 136 173
155 154 195
148 147 186
149 149 189
142 142 181
151 151 191
160 160 203
160 160 202
156 156 197
158 158 200
157 156 198
151 151 190
153 154 194
152 151 191
164 163 206
159 159 201
160 160 202
164 164 208
168 168 213
140 140 177
162 162 205
150 150 189
161 160 203
174 174 220
162 162 204
147 147 186
170 170 216
167 167 211
173 173 218
166 166 210
173 173 218
180 180 227
159 159 201
184 184 233
172 172 218
151 151 191
174 174 220
183 183 232
180 180 227
177 177 224
170 170 215
196 196 248
166 165 209
183 182 230
191 191 242
181 181 229
166 166 211
200 200 253
183 183 232
182 182 231
189 189 239
198 198 251
193 193 244
190 190 240
186 186 235
201 201 254
193 193 244
188 188 238
184 184 233
203 203 255
214 214 255
205 204 255
219 219 255
218 218 255
200 200 253
212 212 255
206 206 255
213 213 255
202 202 255
208 208 255
218 218 255
209 209 255
211 211 255
208 208 255
224 224 255
233 232 255
214 214 255
230 230 255
234 234 255
228 228 255
220 220 255
234 234 255
236 236 255
237 237 255
244 244 255
236 236 255
237 237 255
238 237 255
251 251 255
245 245 255
255 255 255
252 252 255
232 232 255
250 250 255
245 245 255
243 243 255
247 247 255
255 255 255
249 249 255
255 255 255
252 252 255
255 255 255
255 255 255
255 255 255
255 255 255
255 255 255
255 255 255
255 255 255
255 255 255
255 255 255
255 255 255
255 255 255
255 255 255
255 255 255
255 255 255
255 255 255
255 255 255
255 255 255
255 255 255
255 255 255
255 255 255
255 255 255
255 255 255
255 255 255
255 255 255
255 255 255
255 255 255
255 255 255
255 255 255
255 255 255
255 255 255
255 255 255
255 255 255
255 255 255
255 255 255
253 253 255
246 246 255
245 245 255
237 237 255
230 230 255
230 230 255
204 204 255
205 205 255
184 184 233
179 179 227
157 157 198
124 124 157
104 103 131
122 122 154
139 139 176
163 163 206
171 171 216
193 193 245
204 204 255
203 203 255
207 207 255
219 219 255
248 248 255
235 235 255
250 250 255
245 245 255
241 241 255
236 236 255
253 253 255
238 238 255
251 251 255
255 255 255
255 255 255
253 253 255
245 245 255
255 255 255
255 255 255
255 255 255
242 242 255
255 255 255
247 247 255
242 242 255
255 255 255
254 254 255
243 242 255
233 233 255
239 239 255
213 213 255
249 249 255
237 237 255
231 231 255
226 226 255
244 244 255
239 239 255
234 234 255
214 214 255
223 223 255
227 227 255
213 213 255
205 205 255
215 215 255
220 220 255
220 220 255
211 211 255
205 205 255
208 208 255
209 209 255
211 211 255
188 188 238
211 211 255
201 201 254
196 196 248
197 197 249
190 190 241
194 194 245
182 182 230
180 180 227
188 188 238
196 196 248
182 182 231
173 173 220
188 188 239
191 191 242
170 170 216
182 182 231
174 174 220
164 164 207
170 170 216
157 157 199
164 164 207
180 179 227
164 164 208
156 156 198
163 163 207
155 155 196
141 141 178
169 169 214
142 142 180
153 153 194
151 151 191
152 152 192
140 140 177
143 143 181
139 139 175
156 156 197
136 136 172
134 134 169
159 159 202
135 135 171
153 153 194
133 133 168
134 134 169
152 152 192
130 130 165
124 124 156
0 0 0
0 0 0
0 0 0
1 0 5
0 0 0
0 0 0
0 0 0
0 0 0
18 18 22
0 0 0
0 0 0
0 0 1
0 0 0
25 25 33
18 18 23
1 0 5
18 18 23
36 36 45
36 36 46
18 18 25
18 18 23
46 46 60
40 40 51
36 36 47
46 46 61
40 40 52
25 25 34
40 40 51
36 36 48
18 18 25
51 51 66
54 54 69
55 55 72
40 40 54
31 31 42
62 62 79
60 60 77
57 57 72
80 79 102
40 40 53
48 47 61
46 46 61
58 58 75
57 57 73
57 57 73
60 60 78
86 86 112
51 51 66
60 60 76
58 58 75
66 66 86
60 60 78
70 70 89
57 57 73
62 62 80
72 72 92
67 67 86
60 60 76
79 78 100
88 88 113
75 75 97
74 74 96
85 85 109
67 67 86
74 74 94
76 76 97
75 75 97
72 72 92
70 70 89
84 84 107
79 78 100
80 79 103
85 85 109
70 70 89
64 64 83
88 88 113
88 88 112
90 90 115
91 91 116
81 81 103
88 88 112
105 105 133
87 87 112
92 92 116
90 90 114
90 90 114
80 80 102
94 94 119
95 95 121
87 87 112
95 95 121
97 97 124
116 116 147
92 92 117
100 100 128
94 94 121
104 103 131
84 84 107
108 108 137
129 129 164
97 97 123
110 110 139
96 96 122
108 108 138
100 100 128
108 108 137
121 121 154
113 113 144
119 119 152
121 121 154
121 121 153
127 126 160
110 110 140
127 127 161
118 118 150
111 111 141
119 118 151
126 126 160
124 124 158
124 123 156
121 121 153
108 108 139
117 117 150
151 151 192
130 130 165
132 132 167
129 128 162
129 129 163
129 129 164
126 125 159
144 144 182
130 130 165
124 124 157
136 136 171
142 142 180
122 122 154
130 130 165
136 135 172
133 132 168
144 144 182
130 130 164
128 128 162
141 141 179
138 138 174
148 148 187
134 134 170
152 152 192
146 146 185
145 145 183
142 142 179
146 146 185
158 158 200
163 163 206
159 159 202
151 151 191
137 137 174
145 145 184
139 139 177
142 142 180
154 154 195
156 156 197
149 149 189
151 151 192
140 140 177
148 148 187
157 157 199
173 173 219
162 162 206
176 176 223
165 164 208
172 171 217
165 165 208
159 159 201
170 170 215
153 153 192
166 165 210
138 138 175
171 171 217
172 172 217
184 184 232
159 158 201
161 161 204
172 172 218
166 166 210
170 170 215
160 159 202
162 162 205
179 178 225
170 170 215
164 164 208
178 177 224
182 182 230
181 181 230
186 186 235
178 178 225
181 181 228
168 168 213
192 192 243
180 180 229
175 174 220
171 171 215
179 179 227
183 183 231
175 175 222
176 176 223
193 192 243
194 194 246
195 195 246
202 202 255
198 198 251
184 184 233
193 193 245
201 201 254
169 169 214
185 185 234
200 199 252
208 207 255
210 210 255
213 213 255
194 194 246
213 213 255
202 201 254
212 212 255
208 208 255
219 219 255
213 213 255
219 218 255
210 210 255
206 206 255
222 221 255
224 224 255
200 200 254
221 221 255
215 215 255
230 230 255
215 215 255
239 239 255
229 229 255
226 226 255
249 249 255
236 236 255
231 231 255
230 230 255
243 243 255
236 237 255
233 233 255
251 251 255
236 236 255
244 244 255
239 239 255
252 252 255
238 237 255
244 244 255
255 255 255
251 251 255
255 255 255
255 255 255
253 253 255
255 255 255
255 255 255
255 255 255
255 255 255
255 255 255
255 255 255
255 255 255
255 255 255
255 255 255
255 255 255
255 255 255
255 255 255
255 255 255
255 255 255
255 255 255
255 255 255
255 255 255
255 255 255
255 255 255
255 255 255
255 255 255
255 255 255
255 255 255
255 255 255
255 255 255
255 255 255
255 255 255
255 255 255
255 255 255
255 255 255
236 236 255
227 227 255
238 238 255
239 239 255
240 240 255
214 214 255
200 200 252
191 191 242
176 176 223
166 166 210
147 147 186
133 133 167
117 117 148
120 120 152
126 126 160
141 141 179
148 148 188
184 184 233
168 168 213
192 192 242
223 223 255
221 221 255
220 220 255
228 228 255
239 239 255
224 224 255
245 245 255
234 234 255
252 252 255
245 245 255
243 243 255
241 241 255
236 236 255
233 233 255
240 240 255
239 239 255
255 255 255
226 226 255
234 234 255
255 255 255
229 229 255
234 234 255
230 230 255
247 247 255
230 230 255
233 233 255
242 242 255
231 231 255
218 218 255
223 223 255
223 223 255
214 214 255
220 220 255
226 226 255
220 220 255
214 214 255
209 209 255
214 214 255
215 215 255
208 208 255
199 199 252
196 196 248
196 196 248
208 208 255
193 193 244
195 195 247
192 192 243
205 205 255
184 184 233
186 186 235
196 196 248
185 185 234
182 182 231
164 164 208
187 187 236
187 187 236
174 174 220
179 179 226
184 184 233
186 186 235
168 168 213
173 173 219
179 179 227
163 163 207
170 170 216
171 171 217
164 164 208
167 167 212
181 181 228
153 153 194
162 162 205
150 150 190
162 162 206
161 161 204
152 152 192
137 137 174
156 156 198
139 139 175
144 144 183
142 142 180
152 152 192
135 135 171
148 148 187
141 141 179
137 137 174
148 148 187
158 158 200
115 115 146
117 117 148
149 149 188
129 129 163
126 126 160
25 25 32
36 36 45
25 25 33
31 31 39
31 31 39
25 25 32
36 36 46
40 40 51
54 54 68
47 47 60
31 31 40
49 49 64
44 44 56
44 44 57
54 54 69
41 40 54
44 44 57
42 42 55
40 40 52
60 60 76
44 44 57
65 65 84
44 44 57
47 47 61
57 57 72
42 42 55
48 47 61
72 72 91
67 67 86
48 47 61
69 68 89
70 70 89
62 62 80
67 67 86
60 60 77
77 77 98
73 73 94
73 73 95
71 71 91
74 74 95
70 70 90
74 74 94
65 65 83
86 86 110
66 66 85
72 72 92
80 79 102
76 76 97
67 67 85
73 73 94
61 61 79
85 85 111
76 76 98
78 78 100
78 78 101
85 85 109
84 84 109
75 75 97
91 91 116
80 80 103
85 84 109
106 106 135
83 82 105
74 74 94
72 72 92
88 88 112
84 84 107
86 86 109
72 72 92
86 86 110
86 86 109
90 90 114
100 100 127
100 99 127
88 88 112
102 102 130
78 78 99
88 88 112
105 105 133
95 95 122
88 88 112
110 110 140
92 92 118
94 94 119
100 100 127
95 95 121
107 107 135
93 93 119
104 104 133
105 105 133
104 104 131
113 113 143
104 103 131
90 90 115
100 100 127
110 110 139
106 106 135
104 104 132
117 117 147
103 103 132
109 108 138
112 112 142
104 104 132
97 97 123
110 110 140
123 123 157
125 125 159
104 104 132
116 116 147
125 125 159
116 116 147
112 112 143
102 102 129
111 111 141
109 109 138
116 116 147
120 120 152
128 128 162
118 118 150
117 117 148
112 111 141
123 122 155
112 111 141
118 118 150
109 109 137
102 102 130
114 114 145
124 124 157
138 138 175
129 129 163
137 137 173
140 140 178
130 130 165
123 123 155
124 124 157
131 131 166
126 126 160
139 138 175
134 133 169
127 126 159
122 123 155
139 138 175
152 151 191
142 142 181
129 128 163
138 138 174
131 131 166
128 128 162
143 143 182
142 142 180
147 146 186
141 141 179
142 142 180
132 132 166
135 135 171
136 136 173
156 156 197
156 156 197
149 149 188
142 142 180
149 149 189
142 142 180
154 153 193
134 134 170
149 149 188
136 136 172
160 159 202
151 151 192
159 159 202
146 146 185
163 163 206
151 151 192
149 149 188
152 152 193
157 157 198
147 147 185
157 157 198
150 150 190
179 179 227
172 172 216
165 165 209
154 154 196
156 156 197
157 157 199
166 166 209
182 182 230
166 166 210
164 164 207
183 183 231
164 164 207
168 168 213
161 161 204
173 173 219
200 200 253
178 178 225
166 165 209
178 178 225
174 174 220
176 176 223
173 173 218
193 193 245
180 180 228
177 177 224
182 182 231
178 177 223
178 178 225
197 197 249
188 188 239
174 174 220
198 198 251
194 194 245
183 183 231
187 187 236
193 193 245
195 194 246
191 191 241
193 193 243
197 196 249
191 191 242
198 198 251
202 202 255
197 197 249
200 200 253
203 203 255
215 215 255
209 209 255
202 202 255
203 203 255
208 208 255
209 209 255
226 226 255
217 217 255
211 211 255
221 221 255
217 217 255
217 217 255
225 225 255
222 222 255
212 211 255
211 211 255
222 222 255
222 222 255
231 231 255
233 233 255
244 244 255
234 234 255
251 251 255
232 232 255
235 235 255
243 243 255
222 222 255
243 242 255
240 240 255
240 240 255
232 232 255
250 250 255
242 242 255
238 238 255
251 251 255
242 242 255
238 237 255
238 238 255
222 222 255
255 255 255
250 250 255
252 252 255
255 255 255
255 255 255
255 255 255
254 254 255
250 250 255
248 248 255
255 255 255
255 255 255
255 255 255
255 255 255
255 255 255
244 244 255
255 255 255
255 255 255
255 255 255
255 255 255
255 255 255
255 255 255
255 255 255
255 255 255
255 255 255
242 242 255
242 242 255
247 247 255
255 255 255
237 237 255
254 254 255
243 243 255
239 239 255
223 223 255
220 220 255
221 221 255
200 200 253
180 180 228
171 171 216
161 161 203
158 158 200
120 120 152
114 114 144
102 102 129
112 112 142
143 143 182
152 152 193
171 171 216
168 168 212
193 193 244
198 198 251
200 200 253
218 218 255
201 201 255
212 212 255
219 219 255
217 217 255
219 219 255
227 227 255
210 210 255
227 227 255
220 220 255
227 227 255
229 229 255
214 214 255
215 215 255
212 212 255
220 220 255
232 232 255
220 220 255
236 236 255
213 213 255
208 208 255
212 212 255
209 209 255
213 213 255
214 214 255
193 192 243
219 219 255
207 207 255
204 204 255
217 217 255
213 213 255
213 213 255
211 211 255
203 203 255
209 209 255
199 199 251
197 197 249
202 202 255
185 185 234
192 192 243
180 180 228
188 188 237
171 171 217
181 181 229
181 181 228
170 170 216
185 185 234
159 159 201
179 179 226
169 169 214
181 181 230
181 181 228
155 155 196
182 182 231
179 179 226
162 162 206
173 173 219
155 155 196
170 170 216
155 155 197
158 158 201
148 148 187
165 165 209
145 145 184
163 163 207
143 143 181
150 150 190
158 158 200
148 148 187
152 152 192
140 140 177
150 150 190
150 150 190
137 137 174
156 156 198
148 148 187
129 129 163
135 135 171
143 143 181
140 140 177
113 113 142
137 137 174
133 133 168
107 107 135
130 130 165
130 130 165
47 47 60
54 54 68
57 57 72
44 44 56
44 44 56
48 47 61
48 47 61
62 62 79
47 47 60
26 26 33
62 62 80
54 54 69
36 36 46
40 40 52
60 60 76
57 57 73
62 62 81
60 60 75
60 60 76
75 75 96
38 38 50
44 44 57
66 66 86
57 57 72
60 60 76
71 71 91
70 70 89
70 70 90
48 47 61
70 70 89
40 40 52
87 87 111
67 67 86
72 72 92
84 84 107
64 64 82
66 66 85
66 65 84
68 68 88
81 80 102
74 74 94
85 85 109
76 76 97
76 76 97
81 80 104
70 70 89
86 86 110
75 75 97
95 95 121
79 79 101
60 60 76
65 64 83
76 76 97
70 70 88
75 75 96
79 79 101
86 86 109
86 86 110
78 78 100
86 86 110
74 74 96
99 99 125
83 83 106
89 89 114
83 83 106
85 85 109
83 83 105
91 91 116
85 85 109
105 105 134
92 92 117
88 88 112
84 84 107
102 102 129
99 99 126
83 82 105
98 98 125
75 75 95
99 99 125
88 88 112
94 94 119
100 100 128
107 107 135
94 94 119
104 103 131
107 107 135
102 102 129
110 110 139
95 95 121
93 93 118
92 92 116
92 92 116
79 79 100
84 84 107
110 110 139
104 104 131
105 105 133
114 114 145
107 107 135
106 106 136
111 111 141
122 122 155
108 108 137
100 99 126
103 103 131
128 128 162
105 105 133
117 117 148
111 111 141
108 107 136
117 117 148
112 112 142
101 101 127
118 118 150
101 101 128
120 120 152
118 118 150
125 125 158
121 121 153
115 115 145
142 142 180
122 122 154
112 112 142
122 122 155
122 122 154
138 137 173
114 114 144
123 123 156
122 122 155
121 121 154
129 129 163
131 131 166
141 141 179
124 124 158
120 120 152
144 144 182
128 128 162
129 129 164
135 135 171
139 139 176
128 128 162
136 135 172
144 144 182
137 137 174
139 138 175
138 138 174
152 152 193
138 138 175
139 138 175
134 134 170
134 134 169
118 118 149
144 144 183
137 137 173
128 128 161
145 145 183
153 153 193
149 149 189
137 137 174
146 145 184
153 153 194
130 130 164
135 135 171
148 148 187
149 149 188
157 157 199
162 162 205
154 154 195
152 152 192
151 151 191
133 133 169
141 141 179
148 148 187
147 146 185
154 154 195
146 145 184
158 158 200
157 157 199
157 157 198
162 162 205
131 131 166
150 150 189
157 157 199
153 153 193
148 148 188
150 150 190
176 176 223
161 161 204
159 159 201
169 168 212
158 158 200
159 158 201
170 170 215
163 163 207
165 165 208
166 166 211
177 177 224
173 173 219
186 186 236
189 189 239
163 163 206
174 174 220
157 157 199
179 179 227
194 194 245
177 177 223
166 165 208
173 173 219
176 177 224
188 188 238
171 171 216
192 192 243
192 192 243
175 175 222
194 193 244
177 177 224
200 199 252
206 206 255
192 192 243
191 191 242
204 203 255
188 188 238
195 195 246
205 205 255
197 197 249
193 193 244
204 204 255
206 206 255
212 212 255
184 184 232
204 204 255
192 192 243
192 192 243
190 190 240
211 211 255
208 208 255
209 209 255
226 226 255
207 206 255
202 202 255
218 218 255
216 216 255
211 211 255
223 223 255
213 213 255
204 204 255
240 240 255
230 230 255
232 232 255
214 214 255
225 225 255
214 214 255
227 227 255
239 239 255
227 227 255
222 222 255
236 236 255
240 240 255
231 231 255
255 255 255
236 236 255
243 243 255
241 241 255
236 236 255
248 248 255
245 245 255
242 242 255
229 230 255
246 246 255
240 240 255
246 246 255
242 242 255
247 247 255
255 255 255
246 246 255
255 255 255
252 252 255
237 237 255
255 255 255
239 239 255
243 243 255
255 255 255
255 255 255
246 246 255
249 249 255
252 252 255
245 245 255
235 235 255
255 255 255
244 244 255
251 251 255
224 224 255
247 246 255
249 249 255
223 223 255
229 229 255
212 212 255
206 206 255
216 216 255
200 200 254
206 206 255
172 172 218
169 168 213
177 177 224
163 163 207
148 148 188
126 126 160
114 114 145
90 90 114
110 110 139
108 108 137
125 125 158
143 143 181
168 168 212
153 153 194
170 170 215
171 171 217
182 182 231
187 187 236
196 196 249
193 192 244
178 178 226
188 188 239
189 189 239
183 183 231
196 196 248
187 187 237
208 208 255
198 198 251
192 192 243
176 176 223
203 203 255
198 198 250
210 210 255
202 202 255
216 216 255
182 182 230
197 197 250
215 215 255
198 198 251
209 209 255
191 190 240
191 190 241
197 197 249
182 182 230
181 181 230
188 188 237
180 180 228
190 190 241
188 188 239
183 183 232
182 182 230
186 186 236
179 179 227
181 181 230
185 185 234
169 169 214
175 175 222
189 189 239
173 173 219
177 177 224
156 156 198
167 167 212
171 171 217
154 154 195
177 177 224
170 170 216
165 165 209
170 170 216
156 156 197
163 163 207
162 162 206
147 147 186
165 166 209
158 158 200
155 155 196
158 158 200
151 151 191
149 149 188
162 162 206
150 150 190
145 145 184
153 153 194
163 163 207
152 152 192
135 135 171
139 139 175
153 153 194
128 128 161
156 156 198
134 134 169
117 117 148
131 131 166
145 145 184
136 136 172
131 131 166
149 149 188
149 149 188
137 137 174
135 135 171
40 40 51
67 67 85
65 65 82
47 47 60
47 47 61
57 57 73
54 54 68
60 60 76
67 67 86
78 78 100
59 59 76
36 36 46
60 60 76
62 62 79
58 58 75
58 58 75
64 63 81
60 60 77
62 62 79
83 83 105
60 60 76
66 66 85
67 67 85
51 51 65
60 60 76
73 73 94
74 74 95
65 65 82
83 82 105
79 78 100
78 78 100
66 66 85
71 70 90
78 78 100
78 78 99
88 88 112
85 85 109
92 92 117
67 67 86
62 62 81
88 88 112
71 71 90
65 65 82
74 74 95
81 80 103
77 77 99
73 73 94
84 84 107
75 75 97
74 74 94
81 81 102
74 74 94
77 77 99
96 96 123
89 89 114
84 84 107
67 67 86
70 70 89
89 89 114
86 86 110
81 80 102
82 81 104
84 84 107
74 74 94
73 73 94
95 95 120
92 92 117
88 88 112
88 88 112
92 92 117
96 96 121
86 86 110
84 84 107
90 90 114
93 93 118
94 94 119
104 103 130
76 76 97
81 81 102
107 107 135
100 100 127
104 104 133
107 107 135
92 92 117
102 102 129
79 78 100
104 103 130
94 94 121
102 102 129
103 103 131
97 97 123
78 78 100
102 102 129
105 105 133
112 112 143
110 110 140
94 94 119
105 105 134
99 99 126
115 115 146
96 96 121
107 107 135
86 86 109
96 96 121
100 100 126
99 99 125
122 122 155
111 111 141
118 118 150
128 128 162
90 90 114
113 113 143
117 117 148
117 117 148
108 108 137
114 114 145
107 107 136
126 126 159
119 119 150
113 113 142
104 104 133
100 100 127
133 133 169
123 123 156
110 110 140
116 116 146
120 120 151
113 113 144
119 119 151
120 120 152
131 131 165
108 107 136
124 123 156
136 136 173
150 150 189
124 124 156
122 122 155
139 139 177
127 127 162
125 124 157
120 120 151
117 117 148
143 143 181
125 125 157
124 123 156
140 140 177
133 133 168
129 129 163
121 121 153
138 138 174
129 129 162
145 145 183
150 150 190
144 143 182
137 137 173
131 131 167
146 146 184
143 143 181
139 139 176
142 142 180
136 136 173
127 127 160
135 135 170
152 152 193
145 145 184
142 142 180
131 131 166
145 145 184
144 144 182
160 160 203
134 133 169
152 152 193
154 154 195
136 136 173
156 156 197
159 159 201
147 147 186
139 138 175
148 148 188
157 157 199
139 139 176
150 150 190
160 160 203
152 152 193
169 169 215
152 152 192
154 154 195
142 142 180
165 165 209
151 151 191
155 155 197
150 149 189
166 165 209
174 174 221
169 169 213
156 156 198
160 160 203
158 158 200
168 168 212
168 168 213
160 160 202
168 168 213
164 164 207
169 169 214
158 158 199
169 169 214
174 174 220
186 186 235
181 181 229
178 177 225
165 165 209
158 158 200
186 186 235
184 184 233
178 178 225
175 175 221
161 161 204
172 172 219
156 156 198
162 162 205
179 179 226
190 190 240
188 188 238
183 183 232
181 181 229
187 187 237
184 184 233
184 184 232
178 178 225
185 185 235
178 178 225
192 192 243
201 201 254
182 182 229
203 203 255
181 181 229
194 194 245
208 208 255
198 198 250
206 206 255
208 208 255
216 216 255
207 207 255
206 206 255
206 206 255
193 193 245
203 203 255
214 214 255
207 207 255
213 213 255
218 218 255
208 208 255
215 215 255
211 211 255
224 224 255
210 210 255
226 226 255
224 224 255
223 223 255
225 225 255
213 213 255
230 230 255
230 230 255
227 227 255
227 227 255
223 223 255
212 212 255
216 216 255
226 226 255
228 228 255
228 228 255
230 230 255
226 226 255
238 238 255
227 227 255
231 231 255
231 231 255
231 231 255
227 227 255
220 220 255
230 230 255
217 217 255
219 219 255
219 219 255
230 230 255
225 225 255
233 233 255
223 223 255
225 225 255
231 231 255
212 212 255
225 225 255
218 218 255
214 214 255
224 224 255
212 212 255
190 190 241
190 190 240
207 207 255
195 195 247
202 202 255
181 181 229
178 178 225
183 183 231
170 170 216
150 150 190
156 156 197
140 140 177
132 132 167
128 128 161
119 119 150
99 99 125
87 87 110
92 92 116
114 114 145
108 108 137
115 115 146
129 129 163
119 119 150
142 142 180
147 147 186
160 160 202
157 157 199
162 162 206
167 167 212
160 160 202
161 161 203
171 171 216
170 170 216
158 158 200
155 155 196
179 179 226
157 157 199
170 170 216
164 164 208
169 169 213
181 181 229
170 170 215
180 180 227
168 168 212
185 185 234
154 154 194
177 177 224
155 156 197
181 181 228
156 156 198
161 161 204
174 174 220
170 170 216
182 182 230
174 174 220
163 163 207
165 165 208
171 171 217
167 167 211
157 156 198
167 167 212
166 166 211
141 141 178
164 164 207
170 170 215
169 169 214
163 163 207
171 171 217
162 162 206
164 164 207
163 163 207
151 151 191
159 159 201
158 158 201
154 154 195
161 161 204
160 160 202
159 159 201
152 152 192
153 153 193
154 154 195
142 142 180
140 140 177
145 145 184
142 142 180
131 131 166
136 136 172
141 141 178
139 139 175
141 141 178
141 141 178
153 153 194
124 124 156
139 139 175
126 126 160
128 128 161
141 141 178
134 134 170
125 125 159
149 149 188
126 126 160
143 143 181
140 140 177
126 126 160
57 57 72
65 65 83
60 60 76
60 60 76
62 62 79
62 62 79
71 71 91
60 60 75
90 90 114
47 47 60
67 67 85
71 71 91
62 62 79
72 72 91
60 60 76
65 65 83
58 58 76
67 67 86
74 74 94
62 62 80
67 67 85
76 76 97
66 66 85
65 65 83
74 74 94
81 81 102
74 74 94
67 67 86
88 88 112
83 83 106
70 70 88
72 72 92
72 72 91
70 70 89
82 82 105
72 72 92
70 70 89
84 83 107
62 62 79
62 62 81
47 47 61
76 76 97
74 74 95
86 85 108
92 92 116
72 72 91
76 76 97
86 86 110
86 86 109
80 79 102
70 70 89
85 85 109
72 72 92
68 68 88
87 87 109
85 85 107
94 94 120
65 65 82
70 70 88
89 88 113
82 81 104
67 67 86
95 94 121
81 80 102
103 103 131
82 81 100
88 88 110
77 77 97
99 99 125
94 94 119
79 79 100
84 84 107
76 76 97
100 100 127
91 91 116
92 92 116
96 96 121
102 102 130
90 90 114
90 90 116
106 106 135
86 86 110
102 102 129
86 86 109
96 96 121
92 92 117
117 117 148
91 90 115
108 108 137
92 92 116
103 103 130
93 93 118
87 87 112
104 104 131
102 102 129
100 101 127
99 99 125
110 110 139
90 90 114
109 108 137
107 107 135
97 97 123
113 113 142
111 111 141
115 115 146
105 105 133
134 134 170
109 109 139
110 110 141
104 104 132
86 86 110
102 102 129
108 108 137
99 99 125
114 114 145
105 105 134
113 113 143
129 129 163
108 108 138
115 115 146
121 121 153
88 88 112
110 110 139
113 113 143
100 100 127
115 115 146
109 109 138
119 119 150
130 130 165
120 120 152
102 102 130
128 128 162
120 120 152
114 114 144
99 99 126
130 130 165
124 124 157
121 121 153
123 123 156
120 120 151
108 108 136
118 118 150
134 134 169
105 105 132
133 133 167
121 121 153
130 130 165
120 120 152
128 128 161
126 126 159
139 139 176
130 130 164
134 134 170
130 130 165
128 127 161
118 118 148
143 143 182
131 131 165
115 115 146
142 142 180
133 133 168
143 143 182
118 118 149
139 139 175
136 136 173
117 117 148
129 129 164
134 134 169
148 148 188
143 143 180
149 149 188
133 133 168
152 152 193
137 137 174
131 131 166
153 153 193
162 162 205
123 123 155
149 149 188
130 130 165
162 162 205
149 149 189
157 157 199
146 146 184
158 158 200
161 161 204
161 161 203
153 153 194
142 142 180
160 160 202
144 144 183
159 159 201
168 169 213
172 172 218
142 142 179
173 173 220
157 157 199
147 147 186
153 153 193
163 163 206
145 145 184
159 159 201
162 162 206
166 166 211
173 173 219
161 160 202
174 174 220
158 158 200
174 174 220
184 184 233
176 176 223
168 168 212
163 163 206
169 169 213
161 161 203
174 174 221
179 179 226
177 177 223
168 168 213
176 176 223
166 166 210
186 186 235
173 173 220
181 181 229
191 191 242
177 177 224
174 174 220
181 181 229
173 173 219
169 169 214
197 197 250
189 189 238
171 171 216
186 186 234
184 184 232
196 196 248
197 197 249
196 196 248
186 186 235
185 185 234
173 173 219
179 179 226
189 189 240
175 175 222
187 187 237
190 189 239
184 184 233
198 198 251
190 190 241
204 204 255
196 196 248
189 189 240
192 192 243
196 196 247
201 201 254
213 213 255
197 197 250
214 214 255
212 212 255
203 203 255
205 205 255
214 214 255
215 215 255
186 186 236
209 209 255
205 205 255
199 199 251
212 212 255
213 213 255
205 205 255
206 206 255
223 223 255
197 197 249
222 222 255
215 215 255
206 206 255
197 197 249
210 210 255
209 209 255
216 216 255
224 224 255
203 203 255
211 211 255
196 196 248
189 189 240
201 201 254
211 211 255
204 204 255
211 211 255
199 199 252
200 200 253
225 224 255
210 210 255
184 184 232
193 193 244
190 190 240
188 188 238
186 186 235
197 197 249
180 180 227
180 180 227
175 175 222
165 165 208
173 173 218
170 170 215
157 157 199
175 175 222
152 152 192
156 156 197
151 151 191
129 129 164
113 113 143
123 123 155
105 105 133
77 77 98
91 90 113
85 85 108
79 79 101
63 63 81
92 91 115
106 106 134
112 112 142
114 114 144
133 133 168
120 120 152
140 140 177
125 125 159
125 125 158
147 147 186
137 137 173
142 142 180
153 153 194
144 144 183
151 151 191
147 147 186
136 136 173
145 145 184
137 137 174
124 124 157
138 138 175
161 161 204
139 139 176
163 163 206
136 136 172
149 149 189
159 159 201
159 159 202
129 129 163
148 148 187
175 175 221
147 147 186
155 155 196
151 151 191
157 157 199
160 160 203
155 155 196
145 145 184
141 141 178
152 152 192
160 160 202
176 176 223
158 158 200
154 154 195
151 151 191
149 149 188
148 148 187
156 156 197
139 139 175
144 144 182
140 140 177
141 141 178
152 152 192
134 134 169
128 128 162
142 142 180
140 140 177
142 142 180
133 133 168
128 127 161
139 139 175
131 131 166
147 147 186
143 143 181
130 130 165
141 141 178
137 137 174
148 148 187
130 130 165
129 129 163
124 124 157
131 131 166
133 133 168
124 124 156
129 129 163
113 113 142
134 134 169
125 125 158
118 118 150
114 114 144
124 124 156
62 62 79
62 62 79
60 60 76
40 40 51
73 73 94
60 60 76
51 51 65
78 78 100
78 78 100
60 60 76
84 84 107
67 67 85
62 62 79
54 54 69
58 58 75
67 67 85
69 68 88
82 82 105
76 76 97
57 57 72
86 86 109
51 51 65
65 65 82
72 72 92
83 83 105
61 61 79
62 62 79
74 74 94
82 82 105
78 78 101
73 73 95
75 75 95
80 80 102
79 79 100
80 79 102
76 76 97
54 54 68
84 84 107
72 72 92
94 94 119
65 65 82
78 78 100
74 74 94
76 76 97
76 76 97
72 72 92
99 99 126
79 79 102
81 80 104
74 74 94
87 86 110
76 76 97
77 77 99
104 103 131
83 83 105
91 91 116
97 97 123
95 95 121
94 94 120
91 91 116
83 83 107
86 86 110
90 90 114
94 94 119
88 88 112
88 88 112
114 114 144
83 83 106
105 105 133
92 92 116
87 87 111
113 113 143
81 81 103
74 74 94
95 95 121
86 86 110
86 86 110
94 94 120
96 96 123
99 99 125
79 79 102
110 110 139
102 102 129
99 99 125
90 90 114
80 80 102
92 92 117
97 97 123
83 83 105
87 87 109
93 93 118
95 95 121
86 86 110
100 100 127
105 105 133
102 102 130
108 108 137
94 94 119
94 94 119
104 104 133
110 110 139
102 102 130
110 110 139
87 87 110
117 117 149
102 102 129
108 108 137
102 102 129
120 120 151
107 107 135
119 119 150
110 110 139
126 126 160
108 108 137
105 105 133
115 115 146
108 107 136
107 107 135
115 115 145
121 121 153
117 117 148
111 111 141
129 129 163
121 121 153
111 111 139
104 104 131
102 102 130
111 111 140
115 115 146
122 122 155
115 115 145
105 105 133
111 111 141
131 131 166
123 123 155
106 106 134
121 121 154
133 133 168
120 120 152
120 120 152
124 124 156
119 119 150
122 122 155
114 113 143
131 131 165
124 124 157
122 122 154
117 117 148
133 133 168
123 123 155
126 126 160
124 124 158
129 128 162
106 106 134
114 114 143
110 110 139
115 115 146
128 128 162
130 130 165
130 130 164
135 135 171
134 134 170
145 145 183
118 118 150
128 128 161
124 124 157
134 134 170
137 137 174
140 140 177
133 132 167
145 145 183
142 142 180
129 129 163
135 135 171
152 152 193
133 133 168
135 135 170
131 130 165
142 142 180
124 124 157
130 130 165
142 142 179
136 136 172
129 129 164
132 132 167
163 163 206
136 136 173
159 159 201
145 145 183
154 154 195
153 153 194
147 147 186
140 140 177
135 135 171
142 142 180
117 117 149
138 138 174
150 150 190
133 133 168
160 160 203
156 156 197
158 158 201
146 146 185
146 146 185
145 145 183
154 154 195
155 155 196
130 130 165
152 152 193
159 159 202
150 150 190
170 170 215
154 154 196
157 157 198
149 149 189
162 162 205
157 157 199
161 161 203
168 167 211
175 175 222
155 155 196
164 164 208
166 166 210
175 175 221
174 174 221
168 168 213
162 163 206
182 182 230
178 178 225
164 164 207
171 171 217
178 178 225
171 171 216
173 173 219
179 179 227
183 183 232
188 188 238
176 176 223
186 186 236
179 179 227
179 179 226
184 184 233
177 177 223
189 189 240
171 171 216
188 188 237
189 189 239
187 187 236
180 180 228
189 189 240
190 190 241
184 184 233
188 188 238
192 192 243
192 192 243
184 184 233
196 196 247
192 192 243
191 191 242
188 188 238
188 188 238
195 195 247
193 193 244
180 180 228
192 192 243
194 194 245
197 197 249
200 200 253
203 203 255
200 200 253
189 189 239
209 209 255
188 188 238
182 182 230
188 188 238
199 199 252
189 189 239
190 190 241
200 200 253
190 190 240
190 190 241
199 199 252
180 180 227
192 192 243
185 185 234
181 181 230
187 187 236
194 194 245
190 190 240
199 199 251
170 170 216
188 188 238
184 184 233
197 197 249
166 166 210
191 191 242
189 189 240
176 175 222
176 176 222
175 175 222
159 159 201
155 155 196
170 170 215
157 157 198
165 165 208
156 156 198
142 142 180
140 140 177
144 144 183
139 139 176
135 135 171
120 120 152
114 114 144
111 111 141
108 108 137
105 105 133
97 97 123
93 93 118
85 85 107
81 81 103
85 85 107
92 92 117
92 92 117
96 96 121
100 99 125
98 98 124
101 101 128
107 107 136
99 99 125
118 118 150
115 115 146
128 128 161
113 113 143
123 123 155
115 115 146
120 120 151
128 128 162
114 114 144
119 119 150
123 123 156
122 122 155
122 122 155
127 127 160
120 120 151
121 121 154
116 116 147
129 129 163
139 139 175
122 122 155
139 139 176
121 121 153
130 130 165
142 142 180
133 133 168
141 141 178
147 147 186
139 139 175
146 146 184
129 129 164
121 121 153
141 141 179
156 156 198
133 133 168
148 148 187
125 125 159
126 126 160
134 134 169
129 129 163
142 142 180
134 134 169
121 121 153
143 143 181
117 117 148
129 129 163
133 133 168
139 139 175
122 122 155
116 116 147
136 136 172
118 118 150
129 129 163
125 125 158
121 121 153
126 126 160
130 130 165
136 136 172
135 135 171
124 124 156
135 135 171
123 123 155
122 122 155
114 114 145
117 117 148
126 126 160
122 122 155
128 128 161
130 130 165
110 110 139
122 122 155
115 115 146
67 67 85
79 79 102
57 57 72
72 72 91
51 51 65
54 54 71
68 68 88
62 62 79
74 74 94
70 70 88
86 86 109
62 62 80
74 74 94
54 54 68
60 60 76
57 57 72
65 65 82
57 57 72
71 71 89
44 44 56
70 70 88
72 72 92
70 70 89
74 74 95
72 72 91
76 76 97
83 82 105
90 90 114
74 74 94
70 70 89
76 76 97
52 52 68
85 85 109
67 67 85
99 99 127
67 67 85
78 78 99
82 82 104
79 79 100
76 76 97
72 72 91
83 83 106
67 67 86
80 80 102
88 88 112
62 62 79
74 74 94
92 92 116
82 82 104
79 79 100
88 88 112
51 51 65
86 86 109
88 88 112
87 87 110
94 94 120
98 98 125
79 79 102
81 81 103
90 90 115
62 62 79
86 86 109
74 74 94
79 79 100
76 76 97
94 94 118
83 83 107
69 68 88
90 90 114
73 73 93
83 83 107
90 90 114
74 74 94
100 100 127
93 93 117
90 90 114
92 92 117
102 101 128
92 92 116
110 110 139
81 80 102
89 89 114
86 86 109
100 100 127
94 94 119
90 90 114
95 95 121
84 84 107
96 96 121
83 83 105
90 90 114
107 107 135
100 100 126
105 105 133
89 89 112
85 85 108
112 112 141
99 99 125
100 100 124
100 100 126
93 93 117
90 90 114
89 89 112
116 116 146
121 121 153
100 100 127
112 112 142
101 101 128
95 96 121
111 111 141
92 92 117
106 106 135
100 100 127
108 108 136
103 103 131
110 110 139
104 104 131
108 108 137
118 118 150
111 111 141
110 110 139
113 113 143
117 117 148
117 117 148
113 113 143
114 114 144
90 90 115
111 111 141
106 106 134
105 105 133
113 113 142
115 115 146
121 121 154
120 120 152
122 123 155
109 109 137
115 115 146
118 118 150
124 124 157
122 122 155
121 121 154
107 107 136
103 103 131
115 115 145
116 116 147
126 126 160
114 114 145
113 113 143
121 121 154
141 141 179
125 125 157
115 115 146
126 126 160
117 117 148
109 109 137
134 134 170
128 128 161
129 129 163
122 122 155
133 133 168
142 142 179
143 143 181
118 118 150
127 127 161
125 125 158
135 135 171
140 140 177
136 136 172
110 110 140
140 139 176
133 133 168
124 124 157
138 138 175
136 136 172
129 129 163
137 137 173
137 137 174
123 123 155
144 144 182
134 134 169
154 154 195
155 155 196
135 135 171
143 143 181
146 146 184
143 143 182
137 137 173
139 139 176
149 149 189
120 120 152
131 132 166
135 135 171
142 142 180
135 135 171
142 142 180
136 136 172
157 157 199
139 139 176
133 133 169
143 143 181
153 153 193
157 157 199
140 140 177
160 160 202
139 139 176
151 151 191
152 152 193
162 162 205
148 148 187
156 156 198
151 151 192
148 148 186
145 145 183
168 168 212
137 137 174
161 161 203
172 172 218
142 142 179
156 156 198
162 162 205
147 147 185
160 160 202
158 158 199
159 159 201
171 171 216
155 155 197
155 155 197
162 162 205
157 157 198
169 169 214
161 161 204
155 155 197
165 165 209
156 156 198
179 179 226
173 173 219
172 172 218
176 175 222
159 159 201
162 162 205
177 177 224
182 182 231
178 178 225
176 176 223
176 176 223
166 165 209
162 162 206
156 155 196
172 172 217
184 184 233
153 153 193
173 173 219
186 186 236
185 185 234
178 178 226
167 167 212
180 180 228
167 167 211
181 181 228
201 201 254
165 165 209
178 178 225
187 187 236
179 179 227
187 187 237
184 184 233
171 171 217
174 174 221
191 191 242
187 187 236
182 182 230
181 181 228
174 174 221
163 163 206
179 179 226
195 195 247
174 174 220
164 164 208
189 189 239
160 160 203
180 180 228
189 189 240
176 176 223
167 167 211
168 168 212
183 183 232
182 182 231
166 166 210
155 155 197
187 187 236
174 174 220
176 176 223
168 168 213
169 169 214
167 167 211
163 163 207
172 172 217
148 148 187
163 163 206
152 152 192
160 160 202
145 145 183
147 147 186
155 155 196
142 142 180
141 141 179
153 153 194
147 147 186
146 146 184
143 143 181
131 131 165
128 128 162
130 130 164
120 120 152
113 113 143
120 120 152
104 104 132
97 97 122
99 99 125
102 102 129
85 85 108
100 100 127
60 60 77
72 72 91
70 70 88
81 81 102
76 76 97
80 80 102
57 57 73
82 83 104
98 98 124
100 100 127
88 88 112
116 116 146
90 90 115
110 110 140
105 104 132
113 113 142
114 114 144
110 110 139
117 117 148
96 96 121
110 110 139
115 115 146
126 126 160
112 112 141
108 108 136
117 117 148
113 113 142
109 109 138
115 115 145
125 125 159
108 108 137
125 125 158
125 125 158
114 114 144
124 124 157
105 105 133
121 121 153
124 124 157
129 129 163
110 110 139
105 105 133
110 110 139
123 123 155
130 130 165
132 132 166
120 120 153
117 117 148
107 107 135
110 110 139
125 125 158
137 137 174
124 124 157
140 140 177
121 121 153
126 126 160
118 118 150
126 126 160
126 126 160
121 121 153
111 111 141
125 125 158
102 102 130
128 128 161
108 108 137
117 117 148
121 121 153
117 117 148
122 122 155
114 114 144
125 125 158
99 99 125
115 115 146
98 98 123
117 117 148
117 117 148
111 111 141
111 111 141
103 103 131
67 67 85
80 80 102
68 68 86
65 65 82
62 62 79
62 62 79
70 70 88
65 65 82
58 58 75
60 60 75
72 72 92
51 51 65
51 51 65
72 72 91
61 61 78
65 65 82
55 55 71
62 62 79
67 67 85
68 68 86
72 72 91
72 72 91
70 70 88
69 69 88
67 67 86
76 76 97
76 76 97
76 76 97
82 82 104
62 62 79
60 60 76
82 82 104
82 82 105
72 72 91
72 72 91
54 54 69
72 72 91
65 65 82
78 78 100
62 62 79
88 88 112
70 70 88
70 70 88
82 82 105
81 81 103
70 70 88
74 74 94
70 70 88
82 82 104
94 94 119
60 60 75
81 80 102
79 79 102
80 80 102
76 76 97
90 90 114
62 62 79
90 90 114
91 91 115
70 70 88
85 85 109
82 82 105
74 74 94
80 80 102
85 85 109
83 83 105
88 88 112
83 83 107
71 70 89
98 98 124
86 86 109
95 95 121
90 90 114
97 97 123
102 102 129
84 84 107
80 81 102
107 107 135
92 92 116
78 78 99
90 90 114
95 95 121
102 102 129
111 111 141
90 91 115
85 85 108
68 68 86
81 81 104
95 95 121
99 99 125
100 100 127
104 104 132
96 96 121
90 90 114
78 78 99
95 95 121
108 108 137
84 84 107
67 67 85
90 90 114
110 110 139
103 103 131
96 96 122
90 90 113
104 104 131
95 95 121
113 113 143
101 101 127
88 88 112
103 103 131
87 87 110
90 90 114
107 107 135
108 108 137
100 100 127
101 100 127
114 114 144
98 98 125
94 94 118
114 114 145
100 100 127
109 109 138
109 109 138
105 105 133
121 120 152
113 113 143
108 108 137
113 113 144
119 119 151
108 108 137
100 100 127
118 118 150
113 113 144
113 113 143
121 121 153
117 117 148
122 121 154
111 111 141
102 102 129
123 123 156
111 111 141
118 118 148
90 90 114
104 104 132
110 110 140
110 110 139
114 114 145
108 108 138
107 107 135
123 123 156
126 126 160
115 115 146
113 113 142
128 128 162
139 139 175
120 119 150
128 128 162
109 109 137
121 121 153
133 133 168
126 126 159
130 130 165
128 128 161
117 116 147
120 120 152
130 130 165
125 125 159
129 129 164
116 116 147
134 134 170
129 129 163
137 137 174
116 116 147
124 124 157
118 118 150
125 125 159
126 126 159
124 124 156
114 114 145
118 118 150
120 120 152
132 132 167
102 102 130
136 136 173
122 122 155
133 133 168
142 142 180
132 132 167
139 139 175
120 120 151
136 136 173
149 149 189
163 163 206
141 141 178
122 122 155
148 148 187
147 147 186
128 128 161
138 138 174
138 138 174
131 131 166
132 132 167
139 139 176
142 142 180
144 144 182
148 148 186
136 136 172
153 153 194
160 160 202
151 151 191
146 146 184
157 157 198
161 161 203
134 134 170
142 142 180
138 138 175
142 142 180
155 155 197
136 136 172
142 142 180
146 146 185
154 154 195
151 151 192
148 148 187
159 159 201
158 158 200
147 146 185
162 162 205
152 152 193
156 156 197
160 160 203
151 151 192
150 150 190
156 156 197
168 168 213
158 158 201
145 145 183
155 155 197
161 161 203
153 153 194
159 159 202
165 165 209
160 159 201
145 145 184
157 157 199
156 156 197
177 177 225
170 170 216
163 163 206
150 150 190
157 157 199
164 164 207
174 174 221
154 154 195
151 151 191
153 153 193
158 158 200
171 171 216
161 161 203
155 155 196
180 180 227
165 165 209
166 166 210
149 149 189
170 170 216
149 149 189
169 169 215
169 169 214
184 184 233
164 164 208
173 173 219
153 153 193
171 171 216
162 162 205
170 170 215
169 169 214
161 161 203
175 175 222
177 177 223
147 147 186
179 179 226
159 159 202
148 148 187
151 151 191
134 134 170
162 162 206
164 164 207
174 174 220
165 165 209
159 159 201
170 170 215
159 159 202
163 163 206
145 145 183
156 156 198
158 158 200
154 154 195
142 142 180
162 162 205
138 138 174
134 134 170
148 148 187
134 134 170
145 145 184
144 144 182
142 142 180
133 133 168
121 121 154
119 119 150
129 129 163
126 126 160
128 128 162
133 133 168
121 121 153
97 97 123
109 109 137
96 96 121
97 97 123
104 104 132
85 85 107
94 94 118
80 80 102
99 99 125
88 88 112
91 91 115
79 79 100
54 54 68
58 58 73
70 70 88
87 87 110
67 67 85
84 84 107
81 81 102
77 77 98
97 97 123
97 96 122
97 97 123
99 99 126
90 90 114
92 92 116
94 94 119
90 90 115
82 82 104
102 102 129
99 99 125
104 104 132
100 100 127
102 102 129
120 120 151
94 94 119
102 102 129
99 99 125
110 110 140
99 99 125
108 108 137
107 107 135
99 99 125
117 117 148
113 113 142
116 116 147
110 110 139
105 105 132
114 114 145
118 118 150
115 115 146
113 113 142
102 102 128
88 88 112
88 88 112
116 116 146
117 117 148
102 102 129
120 120 151
105 105 133
120 120 151
107 107 135
129 129 163
107 107 135
111 111 141
115 115 146
134 134 169
103 103 131
97 97 122
97 96 122
113 113 142
110 110 139
118 118 150
111 111 141
107 107 135
111 111 141
114 114 144
97 97 123
90 90 114
114 114 144
118 118 150
97 97 123
100 100 127
102 102 129
115 115 146
118 118 150
84 84 107
72 72 91
70 70 89
62 62 79
57 57 72
74 74 94
72 72 91
40 40 51
60 60 76
74 74 94
74 74 96
65 65 82
76 76 97
84 84 107
54 54 69
84 84 107
76 76 97
77 77 97
74 74 94
65 65 82
78 78 99
73 73 93
73 73 93
85 85 109
83 82 105
70 70 88
78 78 99
72 72 91
76 76 97
62 62 79
71 71 91
67 67 85
72 72 91
76 76 97
67 67 85
69 68 88
62 62 79
86 86 109
79 79 100
79 79 100
72 72 91
76 76 97
80 80 102
78 78 99
67 67 86
76 76 97
74 74 94
80 80 102
48 48 61
94 94 119
72 72 92
85 85 108
70 70 88
83 83 107
84 84 107
84 84 107
72 72 92
86 86 109
80 80 102
83 83 107
90 90 114
76 76 97
84 84 107
88 88 112
82 82 104
83 83 105
99 99 125
95 95 121
76 76 97
84 84 107
84 84 107
74 74 94
74 74 94
83 82 105
84 84 107
70 70 89
107 107 135
80 80 102
91 91 115
90 90 114
88 88 112
72 72 92
92 92 117
95 95 121
82 82 105
95 95 121
92 92 116
76 76 97
92 92 117
86 86 109
99 99 125
97 96 122
78 78 99
105 105 133
94 94 119
84 84 107
81 80 103
86 86 110
105 105 134
102 102 129
100 100 127
76 76 97
86 86 109
99 99 125
97 97 123
101 101 127
95 95 121
88 88 112
107 106 133
94 94 119
95 95 121
91 91 115
97 97 123
95 95 121
113 113 142
98 98 124
78 78 99
121 121 153
97 97 123
105 105 133
97 97 123
114 114 145
100 100 127
99 99 126
92 92 116
101 101 128
114 114 145
111 111 141
99 99 125
105 105 134
97 97 123
99 99 125
121 121 153
114 113 143
113 113 143
89 89 112
100 100 126
106 106 134
113 113 143
99 99 125
114 114 144
99 99 125
122 122 155
97 97 123
128 128 162
113 113 142
117 117 148
115 115 146
135 135 171
115 115 146
108 108 137
100 100 127
129 129 163
130 129 163
94 94 119
118 118 150
103 103 131
128 128 162
107 107 136
126 126 160
116 116 146
124 124 157
101 101 128
121 121 153
137 137 172
116 116 147
121 120 152
121 121 153
119 119 150
117 117 148
114 114 144
125 125 158
118 118 150
125 125 158
125 125 158
128 128 162
122 122 155
111 111 141
124 123 154
129 129 164
121 121 154
125 125 158
129 129 163
128 128 162
135 135 171
124 123 155
146 146 184
145 145 184
135 135 171
122 122 155
128 128 161
140 140 177
137 137 174
123 123 155
137 137 173
134 133 168
132 132 167
135 135 171
136 136 173
143 143 181
141 141 178
125 125 158
118 118 150
147 147 186
147 146 185
137 137 174
139 139 176
126 126 160
140 139 176
139 139 176
128 128 161
157 157 199
138 138 174
140 140 177
135 135 170
136 136 172
141 141 179
142 142 180
147 147 187
145 145 183
139 139 175
141 141 179
135 135 171
139 139 176
151 152 192
138 138 174
132 132 167
156 155 197
157 157 199
152 152 192
136 136 173
149 149 188
147 147 186
150 150 190
163 163 206
135 135 171
159 159 201
149 149 188
150 150 190
151 151 191
148 148 187
145 144 182
151 151 191
161 161 203
145 145 183
159 159 202
139 139 176
162 162 206
172 171 216
157 157 199
143 143 181
168 168 213
161 161 203
156 156 197
127 127 161
179 179 227
155 155 197
146 146 185
152 153 193
156 156 197
141 141 179
163 163 207
151 151 191
160 160 202
149 149 188
145 145 183
153 153 193
151 151 190
169 168 213
161 161 204
146 146 184
160 160 203
147 147 186
163 163 207
160 161 203
169 169 215
158 158 200
150 150 190
152 152 192
148 148 187
140 140 177
143 143 181
147 147 186
154 154 195
157 157 198
168 168 213
148 148 187
121 121 153
154 154 196
150 150 190
152 152 192
149 149 189
136 136 172
145 145 184
135 135 171
130 130 165
143 143 181
141 141 178
133 133 168
134 134 169
121 121 154
126 126 160
110 110 139
110 110 140
128 128 162
132 131 166
128 128 161
114 114 145
105 105 133
137 137 174
133 133 168
115 115 146
114 114 144
120 120 152
110 110 139
113 113 144
116 116 147
103 103 131
94 94 119
91 91 115
113 113 142
108 108 137
85 85 108
78 78 99
84 84 107
97 97 123
83 83 105
74 74 94
71 70 88
70 70 88
79 79 100
55 55 69
66 66 83
67 67 85
77 77 97
95 95 121
63 63 79
84 84 107
70 70 89
88 88 112
99 99 125
89 89 113
88 88 112
90 90 114
99 99 125
97 97 123
88 88 112
95 95 121
89 89 112
96 96 121
104 104 132
109 109 138
102 102 129
107 107 135
95 95 121
111 111 141
81 81 102
99 99 125
99 99 125
98 98 124
109 109 138
108 108 137
105 105 133
111 111 141
93 93 117
109 109 137
80 80 102
95 95 121
115 115 146
94 94 118
105 105 133
88 88 112
92 92 116
98 98 123
95 95 121
95 95 121
102 102 129
95 95 121
94 94 118
117 117 148
95 95 121
103 103 131
107 107 135
82 82 104
95 95 121
102 102 129
114 114 144
107 107 135
97 97 123
88 88 112
101 101 128
88 88 112
99 99 125
70 70 88
95 95 121
94 94 118
94 94 118
80 80 102
97 97 123
94 94 119
55 55 71
65 65 82
72 72 91
72 72 92
54 54 68
67 67 85
65 65 82
67 67 85
60 60 76
70 70 88
58 58 75
65 65 82
72 72 91
70 70 88
54 54 68
75 75 96
74 74 94
62 62 79
83 83 105
67 67 85
65 65 82
88 88 112
83 83 106
64 64 81
72 72 91
70 70 88
62 62 79
78 78 99
76 76 97
76 76 98
74 74 94
76 76 97
78 78 99
74 74 94
82 82 105
78 78 100
66 66 83
65 65 82
62 62 79
80 80 102
71 71 91
67 67 85
67 67 85
76 76 97
74 74 94
86 86 109
72 72 91
74 74 94
82 82 104
75 75 95
72 72 91
78 78 99
72 72 92
84 84 107
60 60 76
62 62 79
91 91 116
72 72 91
72 72 91
102 102 129
65 65 82
84 84 107
82 82 103
82 82 104
67 67 85
95 95 121
83 83 105
74 74 94
65 65 82
78 78 99
70 70 88
84 84 107
83 83 105
81 81 102
81 81 103
82 82 105
81 81 102
95 95 121
105 105 133
78 78 100
96 96 121
83 83 105
72 72 91
87 87 110
100 100 127
75 75 95
94 94 119
97 97 123
88 88 112
84 84 107
81 81 102
97 97 123
94 94 119
76 76 97
87 87 110
92 92 117
90 90 114
92 92 117
99 99 125
83 83 105
87 87 110
94 94 118
94 94 118
95 95 121
97 97 123
94 94 120
97 97 123
86 86 110
104 104 131
76 76 97
97 97 123
79 79 101
95 95 119
92 92 116
84 84 107
97 97 123
97 97 123
80 80 102
83 83 105
102 102 129
99 99 125
100 100 127
100 100 127
108 108 137
102 102 130
118 118 149
99 99 125
107 107 135
96 96 122
94 94 121
99 99 126
98 98 124
104 104 131
118 118 150
111 111 140
103 103 130
114 114 144
121 121 153
102 102 129
90 90 114
110 109 138
92 91 116
107 107 135
85 85 108
111 111 141
104 104 131
90 90 114
105 105 133
97 97 123
110 110 137
115 115 146
94 94 118
129 129 163
111 111 141
105 105 134
111 110 139
105 105 134
125 125 158
102 102 129
114 114 144
120 120 152
107 107 136
115 115 146
105 105 132
102 102 129
105 105 133
113 113 143
127 127 160
117 117 148
126 126 159
117 117 148
107 107 136
127 127 160
137 137 174
113 113 142
114 114 144
137 137 174
129 129 163
113 113 143
117 116 147
111 111 141
134 134 169
128 128 161
102 102 129
118 118 150
125 125 158
137 137 173
108 108 137
120 119 150
121 120 152
124 124 156
125 125 158
135 135 171
107 107 135
126 126 159
134 134 169
133 133 168
126 126 160
144 144 182
136 136 173
120 120 151
132 132 167
119 119 150
133 133 168
151 151 191
130 130 164
137 137 173
114 114 144
122 122 155
125 125 158
130 130 165
139 139 177
132 132 167
147 147 186
150 150 190
125 125 158
135 135 170
121 121 154
138 138 174
143 143 182
154 154 195
129 129 163
137 137 174
107 107 136
139 139 175
153 153 194
136 136 173
135 135 170
148 148 187
128 128 161
134 134 169
145 145 184
137 137 174
151 151 191
144 143 181
137 137 173
151 150 190
145 145 183
157 157 199
137 137 174
129 129 163
158 158 200
142 142 180
137 137 173
147 147 186
150 150 190
145 145 183
141 141 179
142 142 180
140 140 177
135 135 171
132 132 167
144 144 183
133 133 168
137 137 174
138 138 174
152 152 193
135 135 171
152 152 192
133 133 168
136 136 172
136 136 172
150 150 190
138 138 175
129 129 163
136 136 172
155 155 197
164 164 208
150 150 190
146 146 184
153 153 194
149 149 188
141 141 179
153 153 194
137 137 173
136 136 172
126 126 160
144 144 183
122 122 154
134 134 170
140 140 177
144 144 183
133 133 168
136 136 172
130 130 165
152 152 192
141 141 179
139 139 175
122 122 154
142 142 180
131 131 165
127 127 160
114 114 145
144 144 182
141 141 179
129 129 163
134 134 170
134 134 170
134 134 170
130 130 165
136 135 171
124 124 157
115 115 145
126 126 160
137 137 173
118 118 150
118 118 149
120 120 152
118 118 150
117 117 148
113 113 142
123 123 156
115 115 146
112 112 142
107 107 135
107 107 135
91 91 115
102 102 129
95 95 121
88 89 112
84 84 107
108 108 136
96 96 121
100 100 126
104 104 132
92 92 117
82 82 104
90 90 115
102 102 129
72 72 91
69 69 88
76 76 97
100 100 127
68 68 86
57 57 72
76 76 97
60 60 76
66 66 84
72 72 91
70 70 89
79 79 100
80 80 102
85 85 108
80 80 102
62 62 79
62 62 79
84 84 107
82 82 104
84 84 107
83 83 105
92 92 117
85 85 108
97 97 123
90 90 114
95 95 121
90 90 114
87 87 110
94 94 119
95 95 121
96 96 121
101 101 128
94 94 119
95 95 121
97 97 123
94 94 118
98 98 125
110 110 139
91 91 114
84 84 107
92 92 116
102 102 129
101 101 127
94 94 118
95 95 119
103 103 131
94 94 119
100 100 127
90 90 115
97 97 123
85 85 108
90 90 114
115 115 146
88 88 112
100 100 127
104 103 131
97 97 123
95 95 121
94 94 119
82 82 104
88 88 112
110 110 139
94 94 118
92 92 116
84 84 107
90 90 114
94 94 118
102 102 129
95 95 121
102 102 129
90 90 114
54 54 68
57 57 72
74 74 94
65 65 82
51 51 65
70 70 88
65 65 82
62 62 79
63 63 80
72 72 91
78 78 101
75 75 95
57 57 72
74 74 94
70 70 88
78 78 99
81 80 102
82 82 104
74 74 94
66 66 83
62 62 79
72 72 91
72 72 91
66 66 85
70 70 88
64 64 82
72 72 91
70 70 88
80 80 102
40 40 51
62 62 79
90 90 114
74 74 94
74 74 95
72 72 91
65 65 82
54 54 69
80 80 102
65 65 82
74 74 94
83 83 107
77 77 97
70 70 89
76 76 97
78 78 99
74 74 94
67 67 85
94 94 118
66 66 84
87 87 111
80 80 102
95 95 121
70 70 88
75 75 96
81 81 103
77 77 98
65 65 82
70 70 88
85 85 107
82 82 105
82 82 105
94 94 119
72 72 91
99 99 126
90 90 114
80 80 102
80 79 102
97 97 123
82 82 104
88 88 112
80 80 102
84 84 107
77 77 97
83 83 106
79 79 100
80 80 102
99 99 125
86 86 109
80 80 102
70 70 88
84 84 107
72 72 91
76 76 97
95 95 121
90 90 114
82 82 105
81 81 104
74 74 94
88 88 112
74 74 94
90 90 115
91 91 116
82 82 104
94 94 119
97 97 121
82 82 104
92 92 117
76 76 97
75 75 95
88 88 112
82 82 105
74 74 94
96 96 121
102 102 129
94 94 119
82 82 104
81 81 102
102 102 129
74 74 94
112 112 141
92 92 116
92 92 117
85 85 108
95 95 121
95 95 121
94 94 118
82 82 104
97 97 123
92 92 116
111 111 141
86 86 109
98 99 125
107 107 136
113 113 142
87 87 110
92 92 117
88 88 112
95 95 119
93 93 117
86 86 109
97 97 123
97 97 123
107 107 135
102 102 129
118 118 150
99 99 126
97 97 123
110 110 139
105 104 132
100 100 127
84 84 107
104 104 131
107 107 136
104 104 131
102 102 129
81 81 102
100 100 126
108 108 137
95 95 121
124 124 157
119 119 151
113 113 143
103 102 129
107 107 135
99 99 125
110 110 139
101 101 127
108 108 137
120 120 151
121 121 153
107 107 136
105 104 132
117 117 149
107 107 135
118 118 150
120 120 152
117 117 148
107 107 136
125 125 158
118 118 149
124 124 157
120 120 152
112 111 140
107 107 135
105 105 133
125 124 157
110 110 140
118 118 150
121 121 153
131 131 166
129 129 163
120 120 152
115 115 146
94 94 119
120 120 151
99 99 125
121 121 153
108 108 137
133 133 168
115 115 146
113 113 143
133 133 168
119 119 150
116 116 147
111 111 141
119 119 150
128 128 162
133 133 168
123 123 155
133 133 168
121 121 153
108 108 136
137 137 173
128 128 162
121 121 153
105 105 133
139 139 176
120 120 152
107 107 135
131 131 165
128 128 162
129 129 163
126 126 160
124 124 157
129 129 163
140 140 177
126 126 159
113 113 143
137 137 174
136 136 173
135 135 171
122 122 155
139 139 175
133 132 167
129 129 163
128 128 162
124 123 156
122 122 155
134 134 170
128 128 161
124 124 157
118 118 150
135 135 171
122 122 155
131 131 165
142 142 180
144 144 183
142 142 180
121 121 153
141 141 178
129 129 163
132 132 168
135 135 171
129 129 164
118 118 150
125 125 159
142 142 180
146 146 185
139 139 176
147 146 185
128 127 161
138 138 174
142 142 180
138 138 174
151 151 191
143 143 181
142 142 180
139 139 176
139 139 175
130 130 165
145 145 183
124 124 156
133 133 168
145 145 184
126 126 160
136 136 173
141 141 179
150 150 190
147 147 186
149 149 188
149 149 189
129 129 163
141 141 178
140 140 177
144 144 182
129 129 163
145 145 183
133 133 168
120 120 153
142 142 180
121 121 154
140 140 177
124 123 155
128 128 162
134 134 169
129 129 163
114 114 145
134 134 170
131 131 166
117 117 148
130 130 165
129 129 164
129 129 164
117 117 149
133 133 168
126 126 159
107 107 135
128 128 162
126 126 160
126 126 160
116 116 146
121 121 154
110 110 140
102 102 129
114 114 144
116 116 147
114 114 145
115 115 146
106 106 134
121 121 153
114 113 144
108 108 137
101 101 128
109 109 138
100 100 127
103 103 131
95 95 121
104 104 131
111 111 141
113 113 143
102 102 129
95 95 120
91 91 115
78 78 99
82 82 104
78 78 99
76 76 97
95 95 121
93 93 117
79 79 100
74 74 94
68 68 86
79 79 100
81 81 102
72 72 91
74 74 94
62 61 77
57 57 73
60 60 75
65 65 83
60 60 75
54 54 68
70 70 88
70 70 89
72 72 91
83 83 105
69 69 87
72 72 91
66 66 83
81 81 103
74 74 94
72 72 91
85 85 108
74 74 94
89 89 113
79 79 100
74 74 94
85 85 107
76 76 97
82 82 104
81 81 102
95 95 121
88 88 112
78 78 99
78 78 99
91 91 115
92 92 116
90 90 114
95 95 121
88 88 111
99 99 125
86 85 108
97 97 123
99 99 125
86 86 109
86 86 109
90 90 114
88 88 112
85 85 107
86 86 109
73 73 92
74 74 94
90 90 114
81 81 102
76 76 97
90 90 114
68 68 86
78 78 99
92 92 116
105 105 133
72 72 91
84 84 107
89 89 113
97 97 123
76 76 97
88 88 112
99 99 125
88 88 112
92 92 116
94 94 118
67 67 85
60 60 75
77 77 97
67 67 85
60 60 75
65 65 82
78 78 99
65 65 82
76 76 97
70 70 88
74 74 94
60 60 76
57 57 72
60 60 76
76 76 97
76 76 97
72 72 91
72 72 91
72 72 92
47 47 60
57 57 73
67 67 85
74 74 94
54 54 68
65 65 82
72 72 91
80 80 102
72 72 93
74 74 94
76 76 97
57 57 72
80 80 103
78 78 99
68 68 86
62 62 79
67 67 85
67 67 85
57 57 72
72 72 92
70 70 88
65 65 82
65 65 82
65 65 82
84 84 107
74 74 94
76 76 95
72 72 91
70 70 89
76 76 97
62 62 79
79 79 100
76 76 97
84 84 107
82 82 104
70 70 89
82 82 104
74 74 94
78 78 100
70 70 88
78 78 99
94 94 118
65 65 82
67 67 85
80 80 102
94 94 118
74 74 94
79 79 101
78 78 100
72 72 91
88 88 112
92 92 117
88 88 112
82 82 104
65 65 82
80 80 102
72 72 90
85 85 107
65 65 82
70 70 88
81 81 102
70 70 88
95 95 121
80 80 102
88 88 112
107 107 135
76 76 97
92 92 116
65 65 82
78 78 99
80 80 100
81 81 103
81 81 103
84 84 107
94 94 119
84 84 107
82 82 105
90 90 114
95 95 121
82 82 104
94 94 118
93 93 117
80 80 102
84 84 107
105 105 133
78 78 98
94 94 119
84 84 107
89 89 114
100 100 127
90 90 114
88 88 112
105 105 133
94 94 118
95 95 121
70 70 88
94 94 118
94 94 118
92 92 117
90 90 114
113 113 143
88 88 112
86 86 110
95 95 121
83 82 103
90 90 114
87 87 110
105 105 134
95 95 121
95 95 119
111 111 141
75 75 94
107 107 136
90 90 114
106 106 133
105 105 132
85 85 107
94 94 119
92 92 116
113 113 143
92 92 117
107 107 135
100 100 127
105 105 133
111 111 141
92 92 117
105 105 133
107 107 135
111 111 141
99 99 125
102 102 129
111 111 141
102 102 129
96 96 122
128 128 162
97 97 123
102 102 129
92 92 116
92 92 116
91 91 115
113 113 143
101 101 127
92 92 116
111 111 141
111 111 141
92 92 116
120 120 152
102 102 129
104 104 132
118 118 150
113 113 143
125 125 158
111 111 141
111 111 141
113 113 143
110 110 139
114 114 144
118 118 150
113 113 142
114 114 142
111 111 140
110 110 139
97 97 123
107 107 135
108 108 137
103 103 130
114 114 145
113 113 143
117 117 147
107 107 135
117 117 148
117 117 148
120 120 152
120 120 151
91 91 115
114 114 144
117 117 148
115 115 146
104 104 131
113 113 143
122 122 154
124 124 157
119 119 150
105 105 133
104 104 132
122 122 155
111 111 140
115 114 145
109 109 138
117 117 148
131 131 166
121 121 153
134 134 169
105 105 133
130 130 165
104 104 131
125 125 158
130 130 165
124 124 156
118 118 149
129 129 163
139 139 175
129 129 163
139 139 175
115 115 146
143 143 181
128 128 161
145 145 183
125 125 158
134 134 170
138 138 174
117 117 148
114 114 143
118 118 150
111 111 141
145 145 183
130 130 165
123 123 155
133 133 168
117 117 148
118 118 149
129 128 162
124 124 157
130 130 165
136 136 172
133 133 168
122 122 154
126 126 159
128 128 161
132 132 167
134 134 169
138 138 174
135 135 171
114 114 144
139 139 176
127 127 160
136 136 172
120 120 152
112 112 142
126 126 160
113 113 143
121 121 153
130 130 165
145 145 183
126 126 160
118 118 150
131 131 166
134 134 169
125 125 158
131 130 165
130 129 164
120 120 151
140 140 177
107 107 135
122 122 155
131 131 165
117 117 148
122 122 155
133 133 168
122 122 155
115 115 145
132 132 167
126 126 160
117 117 148
116 116 147
125 125 158
133 133 168
115 115 146
129 129 163
122 122 155
118 118 150
125 125 158
111 111 141
126 126 160
116 116 146
120 120 151
128 128 162
120 120 151
103 103 131
105 105 133
126 126 160
121 121 153
105 105 133
102 102 129
107 107 135
118 118 150
92 92 117
102 102 129
102 102 129
94 94 119
94 94 119
108 108 137
94 94 118
111 111 141
96 96 121
114 114 145
88 88 112
102 102 129
99 99 125
110 110 139
88 88 112
97 97 123
90 90 113
78 78 99
102 102 129
95 95 120
87 87 111
97 97 123
74 74 94
84 84 107
78 78 100
80 80 102
70 70 89
74 74 94
81 81 103
68 68 86
79 78 100
72 72 91
54 54 68
70 70 88
70 70 88
67 67 85
68 68 86
61 61 78
47 47 60
55 55 69
51 51 64
62 62 79
52 52 66
72 72 91
92 92 116
57 57 72
67 67 85
62 62 79
85 85 107
70 70 88
65 65 82
62 62 79
76 76 97
67 67 85
68 68 86
77 77 97
77 77 98
83 83 105
78 78 99
75 75 95
65 65 82
72 72 91
72 72 92
76 76 97
76 76 97
83 83 105
76 76 97
76 76 97
85 85 108
96 96 121
84 85 107
81 81 102
98 98 123
89 89 112
77 77 98
88 88 112
82 82 104
67 67 85
67 67 85
74 74 94
94 94 118
90 90 114
97 97 123
62 62 79
80 80 102
74 74 94
90 90 114
84 84 107
92 92 116
74 74 94
83 83 105
77 77 97
80 80 102
60 60 75
80 80 102
65 65 82
67 67 85
60 60 75
60 60 76
47 47 60
78 78 99
62 62 79
54 54 68
74 74 94
76 76 97
61 61 78
81 81 103
76 76 97
65 65 82
78 78 99
62 62 79
57 57 73
91 91 116
65 65 83
70 70 88
70 70 88
62 61 77
70 70 88
74 74 94
76 76 97
74 74 94
54 54 68
82 82 104
78 78 99
70 70 88
76 76 97
82 82 104
70 71 89
66 66 85
72 72 91
72 72 91
74 74 94
65 64 80
62 62 79
78 78 99
70 70 88
60 60 75
60 60 76
80 80 102
76 76 97
63 63 80
73 73 92
74 74 94
67 67 85
72 72 91
84 84 107
63 63 80
84 84 107
77 77 99
78 78 99
82 82 104
86 86 111
62 62 79
57 57 72
74 74 94
88 88 112
74 74 94
72 72 91
65 65 82
68 68 86
81 81 103
76 76 97
74 74 94
86 86 109
86 86 110
82 82 105
74 74 94
72 72 91
85 85 107
72 72 91
67 67 85
84 84 107
81 81 102
86 86 109
82 82 104
90 90 114
72 72 91
82 82 104
76 76 97
86 87 109
90 90 114
88 88 112
60 60 75
82 82 104
78 78 99
78 78 99
82 82 104
80 80 102
76 76 97
80 80 102
97 97 123
86 86 109
80 80 102
68 68 86
86 86 109
84 84 107
83 83 105
89 89 113
74 74 94
91 91 115
85 85 107
87 87 110
95 95 121
102 102 129
96 96 121
89 89 112
107 107 135
79 79 100
105 105 134
88 88 112
95 95 121
84 84 107
108 108 137
74 74 94
96 96 121
76 76 97
85 85 107
92 92 117
92 92 116
78 78 100
88 88 112
92 92 116
94 94 119
92 92 116
84 84 107
110 110 139
96 96 122
81 81 103
99 99 125
114 114 145
92 92 116
104 104 132
108 108 137
98 98 125
92 92 116
102 102 130
104 104 132
103 103 131
90 90 114
114 114 144
114 114 144
102 102 129
105 105 134
111 111 141
108 108 137
107 107 135
90 90 113
91 91 115
97 97 123
111 111 141
114 114 144
115 115 146
100 100 126
100 100 127
92 92 117
107 107 136
99 99 125
105 105 133
100 100 127
110 110 139
116 116 146
96 96 121
85 85 107
108 108 137
103 103 131
102 102 129
102 102 129
116 116 146
101 101 127
104 104 131
105 105 133
98 98 124
120 120 151
113 113 143
90 90 115
108 108 136
94 94 118
100 100 127
115 115 145
98 98 124
107 107 135
111 111 141
101 101 127
123 123 155
114 114 144
97 97 123
107 107 135
117 117 148
100 100 128
101 101 128
111 111 141
134 134 170
90 90 114
108 108 137
117 116 147
129 129 163
107 107 134
107 107 135
109 109 138
128 128 161
110 110 139
120 120 151
120 120 152
118 118 150
118 118 150
109 109 138
113 113 143
114 114 145
124 123 155
128 128 161
117 117 149
132 132 167
118 118 150
112 112 142
110 110 139
108 108 137
117 117 148
130 130 165
122 122 155
136 136 173
116 116 147
113 113 143
114 114 144
133 133 168
133 133 168
117 117 148
117 117 148
127 127 161
122 122 155
115 115 146
110 110 139
140 140 177
131 131 165
125 125 158
113 113 143
126 126 159
107 107 135
129 129 163
129 129 163
125 125 158
116 116 146
132 132 166
136 136 173
126 126 160
124 124 157
114 114 144
121 121 153
125 125 158
114 114 144
135 135 171
120 120 151
114 114 144
113 113 143
128 128 162
125 125 158
117 117 148
110 110 139
133 133 168
137 137 174
128 128 162
125 125 158
118 118 150
134 134 169
125 125 158
124 124 158
125 125 159
124 124 156
110 110 140
121 121 154
122 122 155
120 120 152
104 104 131
120 120 151
120 120 151
115 115 146
121 121 154
118 118 150
117 117 148
119 119 150
121 121 153
125 125 159
110 110 140
105 105 133
95 95 121
101 101 128
97 97 123
120 120 151
114 114 144
122 122 155
107 107 136
121 121 153
117 117 148
108 108 137
102 102 130
114 114 144
107 107 135
97 97 124
122 122 155
120 120 152
90 90 114
108 108 137
90 90 114
96 96 121
90 90 114
94 94 119
113 113 143
106 106 134
74 74 94
88 88 111
110 110 139
94 94 119
97 97 123
92 92 117
95 95 121
84 84 107
91 91 115
92 92 116
90 90 114
81 81 103
78 78 99
72 72 91
74 74 95
105 105 133
89 88 111
67 67 85
94 94 119
65 65 82
67 67 85
65 65 83
58 58 73
82 82 104
70 70 89
65 65 82
51 51 64
62 62 79
65 65 82
62 62 79
72 72 92
60 60 76
62 62 79
60 60 75
67 67 85
51 51 64
51 51 65
57 57 72
54 54 68
54 54 68
75 75 95
57 57 72
63 63 80
82 82 104
63 63 80
58 58 73
65 65 82
70 70 88
75 75 95
60 60 75
82 82 104
74 74 94
70 70 88
80 80 102
84 84 107
78 78 99
74 74 94
92 92 116
94 94 119
70 70 88
85 85 108
76 76 97
101 101 127
61 61 77
85 85 107
67 67 85
73 72 91
65 65 82
79 79 100
65 65 82
88 88 112
68 68 86
75 75 95
67 67 85
75 75 95
82 82 104
82 82 104
74 74 94
82 82 105
78 78 99
81 81 103
72 72 91
70 70 88
78 78 99
74 74 94
81 81 103
80 80 102
86 86 109
72 72 91
76 76 95
54 54 68
57 57 72
70 70 88
57 57 72
67 67 85
62 62 79
54 54 68
65 65 82
67 67 85
54 54 68
36 36 45
61 61 78
57 57 72
74 74 94
67 67 85
62 62 79
67 67 85
58 58 75
67 67 85
70 70 88
78 78 99
81 81 102
65 65 83
62 62 79
54 54 68
70 70 88
76 76 97
65 65 82
64 63 81
74 74 94
76 76 97
72 72 91
65 65 82
80 80 102
70 70 88
47 45 57
51 51 64
75 75 95
60 60 75
62 62 79
58 58 73
67 67 86
82 82 104
94 94 119
82 82 104
68 68 88
72 72 91
72 72 91
62 62 79
67 67 85
60 60 75
100 100 127
83 83 106
74 74 94
63 63 80
86 86 110
79 79 101
67 67 85
98 98 124
70 70 88
78 78 99
76 76 97
72 72 91
78 78 99
80 80 102
72 72 91
87 87 109
62 62 79
90 90 114
70 70 88
82 82 104
87 87 109
65 65 82
80 80 102
76 76 97
70 70 88
76 76 97
84 84 107
81 81 102
78 78 100
92 92 116
76 76 97
78 78 99
79 79 100
78 78 99
80 80 102
82 82 105
80 80 102
72 72 91
90 90 114
97 97 123
84 85 107
80 80 102
82 82 104
78 79 100
86 86 109
84 84 107
68 68 88
97 97 123
81 81 103
79 79 100
80 80 102
88 88 112
95 95 121
92 92 116
87 87 110
91 91 115
70 70 89
76 76 97
99 99 125
90 90 114
90 90 114
65 65 83
84 84 107
79 79 99
97 97 123
87 86 110
70 70 89
95 95 121
65 65 82
92 92 116
86 86 109
76 76 97
80 80 102
72 72 91
88 88 112
84 84 107
97 97 123
99 99 125
95 95 121
100 100 127
100 100 127
101 101 127
91 91 115
94 94 119
114 114 144
100 100 127
110 110 139
103 103 131
93 93 118
99 99 125
88 88 112
99 99 125
103 103 130
90 90 114
108 108 137
92 92 116
84 84 107
97 97 123
100 100 127
103 103 130
100 100 127
99 99 125
88 88 112
101 101 128
82 82 105
99 99 126
110 110 139
107 107 135
84 84 107
107 107 135
108 108 136
91 91 115
97 97 123
110 110 139
112 112 141
88 88 112
103 103 131
107 107 135
95 95 121
103 103 131
113 113 143
111 111 141
110 110 139
108 108 137
110 110 139
110 110 139
116 116 146
95 95 121
107 107 135
94 94 119
107 107 135
113 113 142
87 87 111
110 110 139
103 102 129
100 100 127
116 116 146
102 102 129
105 105 133
92 92 117
108 108 137
124 124 156
114 114 144
110 110 139
131 131 166
104 104 132
105 105 134
97 97 124
120 120 151
91 91 115
95 95 121
120 120 152
102 102 129
120 120 151
109 108 137
113 113 143
116 116 147
113 113 143
120 120 151
95 95 121
108 108 137
104 104 132
107 107 135
105 105 134
102 102 129
118 118 150
130 130 165
117 117 148
107 107 135
105 105 133
114 114 144
119 119 150
130 130 165
113 113 143
123 123 155
113 113 143
124 124 157
108 108 137
122 123 155
121 121 153
113 113 143
111 111 141
133 133 168
95 95 121
120 120 152
114 114 145
115 115 146
126 126 159
122 122 155
126 126 159
116 116 147
120 120 151
116 116 147
124 124 156
99 99 126
126 126 160
114 114 144
111 111 141
118 118 150
111 111 141
124 124 157
126 126 160
121 121 153
118 118 150
107 107 135
128 128 161
113 113 142
113 113 143
110 110 139
117 117 148
125 125 158
118 118 149
127 126 160
117 117 148
114 114 145
136 136 172
114 114 144
109 109 138
121 121 153
102 102 129
113 113 142
110 110 139
103 103 131
113 113 142
121 121 153
100 100 127
120 120 151
116 116 146
118 118 150
119 119 151
99 99 125
117 117 148
97 97 122
118 118 150
117 117 148
94 94 119
111 111 141
105 105 133
110 110 139
99 99 126
116 116 147
128 128 161
94 94 119
90 90 114
92 92 116
107 107 135
101 101 127
102 102 129
99 99 125
108 108 137
92 92 116
104 104 131
113 113 143
105 105 133
107 107 136
97 97 123
84 84 107
100 100 127
96 96 121
97 97 123
116 116 146
95 95 121
82 82 104
102 102 128
90 90 114
72 72 91
91 91 115
92 92 117
88 88 112
93 93 118
81 81 103
85 85 107
79 79 100
92 92 117
74 74 94
99 99 125
75 75 95
61 61 77
65 65 83
90 90 114
81 80 101
67 67 85
74 74 94
85 85 107
62 62 79
61 61 77
62 62 79
63 63 80
62 62 79
65 65 82
79 79 100
84 84 107
51 51 64
51 51 64
47 47 60
54 54 68
60 60 76
60 60 75
46 46 59
58 58 74
70 70 88
48 48 61
51 51 64
50 50 62
60 60 76
62 62 79
70 70 88
70 70 88
57 57 72
54 54 68
60 60 75
78 78 99
67 67 85
67 67 85
58 57 72
70 70 88
72 72 92
76 76 97
80 80 102
68 68 86
72 72 91
80 80 102
79 80 101
74 74 94
57 57 72
70 70 88
70 70 89
62 62 79
70 70 88
57 57 73
70 70 88
57 57 72
76 76 97
80 80 102
68 68 86
80 80 102
84 84 107
67 68 85
76 76 97
61 61 77
72 72 91
79 79 100
76 76 97
68 68 86
65 65 82
68 68 86
72 72 91
60 60 76
62 62 79
54 54 68
54 54 68
65 65 82
57 57 72
60 60 76
71 71 91
80 80 102
57 57 72
40 40 51
51 51 65
54 54 69
57 57 72
67 67 86
70 70 89
63 63 80
60 60 76
52 52 68
62 62 79
70 70 88
60 60 76
62 62 79
67 67 85
55 55 71
65 65 83
84 84 107
47 47 60
62 62 79
70 70 88
67 67 85
65 65 82
70 70 88
76 76 97
40 40 51
78 78 99
80 80 102
57 57 72
62 62 79
70 70 88
64 64 82
70 70 88
62 62 79
80 80 102
78 78 99
67 67 85
60 60 76
52 52 65
72 72 91
76 76 97
72 72 91
60 60 75
64 64 82
52 52 65
54 54 68
86 86 109
75 75 94
74 74 94
86 86 109
80 80 102
70 70 88
70 70 88
65 65 82
70 70 89
77 77 97
78 78 99
74 74 94
76 76 97
84 84 107
70 70 88
78 78 99
80 80 102
88 88 112
67 67 85
67 67 85
74 74 94
65 65 82
74 74 94
87 87 110
84 84 106
78 78 99
76 76 97
79 79 100
78 78 99
72 72 91
82 82 104
99 99 125
65 65 82
84 84 107
88 88 112
86 86 109
78 78 99
63 63 80
74 74 94
82 82 104
90 90 114
74 74 94
76 76 97
78 78 99
102 102 129
81 81 104
94 94 118
76 76 97
80 80 102
90 90 114
88 88 112
90 90 114
90 90 114
107 107 135
86 86 109
90 90 114
88 88 112
84 84 107
92 92 116
70 70 88
94 94 119
72 72 92
83 83 106
88 88 112
92 92 117
96 96 122
80 80 101
90 90 114
95 95 121
80 80 102
88 88 112
94 94 118
92 92 116
78 78 99
86 86 109
100 100 126
102 102 129
76 76 97
104 104 131
97 97 123
74 74 94
66 66 83
88 87 110
95 95 121
90 90 114
90 90 114
106 106 134
72 72 90
90 90 114
87 87 110
86 86 109
110 110 139
100 100 127
97 97 123
86 86 109
92 92 117
88 88 112
104 104 132
94 94 119
89 89 113
95 95 121
103 103 131
102 102 129
87 87 110
107 107 136
90 89 113
88 88 112
97 97 123
104 103 131
110 110 139
108 108 137
92 92 116
90 90 114
100 100 127
92 92 116
88 88 112
88 88 112
102 102 129
110 110 139
113 113 143
92 92 117
92 92 115
103 103 131
77 77 98
113 113 143
84 84 107
107 107 135
107 107 135
105 105 133
88 88 112
99 99 125
99 99 125
99 98 124
100 100 127
102 102 129
110 110 139
97 97 123
100 99 125
92 92 116
120 120 151
110 110 139
107 107 135
110 110 139
88 88 112
115 115 146
110 109 138
97 97 123
103 103 131
80 80 102
107 107 135
100 99 126
111 111 141
125 125 158
125 125 158
102 102 129
101 101 128
101 101 127
110 110 139
111 111 141
101 101 127
105 105 133
113 113 143
102 102 129
111 111 141
111 111 141
107 107 135
114 114 145
107 107 135
99 99 125
108 108 137
100 100 127
107 107 135
125 124 157
117 117 148
113 113 142
113 113 142
99 99 126
118 118 150
111 111 140
110 110 139
115 115 146
92 92 117
108 108 137
110 110 139
111 111 141
103 103 131
123 123 155
130 130 165
117 117 148
104 103 131
110 110 140
114 114 145
124 124 157
110 110 139
122 122 155
121 121 154
104 104 131
109 109 138
112 112 142
107 107 135
129 128 162
103 103 131
118 118 150
121 121 153
95 95 121
120 120 152
128 128 161
125 125 158
105 105 133
108 108 137
105 105 133
117 117 148
108 108 137
122 122 154
117 117 148
107 107 135
114 114 144
122 122 155
108 108 137
114 114 144
102 102 130
115 115 146
125 125 158
111 111 140
88 88 112
97 97 123
110 110 139
118 118 150
105 105 133
108 108 137
90 90 115
108 108 137
108 108 137
99 99 125
100 100 127
101 101 128
103 103 131
103 103 130
100 100 127
92 92 116
94 94 118
90 90 114
83 83 105
108 108 137
92 92 116
110 110 139
102 102 129
103 103 131
94 94 118
100 100 127
94 94 119
88 88 112
105 105 133
95 95 121
89 89 113
99 99 125
100 100 126
103 103 131
90 90 114
78 78 99
84 84 107
78 78 99
92 92 116
95 95 121
89 89 113
83 82 103
90 90 115
83 83 105
78 78 99
96 96 121
95 95 121
90 90 114
70 70 89
103 103 131
86 86 109
70 70 88
86 86 109
77 77 97
62 62 79
77 77 97
67 67 85
66 66 83
77 76 95
86 86 109
70 70 88
65 65 82
65 65 82
65 65 82
75 75 95
67 67 85
62 62 79
57 57 72
63 63 81
51 51 64
54 54 68
47 47 60
47 47 60
60 60 76
47 47 60
37 37 47
44 44 56
52 52 67
37 37 48
48 48 60
51 51 64
65 65 82
67 67 85
44 44 56
54 54 69
57 57 73
72 72 91
62 62 79
67 67 85
70 70 88
62 62 79
58 58 74
51 51 65
60 60 76
70 70 88
51 51 64
60 60 75
47 47 60
57 57 72
75 74 95
65 65 83
60 60 76
72 72 92
76 76 97
82 82 104
52 52 65
64 64 80
82 82 104
72 72 91
97 97 123
70 70 88
70 70 88
72 72 91
83 83 105
70 70 88
60 60 76
70 70 88
72 72 91
72 72 92
70 70 88
62 62 79
62 62 79
70 70 88
51 51 65
48 47 60
73 73 92
54 54 68
62 62 79
67 67 85
78 78 99
72 72 91
64 63 81
57 57 72
52 52 68
60 60 76
57 57 72
51 51 64
74 74 94
60 60 76
57 57 72
62 62 77
62 62 79
76 76 95
60 60 75
60 60 76
72 72 91
60 60 76
70 70 88
72 72 91
70 70 89
74 74 94
65 65 82
80 80 102
60 60 75
84 84 107
80 80 100
62 62 79
57 57 73
70 70 88
65 65 82
71 71 91
68 68 86
47 47 60
70 70 88
61 61 78
75 75 95
68 68 88
62 62 79
67 67 85
75 75 95
67 67 85
70 70 88
65 65 82
81 81 103
76 76 97
72 72 92
67 67 85
74 74 94
84 84 107
74 74 94
74 74 94
62 62 79
72 72 91
81 81 102
62 62 79
90 90 114
72 72 91
74 74 94
72 72 91
85 85 107
74 74 94
60 60 75
74 74 94
83 83 105
76 76 97
76 76 97
76 76 97
70 70 89
82 82 105
74 74 94
86 86 109
76 76 97
84 84 107
80 80 102
96 96 122
70 70 88
81 80 101
74 74 94
74 74 94
75 75 95
74 74 94
62 62 79
90 90 114
85 85 107
80 80 102
76 76 97
76 76 97
78 78 99
79 79 100
80 80 102
79 79 99
84 84 107
80 79 100
90 90 114
88 88 112
86 86 109
78 78 99
80 79 100
84 84 107
76 76 97
82 82 104
80 80 102
83 83 105
80 80 102
74 74 94
78 78 99
80 80 102
75 75 96
76 76 97
85 85 108
80 80 102
90 90 114
87 87 110
99 99 125
84 84 107
108 108 137
97 97 123
84 84 107
86 86 109
92 92 116
74 74 94
70 70 88
85 84 107
77 77 97
82 82 104
82 82 104
80 80 102
81 81 102
92 92 116
87 87 110
88 88 112
90 90 115
72 72 91
76 76 97
86 86 110
86 86 109
108 108 137
95 96 121
86 86 109
76 76 97
90 90 114
82 82 104
106 106 133
102 102 129
90 90 115
80 80 102
80 80 102
84 84 107
105 104 132
107 107 135
78 78 100
97 97 123
94 94 119
102 102 130
95 95 121
92 92 115
86 86 109
100 100 127
95 95 121
90 90 114
88 88 112
86 86 109
95 95 121
97 96 121
95 95 121
105 105 133
87 87 110
100 100 127
92 92 116
98 98 124
94 94 119
96 96 121
90 90 114
100 100 127
81 81 103
102 102 129
90 90 114
107 107 135
107 107 135
89 89 112
107 107 135
124 124 156
107 107 135
110 110 139
94 94 118
108 108 136
111 111 141
94 94 119
103 103 131
109 109 138
88 88 112
102 102 129
113 113 142
101 101 128
82 82 105
97 97 123
98 98 124
92 92 116
97 97 124
105 105 134
96 96 122
102 102 129
111 111 141
80 80 100
105 105 133
97 97 123
104 104 131
96 96 121
110 110 139
99 99 125
108 108 137
102 102 129
107 107 135
105 105 132
113 113 143
111 111 141
90 90 115
92 92 116
97 97 123
110 110 139
100 100 127
82 82 104
97 97 123
115 115 146
108 108 137
94 94 117
102 102 129
103 103 129
102 102 129
108 108 137
97 97 123
120 120 151
95 95 121
94 94 119
99 99 125
110 110 139
111 111 141
99 99 125
90 90 114
113 113 143
105 105 133
103 103 131
105 105 132
111 111 141
110 110 139
102 102 129
97 97 123
108 107 136
108 108 137
92 92 116
110 110 139
88 88 112
113 113 143
124 124 156
110 110 139
101 101 127
117 117 148
103 103 130
113 113 142
117 117 149
94 94 119
107 107 135
99 99 125
86 86 109
113 112 141
84 84 107
88 88 112
100 100 127
88 88 112
97 97 123
112 112 141
120 120 151
105 105 133
88 88 112
105 105 133
84 84 106
110 110 140
108 108 137
101 101 127
107 107 135
94 94 118
80 80 102
108 108 137
105 105 133
99 99 125
100 100 127
102 102 129
98 97 123
107 107 135
89 89 113
109 109 138
110 110 139
99 99 125
89 89 113
81 81 103
99 99 125
95 95 120
108 108 137
93 92 114
83 83 105
75 75 95
98 98 125
87 87 110
65 65 82
89 88 111
99 99 125
80 80 102
81 81 103
74 74 94
90 90 114
88 88 112
75 75 95
76 76 97
89 89 112
82 82 104
82 82 104
75 75 94
72 72 91
76 76 97
72 72 91
84 84 107
84 84 107
88 88 112
78 78 99
72 72 92
72 72 91
80 80 102
74 74 94
84 84 107
72 72 91
88 88 112
54 54 68
60 60 75
73 73 92
67 67 85
51 51 64
60 60 75
51 51 64
51 51 64
82 82 104
62 62 79
54 54 68
57 57 72
55 55 70
51 51 64
51 51 64
57 57 72
65 65 82
57 57 72
44 44 56
60 60 75
38 37 46
57 57 72
62 62 79
65 65 82
54 54 68
57 57 72
70 70 89
72 72 92
52 52 67
54 54 68
58 58 73
60 60 76
67 67 85
40 40 52
67 67 83
62 62 79
62 62 79
62 62 79
75 75 94
62 62 79
67 67 85
51 51 64
54 54 68
57 57 72
72 72 91
79 79 100
51 51 64
72 72 91
77 77 97
76 76 97
65 65 82
57 57 72
67 67 85
72 72 91
47 47 60
67 67 85
51 51 64
62 62 79
80 80 101
67 67 85
60 60 75
54 54 69
67 67 85
76 76 97
54 54 69
67 67 85
57 57 72
48 48 60
47 47 60
62 62 79
44 44 56
62 62 79
51 51 64
57 57 72
72 72 91
54 54 68
60 60 76
72 72 91
60 60 75
62 63 79
63 63 79
54 54 68
54 54 68
54 54 68
71 71 90
65 65 82
65 65 82
68 68 88
65 65 82
60 60 75
57 57 73
72 72 91
55 55 71
62 62 79
62 62 79
70 70 89
60 60 75
57 57 72
67 67 85
76 76 97
51 51 64
79 79 100
51 51 64
67 67 85
62 62 79
62 62 79
62 62 79
67 67 85
65 65 82
74 74 94
68 68 86
62 62 79
72 72 91
65 65 82
57 57 72
70 70 88
76 76 97
78 78 99
82 82 105
67 67 85
93 93 118
80 80 102
65 65 82
70 70 88
64 64 81
40 40 51
72 72 91
84 84 106
65 65 83
92 92 116
78 78 99
72 72 91
74 74 94
85 85 107
76 76 97
78 78 99
85 85 108
80 80 102
84 84 107
91 91 115
70 69 87
80 80 102
74 74 94
82 82 104
62 62 79
47 47 60
75 75 95
78 78 99
80 80 102
73 73 92
82 82 104
79 79 100
70 70 88
81 81 102
70 70 88
90 90 114
88 88 111
73 73 94
86 86 109
76 76 97
82 82 104
71 71 89
70 70 88
70 70 89
87 87 110
88 88 112
79 79 100
80 80 102
84 84 107
86 86 109
94 94 119
78 78 99
70 70 88
82 82 104
76 76 97
79 79 100
90 90 114
65 65 82
82 82 104
76 76 97
90 90 114
72 72 91
74 74 94
71 71 91
84 84 107
78 78 99
84 84 107
97 97 123
82 82 104
90 90 114
90 90 114
65 65 82
92 92 116
86 86 110
78 78 99
68 68 86
85 85 109
90 90 114
100 100 127
80 80 102
85 85 108
95 95 121
99 99 125
97 97 123
100 100 127
87 87 110
87 87 111
100 100 127
96 96 121
90 90 114
80 80 102
86 86 109
92 92 117
90 90 114
72 72 91
78 78 99
102 102 129
85 85 107
90 90 114
105 105 133
88 88 112
98 98 124
79 79 100
86 86 109
99 99 125
87 87 110
90 90 114
82 82 103
103 103 131
90 90 114
97 97 123
97 97 123
94 94 118
84 84 107
90 90 114
110 110 139
95 95 121
82 82 104
96 96 122
76 76 97
84 84 107
99 99 125
102 102 130
87 87 110
104 104 131
96 96 121
108 108 137
88 88 112
105 105 133
107 107 135
104 104 131
88 88 110
99 99 125
97 97 123
99 99 125
105 105 134
88 88 112
113 113 143
92 92 116
94 94 119
86 86 109
110 110 139
90 90 114
84 83 105
111 111 141
90 90 114
94 94 119
113 112 141
90 90 114
110 110 139
85 85 107
107 107 135
103 103 131
111 112 141
89 89 112
89 89 112
90 90 114
100 100 127
95 95 121
113 113 143
88 88 112
97 97 123
96 96 122
102 102 129
113 113 143
94 94 118
92 92 117
100 100 127
96 96 122
94 94 119
102 102 128
97 97 123
96 96 121
105 105 133
95 95 121
113 113 142
78 78 99
108 108 137
93 93 118
96 96 121
103 103 131
97 97 123
89 89 113
91 91 115
94 94 119
114 114 144
113 113 142
100 100 127
86 86 109
108 108 137
111 111 141
94 94 118
95 95 121
107 107 135
88 88 112
100 100 127
102 102 129
95 94 119
99 99 125
99 99 125
94 94 119
100 100 127
101 101 128
95 95 121
90 90 114
103 103 131
90 90 114
94 94 119
99 99 125
99 99 124
108 108 137
107 107 135
107 107 135
74 74 94
92 92 117
97 97 123
88 88 112
110 110 140
85 85 107
104 103 131
86 86 109
111 111 141
87 87 110
100 100 127
103 103 131
105 105 133
94 94 118
112 112 141
108 108 137
104 104 132
88 88 112
72 72 91
92 92 116
88 88 112
110 110 139
90 90 114
88 88 112
99 99 125
90 90 114
88 88 112
65 65 82
92 92 117
92 92 117
97 97 123
83 83 105
93 93 118
94 94 118
90 90 114
84 84 107
104 104 131
86 86 109
78 78 99
92 92 116
91 90 114
86 86 109
83 83 105
81 81 103
84 84 106
67 67 85
81 81 102
76 76 97
74 74 94
74 74 94
67 67 85
62 62 79
84 84 106
68 68 86
77 77 97
76 75 95
78 78 99
70 70 87
60 60 75
85 85 108
70 70 88
63 63 80
72 72 91
74 74 94
70 70 88
70 70 88
67 67 85
67 67 85
74 74 94
72 72 91
54 54 68
70 70 89
66 65 82
60 60 75
57 57 73
70 69 87
58 58 73
45 45 57
67 67 85
62 62 79
44 44 56
47 47 60
63 63 80
57 57 73
65 65 82
42 42 53
54 54 69
60 60 76
57 57 72
40 40 51
48 48 61
68 68 86
45 45 57
51 51 64
54 54 69
48 48 60
40 40 51
44 44 56
51 50 62
47 47 60
40 40 51
60 60 76
70 70 88
62 62 79
64 64 80
44 44 56
57 57 72
44 44 56
62 62 79
70 70 88
65 65 83
62 62 79
62 62 79
74 74 94
68 68 87
40 40 51
67 67 85
74 74 94
81 81 102
62 62 79
62 62 79
51 51 64
67 67 85
65 65 82
60 60 75
70 70 88
65 65 82
54 54 68
54 54 68
54 54 68
71 71 91
62 62 79
57 57 72
57 57 72
70 70 88
54 54 68
60 60 75
54 54 69
42 42 55
54 54 68
65 65 82
74 74 94
62 62 79
62 62 79
49 49 63
47 47 60
60 60 76
60 60 76
62 62 79
54 54 68
75 75 96
63 63 79
74 74 94
67 67 85
67 67 85
57 57 72
62 62 79
70 70 88
58 58 73
56 55 69
76 76 97
67 67 85
74 74 94
54 54 68
65 65 82
70 70 88
70 70 88
54 54 68
60 60 75
80 80 102
62 62 79
74 74 94
57 57 72
60 60 75
74 74 94
44 44 56
67 67 83
63 63 80
84 84 107
65 65 82
70 70 88
60 60 75
74 74 94
92 92 116
67 67 85
67 67 85
62 62 79
83 83 106
70 70 89
62 62 79
72 72 91
51 51 65
62 62 79
70 70 88
86 86 109
67 67 85
76 76 97
87 87 110
60 60 75
68 68 86
62 62 79
57 57 72
67 67 85
72 72 91
89 89 112
65 65 82
68 67 85
72 72 91
77 77 97
57 57 72
80 80 102
85 85 107
79 79 100
62 62 79
74 74 94
67 67 85
65 65 82
76 76 97
86 86 110
62 62 79
86 86 109
74 74 94
65 65 82
68 68 86
79 79 100
98 98 123
84 84 107
65 65 82
78 78 99
78 78 99
86 86 109
74 74 94
90 90 114
76 76 97
80 80 102
77 77 97
81 81 103
77 77 97
92 92 116
86 86 109
82 82 104
72 72 91
83 83 105
79 79 100
84 84 107
72 72 91
79 79 100
80 80 102
81 81 103
92 92 116
80 80 102
88 88 112
86 86 109
78 78 99
74 74 94
77 77 97
72 72 91
70 70 88
76 76 97
86 86 109
57 57 72
79 79 98
81 81 101
87 87 110
81 81 102
72 72 91
83 83 106
74 74 94
89 89 112
99 99 125
84 84 107
88 88 112
89 89 112
92 92 117
90 90 114
103 103 131
90 90 114
78 78 99
94 94 118
92 92 117
84 84 107
105 105 133
86 86 109
93 93 119
95 95 121
96 96 121
76 76 97
82 82 104
97 97 123
82 82 104
74 74 94
90 90 115
92 92 116
76 76 97
86 86 109
80 80 102
93 93 117
94 94 118
101 101 127
92 92 116
84 84 106
102 102 129
108 108 137
92 92 116
91 91 115
80 80 102
92 92 116
100 100 127
75 75 95
84 84 107
90 90 114
97 97 123
89 89 113
90 90 114
83 83 105
99 99 125
81 80 102
102 102 129
91 91 115
90 90 114
88 88 112
95 95 121
79 79 100
84 84 107
90 89 113
74 74 94
90 90 114
105 105 133
91 91 115
104 104 132
97 97 123
86 86 109
97 97 123
85 85 107
94 94 119
101 101 127
95 95 121
103 103 130
110 110 139
95 95 121
94 94 118
99 99 126
99 99 125
85 85 107
94 94 119
102 102 129
108 108 137
82 82 104
92 92 116
81 81 103
99 99 125
110 110 139
102 102 129
87 87 109
97 97 123
98 98 123
100 100 127
107 107 135
107 107 135
99 99 125
95 95 121
92 92 116
105 104 132
110 110 139
108 108 137
108 108 137
95 95 120
90 90 114
94 94 119
97 97 123
81 81 102
79 79 100
102 102 129
110 110 139
88 88 112
90 90 114
94 94 119
101 101 128
85 85 108
92 92 116
88 88 112
107 107 135
97 97 123
104 104 131
89 89 113
88 88 112
99 99 125
99 99 125
99 99 126
76 76 97
88 88 111
94 93 117
103 103 131
97 97 123
93 93 117
101 101 128
110 110 139
83 83 105
82 82 104
96 96 121
87 87 110
84 84 107
94 94 119
110 109 138
101 101 128
82 82 105
99 98 123
72 72 91
92 91 115
104 103 131
95 95 121
88 88 112
110 110 139
84 84 107
79 79 100
81 81 102
95 95 121
95 95 121
96 96 121
78 78 99
92 92 116
105 105 133
70 70 88
101 101 128
81 81 102
94 94 118
76 76 97
80 79 100
65 65 82
91 91 115
72 72 91
85 85 108
81 81 103
74 74 94
82 82 104
70 70 88
65 65 82
82 82 104
76 76 97
80 80 102
92 92 117
74 74 94
74 74 94
78 78 99
86 86 109
80 80 102
83 83 105
81 81 103
75 75 95
76 76 97
74 74 94
85 85 107
85 85 107
78 78 99
80 80 102
72 72 91
72 72 91
67 67 85
92 92 116
72 72 91
62 62 79
66 66 83
72 72 91
57 57 70
70 70 89
57 57 72
82 82 105
62 62 79
62 62 79
57 57 72
60 60 77
57 57 72
47 47 60
60 60 75
65 65 83
71 71 89
51 51 64
47 47 60
61 60 76
63 63 79
60 60 75
60 60 75
57 57 72
57 57 72
54 54 68
51 51 64
40 40 51
44 44 56
44 44 56
40 40 51
47 47 60
51 51 64
44 44 56
51 51 64
54 54 69
44 44 56
48 48 61
47 47 60
44 44 56
57 57 72
55 55 69
47 47 60
67 67 85
65 65 82
48 48 61
68 68 86
54 54 68
51 51 64
60 60 75
35 35 44
47 47 60
51 51 65
57 57 72
57 57 72
62 62 79
45 45 57
51 51 64
70 70 88
60 60 76
63 63 79
57 57 72
51 51 64
67 67 85
68 68 86
76 76 97
67 67 85
84 84 107
63 63 80
36 36 45
62 62 79
57 57 72
54 53 66
67 67 85
51 51 64
71 71 90
65 65 82
60 60 75
62 62 79
72 72 91
72 72 91
70 70 88
60 60 75
47 47 60
74 74 94
54 54 68
72 72 91
74 74 94
44 44 56
54 54 68
62 62 79
70 70 88
54 54 68
47 47 60
65 65 82
60 60 75
72 72 91
74 74 94
62 62 79
40 40 51
54 54 68
47 47 60
74 74 94
65 65 82
74 74 94
65 65 82
67 67 85
72 72 92
67 67 85
78 78 99
52 52 66
57 57 72
58 57 73
60 60 75
57 57 72
72 72 91
74 74 94
62 62 79
67 67 85
72 72 91
80 80 102
77 77 97
83 83 105
74 74 94
65 65 82
62 62 79
65 65 82
65 65 82
72 72 91
74 74 94
57 57 72
76 76 97
79 79 100
72 72 91
54 54 68
62 62 79
61 61 76
67 67 85
72 72 91
76 76 97
70 70 89
67 67 85
70 70 88
70 70 88
78 78 99
72 72 91
65 65 82
70 70 88
72 72 91
74 74 94
70 70 88
85 85 107
76 76 97
72 72 91
72 72 91
65 65 82
74 73 92
62 62 79
86 86 109
70 70 88
77 77 98
62 62 79
70 70 88
70 70 88
72 72 91
78 78 99
65 65 82
80 80 102
79 79 100
67 67 85
64 64 82
72 72 91
76 76 97
71 71 90
80 80 102
85 85 107
63 63 79
76 76 97
80 80 102
72 72 91
92 92 116
72 72 91
76 76 97
70 70 88
74 74 94
78 78 99
78 78 100
78 78 99
94 94 119
80 80 102
84 84 107
88 88 112
76 76 97
80 80 102
92 92 117
94 94 118
76 76 97
80 80 102
70 70 88
76 76 97
76 76 97
84 84 107
94 94 118
75 74 94
65 65 82
74 74 94
70 70 88
99 99 125
78 78 99
80 80 102
76 76 97
72 72 91
82 82 105
92 92 116
92 92 116
74 74 94
86 86 109
84 84 107
77 77 97
88 88 112
99 99 125
70 70 88
74 74 94
78 78 99
94 94 119
92 92 116
80 80 102
88 88 112
79 79 100
70 70 88
78 78 99
91 91 115
95 95 121
96 96 121
81 81 102
72 72 91
76 76 97
102 102 129
80 80 102
97 97 123
100 100 127
91 91 114
94 94 119
94 94 119
65 64 80
90 90 114
83 82 105
90 90 114
90 90 114
105 105 133
94 94 119
82 82 104
82 82 105
90 90 114
92 92 116
74 73 92
112 112 141
77 77 98
88 88 110
95 95 121
76 76 95
78 78 99
90 90 114
85 85 107
83 83 106
90 90 114
88 88 112
88 88 112
99 99 125
88 88 112
88 88 112
81 81 102
79 79 99
102 102 129
76 76 97
86 86 109
88 88 112
99 99 125
98 98 124
90 90 114
90 90 114
82 82 104
104 104 132
97 97 123
92 92 117
90 90 114
107 107 135
104 104 132
102 102 129
101 101 128
83 83 105
99 99 125
86 86 109
96 96 121
104 104 131
94 94 119
88 88 112
103 103 131
97 97 123
95 95 121
100 100 127
88 88 112
100 100 127
99 99 125
92 92 117
88 88 112
105 105 133
86 86 109
96 96 121
102 102 129
103 103 130
74 74 94
65 65 82
78 78 99
90 90 114
89 89 113
79 79 100
80 80 102
84 84 107
83 83 105
96 96 122
75 75 94
91 91 115
97 97 123
108 108 137
97 97 123
99 99 125
97 97 123
101 101 128
105 105 133
83 83 105
90 90 114
102 102 129
99 99 125
97 97 123
98 98 124
84 84 107
90 90 114
107 107 136
99 99 125
86 86 109
88 88 112
97 97 123
102 102 129
113 113 143
107 107 135
102 101 128
95 95 121
74 74 94
90 90 114
87 87 110
85 85 108
84 84 107
94 94 118
67 67 85
97 97 123
82 82 104
60 60 75
83 83 105
82 82 104
100 99 124
97 97 123
94 94 118
80 80 102
94 94 119
94 94 119
87 87 110
97 97 123
88 88 112
87 87 110
83 83 105
73 73 93
81 81 102
74 74 94
86 86 109
83 83 105
95 95 121
67 67 85
81 81 103
84 84 107
87 87 110
72 72 91
86 86 109
72 72 91
92 92 116
67 67 85
95 95 121
70 70 88
101 101 128
82 82 104
70 70 88
76 76 97
80 80 102
65 65 82
67 67 85
83 83 105
80 80 102
67 67 85
67 67 85
78 78 99
75 75 95
74 74 94
58 58 73
63 63 80
57 57 72
72 72 91
79 79 100
65 65 82
60 60 75
48 48 61
79 79 100
74 74 94
55 55 70
58 58 73
54 53 66
53 53 68
60 60 76
67 67 85
60 60 75
60 59 74
72 72 91
49 49 62
51 50 62
70 70 88
60 60 75
60 60 75
54 54 68
57 57 72
40 40 51
57 57 72
60 60 75
49 49 62
57 57 72
65 65 82
51 51 64
44 44 56
60 60 75
40 40 51
44 44 56
47 47 60
44 44 56
40 40 48
62 62 79
63 63 80
36 36 46
44 44 56
36 36 45
47 47 60
57 57 72
57 57 72
47 47 60
51 51 64
48 48 61
60 60 75
65 65 82
54 54 68
57 57 72
60 60 75
51 51 64
86 86 109
62 62 79
60 60 75
58 58 75
40 40 51
69 68 86
65 65 82
63 63 79
47 47 60
47 47 60
44 44 56
57 57 73
44 44 56
62 62 79
68 68 86
62 62 79
62 62 79
60 60 75
51 51 64
44 44 56
48 48 61
57 57 72
44 44 56
65 65 82
65 65 82
54 54 68
54 54 68
54 54 68
47 47 60
60 60 75
54 54 68
60 60 75
76 76 97
51 51 64
60 60 75
67 67 85
36 36 45
67 67 85
58 58 74
60 60 75
65 65 82
60 60 75
51 51 64
67 67 85
47 47 60
62 62 79
40 40 51
57 57 72
54 54 68
78 78 99
67 67 85
72 72 91
57 57 72
62 62 79
60 60 75
67 67 85
70 70 88
72 72 91
74 74 94
65 65 82
66 66 83
70 70 88
74 73 92
72 72 90
82 82 104
65 65 82
70 70 88
70 70 88
79 79 100
67 67 85
76 76 97
67 67 85
70 70 88
78 78 99
70 70 88
80 80 102
72 72 92
80 80 102
55 55 71
72 72 91
72 72 91
72 72 91
79 79 100
90 90 114
76 76 97
76 76 97
67 67 85
78 78 99
72 72 91
51 51 64
84 84 107
80 80 102
72 72 91
57 57 72
60 60 76
78 78 99
72 72 92
47 47 60
78 77 97
82 82 104
78 78 99
69 69 89
79 79 100
74 74 94
65 65 82
76 76 97
82 82 104
73 73 92
70 70 88
72 72 90
84 84 107
82 82 104
84 84 107
60 60 75
81 81 102
87 87 110
75 75 95
72 72 91
72 72 91
74 74 94
78 78 99
68 68 86
82 82 104
85 85 107
84 84 107
71 71 90
89 89 113
78 78 99
84 84 107
73 73 93
70 70 88
70 70 88
80 80 102
82 82 104
88 88 112
84 84 107
84 84 107
69 68 86
54 54 69
86 86 109
72 72 91
78 79 100
78 78 99
65 65 82
74 74 94
68 68 86
57 57 72
84 84 107
90 90 114
81 81 102
99 99 125
94 94 119
72 72 91
86 86 109
62 62 79
88 88 112
81 81 102
82 82 104
92 92 116
57 57 73
79 79 100
94 94 119
72 72 91
72 72 91
93 93 117
90 90 114
95 94 119
86 86 109
74 74 94
74 74 94
92 92 116
82 82 104
92 92 116
80 80 102
86 86 109
84 84 105
88 88 112
95 95 121
65 65 83
78 79 99
67 67 85
88 88 112
96 96 121
77 77 97
99 99 125
90 90 114
74 74 94
82 82 104
102 102 129
85 85 107
92 92 116
89 89 113
88 88 112
95 95 121
88 88 112
88 88 112
99 99 125
85 85 108
74 74 94
78 78 99
72 72 91
86 86 109
95 95 121
81 81 102
84 84 107
74 74 94
100 100 127
79 79 100
92 92 116
90 90 114
86 86 109
80 80 102
97 97 123
86 86 109
92 92 116
78 78 97
88 88 112
97 97 123
90 90 114
83 83 106
95 95 119
88 88 112
85 85 108
97 97 123
70 70 88
92 92 116
111 111 141
85 85 107
81 81 102
88 88 112
92 92 116
92 92 116
90 90 115
90 90 114
86 85 107
95 95 121
84 84 107
90 90 114
81 81 102
100 100 127
94 94 118
95 95 121
89 89 112
97 97 123
70 70 88
89 89 112
88 88 112
97 97 123
97 97 123
100 100 127
92 92 117
77 77 97
86 86 109
97 97 123
103 103 131
86 86 109
102 102 129
72 72 91
84 84 107
96 96 121
100 100 127
67 67 85
82 82 104
96 96 121
72 72 91
113 113 142
76 76 97
70 70 88
78 78 99
86 86 109
97 97 123
94 94 118
81 81 104
94 94 118
86 86 109
70 70 88
87 87 110
84 84 107
92 92 117
86 86 109
94 94 119
96 96 121
92 92 117
88 88 112
89 89 112
80 80 102
87 87 110
90 90 114
100 100 127
83 83 105
88 88 112
80 80 102
92 92 116
84 85 107
92 92 116
72 72 92
82 82 104
62 62 79
84 84 107
92 92 117
85 85 108
78 78 99
88 88 112
85 85 109
86 86 109
72 72 91
81 81 103
88 88 112
70 70 88
84 84 107
97 97 123
81 81 102
74 74 94
83 83 105
76 76 95
70 70 88
86 86 109
86 86 109
72 72 91
70 69 87
74 74 94
76 76 97
86 86 109
86 86 109
76 76 97
72 72 91
74 74 94
94 94 119
74 74 94
67 67 85
72 72 91
81 81 102
70 70 88
88 88 112
75 75 94
67 67 85
60 60 75
60 60 75
76 76 97
76 76 97
67 67 85
75 75 95
57 57 72
76 76 97
77 77 98
65 65 82
57 57 72
72 72 92
82 82 104
57 57 72
60 60 76
62 62 79
62 62 79
75 75 94
51 51 64
54 54 68
57 57 72
51 51 64
58 58 74
65 65 82
47 47 60
70 70 89
60 60 75
51 51 65
57 57 72
57 57 72
60 60 75
47 47 60
62 62 79
25 25 32
48 48 62
36 36 45
47 47 60
51 51 64
44 44 56
54 54 68
51 51 65
42 42 53
25 25 32
54 54 68
36 36 45
51 51 64
51 51 65
36 36 45
62 62 77
62 62 79
40 40 51
54 54 68
31 31 39
54 52 65
51 51 64
70 70 88
48 48 60
44 44 56
51 51 64
40 40 51
51 50 62
47 47 60
67 67 85
49 49 62
60 60 75
65 65 82
40 40 51
57 57 72
41 41 52
44 44 56
51 51 64
31 31 39
51 51 64
60 60 76
67 67 85
57 57 72
47 47 60
51 51 64
54 54 68
51 51 65
67 67 85
65 65 82
60 60 75
31 31 39
57 57 72
67 67 85
47 47 60
60 60 75
72 72 91
60 60 75
54 54 69
51 51 64
44 44 56
65 65 82
62 62 79
78 78 99
65 65 82
60 60 75
70 70 88
67 67 85
60 60 78
70 70 88
60 60 76
65 65 82
54 54 68
68 68 86
52 52 65
57 57 72
70 70 88
67 67 85
57 57 73
65 65 82
76 76 97
67 67 85
74 74 94
65 65 82
62 62 79
72 72 91
60 60 76
67 67 85
57 57 72
60 60 75
63 63 78
76 76 97
67 67 85
72 72 91
47 47 60
54 54 68
81 81 103
72 72 91
60 60 76
78 78 99
70 70 88
67 67 85
60 60 75
70 70 88
67 66 83
70 70 88
65 65 82
57 57 72
72 72 91
51 51 64
72 72 91
63 63 80
78 78 99
75 74 94
72 72 91
67 67 85
85 85 107
67 67 85
72 72 92
76 76 97
54 54 68
65 65 82
72 72 91
72 72 93
67 67 85
51 51 65
57 57 72
72 72 91
57 57 72
62 62 79
60 60 76
54 54 68
74 74 94
76 76 97
70 70 88
74 74 94
78 78 99
67 67 85
74 74 94
73 72 91
82 82 105
90 90 114
70 70 89
68 68 86
74 74 94
67 67 85
70 70 88
62 62 79
76 76 97
78 78 99
90 90 114
67 67 85
72 72 91
60 60 76
82 82 104
79 79 99
95 95 121
70 70 88
76 76 97
67 67 85
58 58 75
84 84 107
76 76 97
82 82 104
85 85 107
84 83 105
78 78 99
76 75 95
76 76 97
92 92 116
75 75 95
62 62 79
68 68 86
70 70 88
67 67 85
83 83 105
58 58 73
67 67 85
70 70 88
66 66 84
94 94 118
94 94 118
84 84 105
82 82 104
54 54 68
65 65 83
76 76 97
74 74 92
70 70 88
78 78 99
86 86 109
60 60 75
78 78 99
80 80 102
72 72 91
92 92 117
88 88 112
82 81 103
74 74 94
76 76 97
85 85 107
67 67 85
62 62 79
87 87 110
86 86 109
65 65 82
78 78 99
72 72 91
67 67 85
86 86 109
74 74 94
54 54 68
82 82 104
60 60 76
86 86 110
77 77 97
81 81 103
78 78 99
80 80 102
92 92 116
76 76 97
84 84 107
72 72 91
60 60 75
92 91 115
77 77 98
94 94 118
88 88 112
87 87 110
79 79 99
62 62 79
76 76 97
111 111 141
82 82 104
97 98 124
103 103 131
97 97 123
84 84 107
94 94 119
90 90 114
97 97 123
82 82 104
94 94 118
76 76 97
92 92 116
70 70 88
84 84 107
81 81 103
90 90 114
82 82 104
78 78 99
70 70 88
82 82 104
88 88 112
82 82 104
86 86 109
83 83 106
82 82 104
79 79 100
82 82 104
80 80 102
92 92 116
104 104 131
87 86 108
80 80 102
79 79 99
98 97 123
84 84 107
74 74 94
91 91 116
84 84 107
78 78 99
78 78 99
90 90 114
97 97 123
94 94 119
92 92 117
84 83 105
96 96 121
90 90 114
75 75 96
86 86 109
105 105 133
82 82 104
92 92 116
89 89 112
82 82 103
95 95 121
93 93 117
62 62 79
88 88 112
90 90 114
99 99 125
86 86 109
95 95 121
83 83 105
95 95 121
80 80 102
78 78 99
72 72 91
76 76 97
72 72 92
95 95 121
70 70 88
88 88 112
76 76 97
79 79 99
82 82 104
92 92 117
78 78 99
95 95 121
87 87 110
78 78 99
78 78 99
79 79 99
70 70 88
80 80 102
84 84 107
70 70 88
83 83 105
95 95 121
84 83 105
74 74 94
99 99 126
82 82 104
80 80 102
76 76 97
76 76 96
85 85 108
76 76 97
88 88 112
80 80 102
80 81 102
96 96 121
86 86 109
72 72 91
79 79 100
71 71 90
83 83 105
81 81 103
86 86 110
70 70 88
62 62 79
67 67 85
78 78 99
79 79 100
78 78 99
87 87 110
67 67 85
74 75 94
79 79 100
80 80 102
76 76 97
86 86 109
82 83 104
82 82 104
60 60 76
76 76 97
81 81 102
58 58 73
70 70 88
82 82 104
72 72 91
65 65 82
51 51 64
62 62 79
70 70 88
67 67 85
82 82 103
65 65 83
74 73 92
74 74 95
68 68 86
63 63 80
60 60 77
70 70 88
82 82 104
67 67 85
65 65 82
63 63 80
65 65 82
70 70 88
65 65 82
54 54 69
51 51 64
61 61 77
70 70 88
57 56 70
60 60 76
76 76 97
66 66 83
63 63 79
82 82 103
55 55 69
52 52 66
54 54 68
74 74 94
63 63 80
62 62 79
49 49 62
36 36 45
54 54 68
57 57 72
51 51 64
52 51 65
47 47 60
47 47 60
47 47 60
45 45 58
54 54 68
36 36 45
40 40 51
60 60 75
51 51 64
44 44 56
48 48 61
44 44 56
43 42 52
44 44 56
51 51 65
62 62 79
47 47 60
62 62 79
54 54 69
51 51 64
52 52 65
44 44 56
47 47 60
40 40 51
57 57 72
51 51 65
44 44 56
51 51 64
51 51 64
47 47 60
36 36 45
51 51 64
57 57 72
36 36 45
45 45 56
51 51 64
67 67 85
51 51 65
54 54 68
55 55 70
65 65 82
51 51 64
60 60 75
76 76 97
54 54 68
54 54 68
54 54 68
51 51 64
51 51 64
70 70 88
57 57 72
54 54 68
70 70 89
54 54 68
60 60 75
70 70 88
62 62 79
68 68 86
44 44 56
51 51 64
57 57 72
44 44 56
67 67 85
54 54 68
51 51 64
40 40 51
65 65 82
63 63 80
49 49 62
51 51 64
57 57 72
70 70 88
70 70 88
70 70 88
63 63 80
77 77 97
62 62 79
40 40 51
62 62 79
80 80 102
67 67 85
70 70 88
54 54 69
60 60 76
51 51 64
51 51 64
78 78 99
70 70 88
51 51 64
54 54 68
72 72 91
57 57 73
54 54 68
70 70 88
54 54 69
67 67 85
74 74 94
74 74 94
67 67 84
74 74 94
67 67 85
62 62 79
67 67 85
65 65 82
72 72 91
63 63 80
70 70 88
44 44 56
76 76 97
72 72 91
62 62 79
65 65 82
78 78 99
40 40 51
57 57 72
67 67 85
72 72 90
87 87 110
73 73 92
71 71 89
70 70 88
67 67 86
62 62 78
67 67 85
79 79 100
67 67 85
86 86 109
65 65 82
67 67 85
68 68 86
54 53 66
67 67 85
67 67 85
67 67 85
65 65 82
70 70 88
78 78 99
79 79 99
62 62 79
54 54 68
73 73 93
74 74 94
65 65 82
76 76 97
76 76 97
82 82 104
57 57 72
83 83 105
68 68 86
89 89 114
62 62 79
66 66 83
60 60 75
67 67 85
75 75 95
80 80 102
74 74 94
70 70 88
70 70 88
84 84 107
84 84 107
60 60 75
67 67 85
72 72 91
82 82 104
83 83 105
60 60 76
86 86 109
70 70 88
86 86 109
78 78 99
86 86 109
67 67 85
72 72 92
82 82 104
79 79 101
72 72 91
63 63 80
68 68 86
74 74 94
68 68 86
82 82 105
73 73 92
78 78 99
72 72 91
72 72 91
80 81 101
77 76 95
67 67 85
62 62 79
78 79 99
72 72 91
83 83 105
67 67 85
85 85 107
76 76 97
84 84 107
65 65 82
79 79 100
75 75 94
79 78 100
86 86 109
65 65 82
95 95 121
78 78 100
83 83 105
73 73 92
76 76 97
86 86 109
76 76 97
90 90 114
85 85 108
70 70 89
70 70 88
82 82 104
97 97 123
74 74 94
89 89 114
78 78 99
72 72 91
80 80 102
78 78 99
54 54 69
84 84 107
62 62 79
74 74 94
87 87 109
78 78 99
86 86 109
99 99 125
74 74 92
82 82 105
74 74 94
83 83 105
92 92 116
70 70 88
81 81 103
65 65 82
90 90 114
84 84 107
95 95 121
84 84 107
84 84 107
94 94 119
80 80 102
70 70 88
92 92 116
90 90 113
67 67 85
74 74 94
62 62 79
84 84 105
86 86 109
74 74 92
76 77 97
83 83 105
72 72 91
84 84 107
90 90 114
94 94 119
99 99 125
75 75 95
88 87 110
99 99 125
99 99 125
77 77 98
84 84 107
82 82 104
70 70 88
85 85 107
67 67 85
90 90 113
89 89 112
82 82 105
72 72 91
80 80 102
83 83 105
84 84 107
90 89 112
96 96 122
97 97 123
95 95 121
78 78 99
87 87 110
78 78 99
81 81 102
100 100 127
73 73 92
57 57 72
85 85 108
74 74 94
83 83 104
86 86 109
82 82 104
85 85 107
68 68 87
75 75 95
94 94 118
80 80 101
86 86 109
74 74 94
76 76 97
90 89 113
90 90 114
76 76 97
88 88 112
78 78 99
67 67 85
78 78 99
88 88 112
72 72 91
82 82 104
86 86 109
97 97 123
82 82 104
82 82 104
60 60 75
85 85 107
85 85 107
86 86 109
82 82 104
76 76 97
86 86 109
70 70 88
72 72 91
85 85 107
82 82 104
78 78 99
76 76 97
78 78 99
76 76 97
66 65 82
65 65 82
90 90 114
70 70 88
77 77 98
74 74 94
88 88 112
70 70 88
74 74 94
67 67 85
69 69 87
65 65 82
76 76 97
76 76 97
66 66 83
76 76 97
51 51 64
78 78 99
67 67 85
74 74 94
73 73 92
70 70 88
88 88 112
65 65 83
74 74 94
62 62 79
74 73 93
76 76 97
67 67 85
70 70 88
57 57 73
76 76 97
54 54 68
74 74 94
57 57 72
60 60 75
76 76 97
74 74 94
83 82 103
65 65 82
57 57 72
67 67 85
52 52 66
65 65 82
62 62 76
60 60 75
65 65 82
65 65 82
62 62 79
70 70 88
67 67 85
57 57 72
62 62 79
54 54 68
70 70 88
67 67 85
72 72 92
44 44 56
40 40 51
54 54 68
60 60 75
44 44 57
62 62 79
44 44 56
60 60 76
44 44 56
61 60 74
65 64 80
67 67 85
65 64 80
49 49 62
62 62 79
44 44 56
54 54 68
51 51 64
31 31 39
44 44 56
36 36 45
47 47 60
44 44 56
33 33 41
48 48 61
40 40 51
44 44 56
31 31 39
47 46 57
44 44 56
51 51 64
31 31 40
37 37 47
40 40 51
40 40 51
60 60 75
49 49 62
40 40 51
60 60 75
47 47 60
40 40 51
60 60 75
44 44 56
47 47 60
51 51 65
57 57 72
36 36 45
47 47 60
51 51 64
57 57 72
51 51 64
54 54 69
57 57 72
47 47 60
54 54 68
48 48 60
57 57 72
57 57 72
57 57 72
44 44 56
61 60 77
36 36 45
62 62 79
40 40 51
70 70 88
74 74 94
82 82 105
57 57 72
60 60 75
54 54 68
57 57 72
72 72 91
51 51 64
54 54 68
54 54 68
51 51 65
70 70 88
44 44 56
51 51 64
48 48 62
62 62 79
54 54 68
47 47 60
51 51 64
60 60 75
65 65 82
51 51 64
51 51 64
62 62 79
51 51 64
57 57 72
65 65 82
62 62 79
70 70 89
60 60 76
65 65 82
60 60 75
62 62 79
62 62 79
54 54 68
70 70 89
54 54 68
70 70 88
67 67 85
62 62 79
76 76 97
60 60 75
54 54 69
72 72 91
62 62 79
67 67 85
72 72 92
70 70 88
31 31 39
68 68 86
57 57 72
57 57 72
65 65 82
65 65 82
72 72 91
62 62 79
67 67 85
67 67 85
86 86 109
67 67 85
81 81 102
74 74 94
66 66 83
72 72 91
47 47 60
67 67 85
77 77 97
52 52 65
70 70 88
60 60 75
81 81 104
62 62 79
72 72 91
60 60 75
57 57 72
70 70 88
74 74 94
68 68 86
70 70 88
60 60 75
73 73 93
70 70 88
65 65 82
72 72 91
57 57 72
65 65 82
62 62 79
72 72 91
57 57 72
57 57 72
65 65 82
62 62 79
74 74 94
74 74 94
76 76 97
72 72 91
76 76 97
74 74 94
72 72 91
86 86 109
72 72 92
79 79 100
74 74 94
70 70 88
65 65 82
74 74 94
76 76 97
51 51 65
54 54 68
62 62 79
62 62 79
65 65 82
79 79 100
76 76 97
82 82 104
81 81 103
67 67 85
66 66 82
65 65 82
63 63 79
65 65 82
70 70 88
86 86 109
76 76 97
67 67 85
79 79 100
74 74 94
62 62 79
60 60 75
73 73 92
81 81 102
84 84 107
76 76 97
78 78 99
62 62 79
74 74 94
70 70 88
72 72 91
80 80 102
67 67 85
86 86 109
78 78 99
97 97 122
99 99 125
84 84 107
70 70 88
70 70 88
84 84 107
83 83 105
70 70 89
79 79 100
76 76 97
81 81 102
72 72 91
84 84 107
78 78 99
70 70 89
82 82 104
84 84 107
77 77 97
67 67 85
88 88 112
87 87 109
75 75 94
70 70 88
92 92 117
76 76 97
73 73 92
81 82 103
86 86 109
86 86 108
87 87 110
79 79 100
88 88 112
73 73 92
60 60 75
70 70 89
84 84 107
84 84 107
79 79 99
78 78 99
89 89 112
84 84 107
70 70 88
76 76 97
65 65 82
78 78 99
84 83 105
92 92 116
79 79 100
89 89 112
74 74 95
76 76 97
86 86 109
76 76 97
70 70 88
94 94 119
70 70 89
78 78 99
74 74 94
86 86 109
72 72 92
79 79 100
72 72 91
80 80 102
80 80 102
79 79 100
74 74 95
92 92 116
92 92 116
76 76 97
74 74 94
70 70 88
80 80 102
60 60 76
78 78 99
84 84 107
79 79 100
81 81 102
80 80 102
86 86 109
92 92 117
92 92 115
72 72 91
79 79 100
80 80 102
83 83 105
86 86 109
80 80 102
88 88 112
78 78 99
86 86 109
90 90 114
66 66 84
90 90 114
74 74 94
88 88 112
79 79 100
84 84 107
78 78 100
65 65 82
78 77 97
72 72 91
92 92 116
76 76 97
86 86 109
74 74 94
84 84 107
78 78 99
100 100 127
71 71 90
82 82 104
51 51 65
79 79 101
97 97 123
78 78 98
70 70 89
94 94 118
88 88 112
85 85 107
90 90 114
77 77 97
83 83 105
85 85 107
84 84 107
74 74 94
77 77 97
79 79 100
92 92 116
84 84 105
81 81 103
77 77 98
70 70 88
72 72 92
65 65 83
90 90 114
66 65 82
94 94 119
75 75 95
76 76 97
90 90 114
76 76 97
65 65 82
75 75 95
57 57 73
103 103 131
76 76 97
79 79 100
82 82 104
72 72 92
70 70 88
67 67 85
57 57 72
83 83 105
65 65 82
44 44 56
67 67 85
57 57 72
78 78 99
67 67 85
70 70 88
74 74 94
84 84 107
60 60 75
70 70 88
82 82 104
67 67 85
54 54 68
65 65 82
72 72 91
69 69 86
57 57 72
70 70 88
72 72 91
65 65 82
60 60 75
62 62 79
60 60 75
80 80 102
53 53 67
67 67 84
62 62 79
65 65 82
72 72 91
54 54 68
44 44 56
70 70 88
57 57 72
47 47 60
60 60 75
51 51 65
47 47 60
36 36 46
51 51 64
51 51 64
47 47 60
57 57 72
47 47 60
57 57 72
40 40 51
55 55 70
72 72 91
40 40 51
62 62 79
62 62 79
60 60 75
48 48 60
51 51 64
54 54 68
51 51 64
51 51 64
44 44 56
47 47 60
36 36 45
48 48 61
51 51 64
51 51 64
27 27 34
48 48 61
54 54 68
44 44 56
51 51 64
54 54 68
47 47 60
31 31 39
40 40 51
48 48 60
44 44 56
60 60 77
31 31 39
54 54 68
31 31 39
47 47 60
36 36 45
44 44 56
41 41 53
47 47 60
62 62 79
36 36 45
44 44 56
40 40 51
54 54 69
54 54 68
36 36 45
57 57 72
54 54 68
70 70 88
60 60 77
47 47 60
54 54 68
57 57 72
31 31 39
47 47 60
54 54 68
67 67 85
68 68 88
65 65 82
57 57 72
70 70 88
51 51 64
51 51 64
62 62 79
65 65 82
65 65 82
60 60 75
74 74 94
36 36 45
70 70 88
45 45 57
47 47 60
65 65 82
47 47 60
65 65 82
69 69 88
51 51 64
54 54 68
68 68 86
70 70 89
72 72 91
40 40 51
65 65 82
51 51 64
67 67 85
54 54 68
67 67 85
54 54 68
60 60 75
57 57 72
54 54 68
70 70 88
54 54 68
60 60 75
60 60 76
68 68 88
54 54 69
70 70 88
65 65 82
60 60 75
74 74 94
48 48 60
62 62 79
74 74 95
65 65 82
74 74 94
57 57 72
60 60 75
51 51 64
57 57 72
62 62 79
57 57 72
60 60 76
57 57 72
62 62 79
62 62 79
62 62 79
67 67 83
57 57 72
65 65 82
74 74 94
72 72 92
70 70 88
72 72 91
67 67 85
83 83 105
51 51 64
65 65 82
67 67 85
74 74 94
62 62 79
51 51 64
60 60 75
80 80 102
62 62 79
62 62 79
70 70 88
67 67 85
54 54 68
70 70 88
62 62 79
67 67 85
70 70 88
65 65 82
80 80 102
72 72 91
62 62 79
51 51 64
65 65 82
51 51 64
57 57 72
65 65 82
74 74 94
80 80 102
70 70 88
76 76 97
74 74 94
74 74 94
57 57 72
67 67 85
72 72 92
57 57 72
84 84 107
67 67 85
74 74 94
51 51 64
65 64 80
80 80 102
72 72 91
62 62 79
72 72 91
62 62 79
78 78 99
60 60 76
73 73 92
77 77 98
76 76 97
74 74 94
78 78 99
72 72 91
80 80 102
80 80 102
62 61 77
77 77 97
92 92 117
76 76 97
65 65 82
76 76 97
94 94 119
75 75 95
67 67 85
72 72 91
76 76 97
72 72 91
65 65 82
74 74 94
95 95 121
76 76 97
57 57 72
83 83 105
84 84 107
96 96 121
74 74 94
75 75 95
67 67 85
67 67 85
78 78 99
85 85 107
65 65 82
65 65 83
86 86 109
74 74 94
74 74 94
65 65 81
78 78 99
77 77 97
76 76 97
70 70 88
70 70 88
96 96 121
80 80 102
60 60 75
78 78 99
80 80 102
82 82 105
81 81 102
76 76 97
84 84 107
70 70 88
94 94 119
58 58 73
84 84 107
75 75 95
72 72 91
60 60 76
79 79 100
70 70 89
60 60 76
86 86 109
72 72 91
67 67 84
92 92 116
79 79 100
72 72 91
74 74 94
65 65 82
84 84 107
76 76 97
67 67 86
65 65 82
88 88 112
88 88 111
74 74 94
99 99 125
62 62 79
70 70 88
67 67 85
77 77 97
77 77 97
78 78 99
54 54 68
80 80 102
82 82 104
82 82 104
67 67 85
70 70 88
90 90 114
76 76 97
72 72 91
77 77 97
76 76 97
60 60 75
81 81 103
88 88 112
86 86 109
73 73 93
80 80 102
86 86 109
76 76 97
81 81 102
70 70 88
78 78 99
88 88 112
82 82 104
76 76 97
60 60 76
84 84 107
70 70 88
82 82 104
57 57 72
83 83 105
94 94 118
65 65 83
57 57 72
73 73 92
87 87 110
65 65 82
79 79 101
94 94 118
88 88 112
78 78 99
80 80 102
77 77 97
85 85 107
76 76 97
74 74 94
94 94 118
67 67 85
76 76 97
70 70 88
70 70 89
74 74 95
65 65 82
60 60 76
60 60 76
76 76 97
70 70 89
76 76 97
86 86 109
81 81 102
82 82 104
67 67 83
72 72 91
67 67 85
74 74 94
65 65 82
79 79 100
80 80 102
89 89 113
70 70 88
74 74 94
76 76 97
78 78 99
88 88 112
65 65 82
70 70 88
83 83 105
57 57 72
79 79 101
78 78 99
65 65 82
76 76 97
79 79 100
80 80 102
76 76 97
66 66 83
72 72 91
76 76 97
67 67 85
78 78 99
70 70 88
78 78 99
60 60 77
70 70 88
72 72 92
62 62 79
67 67 85
88 88 112
67 67 85
67 67 85
80 80 102
92 92 117
63 63 80
65 65 82
52 52 65
60 60 75
74 74 94
60 60 76
71 71 91
78 78 99
74 74 94
51 51 64
76 76 97
62 62 79
70 70 88
61 61 77
65 65 82
66 66 83
67 67 85
47 47 60
62 62 79
51 51 64
70 70 88
57 57 72
51 51 64
70 70 88
40 40 51
62 62 79
36 36 45
55 55 69
40 40 51
40 40 51
60 60 75
65 65 82
70 70 88
54 54 68
57 57 72
60 60 76
44 44 56
51 51 64
44 44 56
54 54 68
60 60 75
67 67 85
54 54 69
44 44 56
47 47 60
65 65 82
44 44 56
36 36 45
60 60 75
63 63 79
51 51 64
58 58 74
45 44 57
54 54 68
45 45 57
62 62 79
51 51 64
57 57 72
44 44 56
47 47 60
36 36 45
44 44 56
31 31 39
56 56 71
31 31 39
25 25 32
44 44 56
36 36 45
65 65 82
44 44 56
60 60 75
40 40 51
40 40 51
36 36 46
25 25 32
40 40 51
51 51 64
40 40 51
31 31 39
53 52 65
40 40 51
44 44 56
47 47 60
40 41 52
57 57 72
40 40 51
60 60 75
57 57 72
51 51 64
60 60 75
44 44 56
70 70 88
54 54 68
40 40 51
57 57 72
54 54 68
60 59 73
76 76 97
54 54 68
54 54 68
65 65 82
62 62 79
67 67 86
48 48 62
74 74 94
65 65 82
40 40 51
47 47 60
47 47 60
62 62 79
40 40 51
70 70 88
60 60 75
62 62 79
44 44 56
57 57 72
47 47 60
44 44 56
51 51 64
65 65 82
62 62 79
54 54 68
57 57 72
62 62 79
44 44 56
36 36 45
67 67 85
78 78 99
60 60 76
57 57 72
67 67 85
51 51 64
42 42 52
57 57 72
60 60 75
44 44 56
51 51 64
72 72 91
60 60 75
47 47 60
67 67 85
62 62 79
62 62 79
60 58 73
47 47 60
62 62 79
54 54 68
60 60 75
60 60 76
65 65 82
40 40 51
65 65 82
60 60 75
72 72 91
51 51 64
65 65 82
60 60 76
72 72 91
72 72 91
72 72 91
65 65 82
74 74 94
60 60 75
62 62 79
60 60 75
54 54 68
65 65 82
65 65 82
57 57 72
57 57 72
60 60 75
72 72 91
74 74 94
76 76 97
67 67 85
57 57 73
68 68 86
70 70 88
70 70 88
72 72 91
65 65 82
63 63 79
74 74 94
67 67 85
67 67 85
60 60 75
68 68 86
70 70 88
88 88 112
80 80 102
67 67 85
65 65 82
64 64 81
63 63 80
70 70 88
62 62 79
54 54 68
72 72 91
62 62 79
72 72 91
72 72 91
67 67 85
62 62 79
60 60 75
67 67 86
60 60 75
76 76 97
74 74 94
67 67 85
86 86 109
62 62 79
76 76 97
65 65 82
68 68 86
86 86 109
73 73 93
84 84 107
78 78 99
65 65 82
65 65 82
51 51 64
67 67 85
63 63 80
72 72 91
51 51 64
63 63 79
70 70 88
76 76 97
77 77 97
65 65 82
65 65 82
70 70 88
83 83 106
72 72 91
94 94 119
78 78 99
78 78 99
75 75 95
80 80 102
60 60 75
78 78 99
84 84 107
76 76 97
65 65 82
62 62 79
71 70 89
84 84 107
74 74 94
65 65 82
77 77 97
62 62 79
70 70 88
60 60 75
78 78 99
74 74 94
67 67 85
67 67 85
57 57 73
81 81 101
82 82 104
67 67 85
84 84 107
76 76 97
74 74 94
82 82 104
72 72 91
62 62 79
68 68 86
67 67 85
65 65 82
65 65 82
60 60 75
76 76 97
86 86 109
72 72 91
70 70 88
87 87 110
67 67 85
74 74 94
78 78 99
88 88 112
80 80 102
62 62 79
84 84 107
74 74 94
62 62 79
80 80 102
54 54 68
62 62 79
80 80 102
44 44 56
90 90 114
83 83 105
71 71 90
72 72 91
80 80 102
70 70 88
86 86 109
57 57 72
80 80 102
81 81 102
67 67 85
80 80 102
94 94 118
92 92 116
62 62 79
76 76 97
90 90 115
78 78 99
65 65 82
62 62 79
78 78 98
87 87 110
65 65 82
82 82 104
88 88 112
80 80 102
79 79 100
74 74 94
67 67 85
72 72 91
74 74 94
83 83 104
86 86 109
54 54 68
70 70 88
74 74 94
90 90 113
85 85 107
74 74 94
84 84 107
78 78 99
72 72 91
87 87 110
78 78 99
72 72 91
74 74 94
80 80 102
72 72 91
70 70 88
70 70 88
68 68 87
68 68 86
65 65 82
79 79 100
76 76 97
72 72 91
74 74 94
92 92 116
76 76 97
76 76 97
65 65 82
51 51 64
74 74 94
76 76 97
78 78 99
74 74 94
67 67 85
85 85 107
76 76 97
72 72 91
67 67 85
74 74 94
92 92 116
76 76 97
70 70 88
79 79 100
76 76 97
73 73 92
72 72 92
76 76 97
72 72 92
72 72 92
72 72 92
80 80 102
70 70 89
70 70 88
75 75 95
70 70 89
74 74 94
65 65 82
88 88 112
81 81 102
72 72 91
75 75 95
67 67 85
62 62 79
74 74 94
68 68 86
76 76 97
70 70 89
54 54 68
60 60 76
62 62 79
65 65 82
70 70 88
44 44 56
57 56 70
62 62 79
60 60 75
62 62 79
54 54 68
67 67 85
57 57 72
63 63 79
58 58 73
67 67 85
55 55 69
60 60 75
47 47 60
68 68 86
54 54 68
36 36 46
62 62 79
62 62 79
76 76 97
70 70 88
54 54 69
58 58 73
54 54 68
62 62 79
62 62 79
72 72 91
65 65 83
65 65 82
57 57 73
60 60 75
36 36 45
54 54 68
60 60 75
75 75 95
51 51 64
47 47 60
58 58 73
36 36 45
55 55 70
63 63 79
51 51 64
40 40 51
57 57 72
44 44 56
40 40 51
60 60 76
48 48 60
60 60 75
47 47 60
57 57 72
44 44 56
31 31 39
36 36 45
65 65 83
62 62 79
51 51 64
49 49 62
44 44 56
70 70 88
51 51 64
44 44 56
51 51 64
40 40 51
51 51 64
31 31 39
51 51 64
40 40 51
40 40 51
25 25 32
36 36 45
44 44 56
40 40 51
65 65 83
52 52 66
31 31 39
44 44 56
25 25 32
46 46 57
51 51 64
36 36 45
44 44 56
40 41 51
47 47 60
45 45 54
44 44 56
47 47 60
60 60 75
31 31 39
54 54 68
74 74 94
60 60 75
47 47 60
44 44 56
51 51 64
47 47 60
47 47 60
36 36 45
62 62 79
54 54 68
57 57 72
47 47 60
62 62 79
54 54 68
54 54 68
54 54 68
60 60 75
54 54 68
51 51 65
45 44 56
47 47 60
60 60 76
54 54 68
57 57 72
65 65 82
60 60 75
67 67 85
67 67 85
54 54 69
72 72 91
36 36 45
54 54 68
65 65 82
47 47 60
54 54 68
62 62 79
54 54 68
51 51 64
70 70 88
73 73 93
57 57 72
67 67 85
51 51 64
72 72 91
54 54 68
63 63 80
67 67 85
60 60 76
60 60 75
62 62 79
57 57 73
51 51 64
60 60 76
63 63 79
67 67 85
60 60 75
84 84 107
68 67 86
47 47 60
65 65 83
76 76 97
65 65 82
72 72 91
36 36 45
57 57 72
62 62 79
62 62 79
60 60 76
51 51 64
70 70 88
51 51 64
60 60 75
60 60 75
66 66 83
65 65 82
57 57 72
67 67 85
65 65 82
75 75 96
75 74 94
70 70 88
62 62 79
65 65 83
63 63 79
47 47 60
67 67 85
65 65 82
67 67 86
62 62 79
63 63 79
84 84 107
70 70 88
65 65 82
54 54 68
63 63 79
65 65 82
74 74 94
76 76 97
72 72 91
60 60 75
60 60 76
51 51 64
51 51 65
66 66 83
72 72 91
65 65 82
72 72 91
65 65 82
47 47 60
60 60 75
60 60 75
74 74 94
85 85 107
76 76 97
48 48 60
67 67 85
51 51 64
74 74 94
62 62 79
62 62 79
62 62 79
72 72 91
62 62 79
60 60 75
65 65 82
62 62 79
72 72 91
80 80 102
57 57 72
76 76 97
72 72 91
76 76 97
83 83 105
70 70 88
78 78 99
72 72 91
72 72 91
81 81 102
62 62 79
88 88 112
70 70 88
70 70 88
70 70 88
68 68 86
70 70 88
58 58 73
79 79 100
76 76 97
51 51 64
74 74 94
73 73 92
72 72 91
81 81 102
72 72 91
86 86 109
70 70 88
62 62 79
65 65 82
74 74 94
82 82 104
67 67 85
67 67 85
67 67 85
65 65 83
67 67 85
77 77 97
76 76 97
51 51 65
67 67 85
65 65 82
84 84 107
63 63 80
72 72 91
76 76 97
74 74 94
80 80 100
70 70 88
72 72 91
73 73 92
72 72 91
72 72 91
62 62 79
78 78 99
86 86 109
70 70 88
82 82 104
57 57 72
78 78 99
82 82 104
67 67 85
67 67 83
76 76 97
75 75 95
76 76 97
82 82 104
78 78 98
81 80 102
57 57 72
83 83 105
65 65 82
80 80 102
95 95 121
84 84 107
60 60 75
78 78 99
70 70 88
72 72 91
79 79 100
82 82 104
80 80 102
70 70 88
78 78 99
78 78 99
76 76 97
62 62 79
78 78 99
74 74 94
67 67 85
70 70 88
82 82 104
55 55 70
79 79 100
70 70 89
76 76 97
44 44 56
60 60 75
82 82 104
62 62 79
84 84 107
88 88 112
60 60 75
51 51 64
88 88 112
70 70 88
76 76 97
77 77 97
70 70 89
72 72 91
83 83 105
70 70 88
83 83 104
74 74 94
70 70 89
65 65 82
83 83 105
67 67 85
54 54 68
83 83 105
72 72 91
72 72 91
70 70 88
63 63 80
72 72 91
67 67 85
76 76 97
86 86 108
78 78 99
70 70 88
67 67 86
78 78 99
74 74 94
57 57 72
62 62 79
62 62 79
67 67 85
88 88 112
65 65 82
70 70 88
65 65 82
60 60 75
67 67 85
60 60 76
62 62 79
66 66 84
47 47 60
44 44 56
65 65 82
70 70 88
75 75 95
82 82 104
82 82 104
60 60 75
70 70 88
65 65 82
70 70 89
65 65 82
78 78 100
65 65 82
63 63 79
67 67 85
65 65 82
62 62 79
65 65 82
73 73 92
68 68 86
76 76 97
76 76 97
70 70 88
72 72 91
74 74 94
76 76 97
72 72 91
72 72 91
74 74 94
63 63 80
52 52 66
70 70 88
78 78 98
60 60 75
70 70 88
72 72 91
62 62 79
70 70 88
61 61 76
60 60 75
65 65 82
67 67 85
66 66 83
60 60 75
75 75 95
60 60 75
44 44 56
51 51 64
57 57 73
44 44 56
72 72 90
70 70 88
65 65 82
63 63 79
62 61 77
47 48 60
68 68 86
76 76 97
48 48 61
57 57 72
72 72 91
54 54 68
65 65 82
57 57 72
36 36 46
67 66 83
57 57 72
51 51 64
72 72 91
54 54 68
54 54 68
61 60 76
65 65 83
54 52 66
65 65 83
54 54 68
44 44 56
54 54 68
44 44 56
31 31 39
62 62 79
47 47 60
44 44 56
51 51 64
45 45 57
55 55 70
60 60 75
54 54 68
26 26 33
36 36 45
47 47 60
44 44 56
57 57 72
60 60 75
36 36 45
31 31 39
36 36 45
54 54 68
47 47 60
40 40 51
40 38 47
60 60 75
41 41 52
44 44 56
44 44 56
25 25 32
44 44 56
36 36 45
40 40 51
37 37 46
44 44 56
36 36 45
40 40 51
36 36 45
25 25 32
48 48 60
40 40 51
37 37 47
47 47 60
51 51 64
45 45 56
54 54 68
60 60 75
57 57 72
57 57 72
60 60 76
36 36 45
48 48 61
70 70 88
40 40 51
47 47 60
60 60 75
54 54 68
54 54 68
47 47 60
57 57 72
54 54 68
54 54 68
54 54 68
60 60 75
62 62 79
67 67 86
31 31 39
57 57 72
51 51 64
57 57 72
60 60 75
52 52 67
31 31 39
67 67 85
57 57 72
60 60 76
60 60 75
54 54 68
54 54 68
72 72 91
62 62 79
54 54 68
60 60 76
62 62 79
51 51 64
70 70 88
57 57 72
60 60 75
51 51 65
44 44 56
51 51 64
51 51 64
65 65 82
47 47 60
47 47 60
70 70 88
74 74 94
65 65 82
51 51 64
60 60 76
74 74 94
67 67 85
57 57 72
60 60 75
54 54 68
67 66 84
70 70 88
74 74 94
70 69 87
64 63 80
40 40 51
72 72 91
40 40 51
70 70 88
65 65 82
54 54 68
60 60 76
44 44 56
51 51 64
44 44 56
57 57 72
57 57 72
65 65 82
72 72 91
47 47 60
62 62 79
65 65 82
74 74 94
57 57 72
67 67 85
51 51 64
51 51 64
31 31 39
57 57 72
70 70 88
65 65 82
51 51 64
54 54 69
82 82 104
74 74 94
72 72 91
70 70 88
62 62 79
60 60 75
67 67 85
68 68 86
60 60 75
62 62 79
62 62 79
72 72 91
77 77 97
67 67 85
80 80 102
67 67 85
65 65 82
60 60 75
74 74 95
65 65 82
57 57 72
70 70 88
67 67 85
78 78 99
65 65 82
72 72 91
74 74 94
51 51 65
70 70 88
65 65 82
67 67 85
62 62 79
62 62 79
70 70 88
54 54 68
60 60 75
57 57 72
65 65 82
60 60 75
62 62 79
78 78 99
54 54 68
57 57 72
57 57 72
54 54 68
65 65 83
62 62 79
51 51 64
74 74 94
67 67 85
72 72 91
81 81 102
57 57 72
65 65 83
57 57 72
65 65 82
72 72 91
54 54 68
76 76 97
62 62 79
70 70 88
72 72 91
67 67 85
74 74 94
74 74 94
72 72 91
67 66 83
70 70 88
83 83 105
76 76 97
74 74 94
72 72 91
74 74 94
84 84 106
70 70 88
67 67 85
67 67 85
60 60 76
65 65 82
76 76 97
62 62 79
60 60 75
70 70 89
95 95 121
65 65 82
80 80 102
78 78 99
72 72 91
67 67 85
60 60 75
67 67 85
60 60 76
81 81 102
70 70 88
70 70 88
51 51 64
72 72 91
51 51 64
67 67 85
72 72 91
62 62 79
82 82 104
74 74 94
78 78 99
70 70 89
65 65 83
78 78 99
78 78 99
62 62 79
74 74 94
88 88 112
88 88 112
70 70 89
60 60 75
67 67 85
72 72 91
70 70 88
77 77 97
83 83 105
74 74 94
67 67 85
82 82 104
82 81 103
65 65 82
74 74 94
71 71 89
70 70 88
80 80 102
60 60 75
81 81 102
72 72 91
60 60 75
62 62 79
65 65 82
78 78 99
72 72 92
74 74 94
65 65 82
57 57 72
54 54 68
76 76 97
67 67 85
57 57 72
78 78 99
62 62 79
76 76 97
76 76 97
44 44 56
74 74 94
75 75 95
60 60 75
67 67 85
83 83 105
78 78 99
79 79 100
62 62 79
62 62 79
67 67 85
82 82 104
72 72 92
65 65 82
67 67 85
67 67 85
62 62 79
86 86 108
74 74 94
62 62 79
51 51 64
67 67 85
65 65 82
65 65 82
60 60 75
74 74 94
62 62 79
60 60 76
63 62 79
84 84 107
51 51 65
72 72 92
62 62 79
73 73 91
54 54 68
87 87 110
82 82 104
47 47 60
76 76 97
81 81 102
74 74 94
60 60 75
54 54 68
54 54 68
67 67 85
54 54 68
57 57 72
51 51 64
72 72 89
60 60 75
60 60 76
51 51 64
60 60 75
63 63 80
44 44 56
60 60 75
54 54 68
60 60 75
57 57 72
74 74 94
57 57 73
80 80 102
74 74 94
65 65 81
62 62 79
68 68 86
92 92 116
60 60 75
57 57 72
65 65 82
62 62 79
67 67 85
62 62 79
60 60 75
78 78 99
62 62 79
62 62 77
71 71 90
70 70 88
62 61 77
80 80 102
70 70 89
57 57 72
65 65 82
49 49 61
54 54 69
60 60 76
57 57 72
70 70 88
67 67 86
51 51 64
62 62 79
51 51 64
51 51 64
51 51 64
54 54 68
57 57 73
54 54 68
45 45 57
70 70 89
51 51 64
47 47 60
60 60 75
65 65 82
54 54 69
61 60 76
67 67 85
61 61 77
48 48 61
54 54 68
60 60 76
63 62 78
57 57 72
54 54 68
54 54 68
60 60 75
44 44 56
40 40 51
36 36 45
54 54 68
55 55 71
36 36 45
60 60 75
54 54 68
44 44 56
51 51 65
40 40 51
51 51 64
54 54 68
51 51 65
40 40 51
32 32 41
36 36 45
44 44 56
38 37 46
57 57 72
40 40 51
51 51 65
48 48 60
54 54 68
31 31 39
25 25 32
47 47 60
44 44 56
44 44 56
40 40 51
41 41 52
36 36 45
36 36 45
18 18 22
47 47 60
36 36 45
31 31 39
40 40 51
26 26 33
44 44 56
40 40 51
54 54 68
25 25 32
0 0 0
31 31 39
62 62 79
51 51 64
36 36 45
54 54 68
54 54 68
54 54 68
51 51 65
44 44 56
72 72 91
57 57 72
54 54 68
48 48 61
57 57 72
54 54 68
51 51 64
57 57 72
51 51 64
40 40 51
44 44 56
57 57 72
44 44 56
57 57 72
54 54 68
47 47 60
51 51 64
31 31 39
47 47 60
47 47 60
40 40 51
47 47 60
44 44 56
76 76 97
57 57 72
62 62 79
57 57 72
57 57 72
62 62 79
57 57 72
54 54 68
67 67 85
51 51 64
44 44 56
67 67 85
31 31 39
67 67 85
57 57 72
67 67 85
67 67 85
70 70 88
44 44 56
72 72 91
57 57 72
60 60 75
51 51 65
72 72 91
60 60 75
60 60 76
62 62 79
31 31 39
54 54 68
62 62 79
60 60 75
47 47 60
60 60 75
41 40 51
51 51 65
51 51 64
60 60 76
67 67 85
57 57 72
60 60 76
70 70 88
47 47 60
72 72 91
54 54 68
54 54 69
57 57 72
57 57 72
48 48 61
51 51 65
47 47 60
31 31 39
70 70 88
57 57 72
60 60 75
78 78 99
74 74 94
67 67 85
36 36 46
66 65 82
74 74 94
60 60 76
57 57 72
65 65 82
70 70 88
57 57 72
67 67 85
67 67 85
70 70 88
60 60 76
60 60 76
60 60 75
62 62 79
70 70 88
65 65 82
57 57 72
51 51 64
78 78 99
66 66 85
51 51 65
40 40 51
72 72 91
57 57 72
51 51 64
61 61 77
57 57 72
74 74 94
44 44 56
54 54 68
72 72 91
86 86 109
47 47 60
67 67 85
82 82 105
67 67 85
48 48 61
60 60 75
62 62 79
54 54 68
75 75 95
74 74 94
65 65 83
57 57 72
62 62 79
85 85 108
51 51 64
54 54 68
67 67 85
60 60 76
62 62 79
74 74 94
82 82 104
57 57 72
65 65 82
74 74 94
67 67 85
76 76 97
51 51 65
65 65 82
62 62 79
40 40 51
65 65 82
80 80 102
65 65 82
74 74 94
80 80 102
57 57 72
82 82 104
76 76 97
54 54 68
67 67 83
74 74 94
57 57 72
67 67 85
60 60 76
66 66 83
72 72 92
70 70 88
64 64 81
67 67 85
62 62 79
67 67 85
65 65 83
70 70 88
68 68 86
74 74 94
79 79 100
72 72 91
60 60 75
70 70 88
54 54 68
74 74 94
81 81 102
72 72 91
57 57 72
57 58 73
60 60 75
64 64 82
94 94 118
85 85 107
65 65 82
96 96 121
74 74 94
65 65 82
72 72 91
60 60 75
60 60 75
57 57 72
68 68 86
60 60 76
47 47 60
60 60 75
63 63 80
62 62 79
60 60 76
65 65 82
80 80 102
54 54 68
72 72 91
60 60 75
82 82 105
74 74 94
74 74 94
80 80 102
76 76 97
65 65 82
62 62 79
57 57 72
68 68 86
51 51 65
80 80 102
57 57 72
87 87 110
74 74 94
72 72 91
70 70 88
72 72 92
80 80 102
60 60 75
48 48 61
74 74 94
76 76 97
60 60 75
70 70 88
83 83 105
63 63 80
74 74 94
73 73 92
60 60 75
68 68 87
72 72 91
62 62 79
67 67 85
60 60 76
51 51 64
72 72 91
74 74 94
63 63 80
67 67 85
60 60 75
57 57 72
70 70 88
62 62 79
65 65 82
70 70 88
94 94 119
72 72 91
54 54 68
86 86 109
74 74 94
57 57 72
70 70 88
74 74 94
60 60 75
78 78 99
80 80 102
72 72 91
54 54 68
54 54 68
44 44 56
57 57 72
51 51 64
76 76 97
67 67 85
78 78 99
78 78 99
60 60 76
77 77 97
60 60 76
62 62 79
72 72 91
65 65 82
72 72 91
60 60 76
57 57 72
62 62 79
72 72 91
54 54 68
80 80 102
62 62 79
60 60 77
62 62 79
74 74 94
65 65 82
54 53 66
83 83 105
57 57 72
62 62 79
54 54 69
65 65 82
57 57 72
51 51 64
62 62 79
54 54 68
56 56 71
67 67 85
72 72 91
60 60 76
67 67 85
78 78 99
67 67 85
70 70 89
57 57 72
57 57 72
51 51 64
60 60 75
49 49 61
70 70 88
70 70 88
62 62 79
40 40 51
73 73 92
67 67 85
54 54 68
72 71 89
70 70 88
67 67 85
47 47 60
67 67 85
57 57 72
64 64 81
54 54 68
54 54 69
44 44 56
57 57 72
57 57 72
62 62 79
40 40 51
62 62 79
54 54 68
54 54 68
45 45 56
62 62 79
60 60 76
63 63 80
51 51 64
62 62 79
47 47 60
57 57 72
57 57 72
54 54 68
44 44 56
52 52 65
51 51 65
52 52 66
62 62 79
52 52 66
54 54 68
54 54 68
47 47 60
44 44 56
54 54 68
57 57 72
36 36 46
32 32 41
60 60 75
40 40 51
60 60 76
40 40 51
47 47 60
47 47 60
47 47 60
44 44 56
60 60 75
25 25 32
60 60 76
47 47 60
40 40 51
36 36 45
40 40 51
40 40 51
51 51 64
36 36 45
33 33 42
47 47 60
25 25 32
57 57 72
31 31 39
48 48 60
47 47 60
48 48 60
57 57 72
44 44 56
31 31 39
33 33 40
51 51 64
44 44 56
31 31 39
44 44 56
36 36 46
51 51 64
44 44 56
57 57 72
44 44 56
51 51 64
47 47 60
36 36 45
44 44 56
54 54 68
47 47 60
40 40 51
67 67 85
44 44 56
65 65 82
36 36 45
57 57 72
51 51 64
44 44 56
65 65 82
40 40 51
51 51 64
40 40 51
62 62 79
47 47 60
51 51 64
40 40 51
62 62 79
40 40 51
54 54 68
47 47 60
51 51 64
60 60 75
60 60 76
36 36 45
70 70 88
57 57 72
40 40 51
51 51 65
67 67 85
57 57 72
44 44 56
31 31 39
67 67 85
67 67 85
57 57 72
54 54 69
51 51 64
60 60 75
74 74 94
54 54 68
54 54 68
44 44 56
70 70 88
57 57 72
47 47 60
57 57 73
67 67 85
44 44 56
76 76 97
67 67 85
44 44 53
70 70 88
70 70 88
51 51 64
60 60 75
74 74 94
60 60 75
51 51 64
72 72 91
60 60 75
54 54 68
51 51 64
57 57 72
57 57 72
57 57 72
54 54 68
44 44 56
54 54 68
54 54 68
54 54 68
54 54 69
57 57 72
65 65 82
52 52 65
65 65 82
60 60 75
57 57 72
72 72 91
51 51 64
47 47 60
80 80 102
62 62 79
72 72 91
57 57 72
67 67 85
57 57 72
60 60 76
51 51 64
60 60 75
70 70 88
72 72 91
44 44 56
63 63 79
67 67 85
54 54 68
62 62 79
74 74 94
54 54 68
54 54 68
70 70 88
65 65 82
51 51 64
65 65 82
65 65 82
62 62 79
51 51 64
57 57 72
76 76 97
62 62 79
70 70 88
57 57 72
72 72 91
60 60 75
78 78 99
75 75 95
60 60 75
78 78 99
76 76 97
58 58 75
57 57 72
67 67 85
65 65 82
54 54 68
60 60 76
67 67 85
70 70 88
65 65 82
78 78 99
62 62 79
62 62 79
60 60 75
51 51 64
70 70 89
51 51 64
70 70 88
67 67 85
65 65 82
54 54 68
72 72 91
54 54 69
67 67 85
54 54 69
65 65 82
57 57 72
82 82 104
70 70 88
67 67 85
57 57 72
80 80 102
44 44 56
72 72 91
62 62 79
65 65 82
60 60 75
47 47 60
60 60 75
74 74 94
76 76 97
62 62 79
62 62 79
62 62 79
70 70 89
60 60 75
76 76 97
68 68 86
62 62 79
57 57 72
72 72 91
67 67 85
62 62 79
51 51 64
74 74 94
70 70 88
60 60 75
54 54 68
65 65 82
62 62 79
84 84 107
51 51 64
62 62 79
54 54 68
65 65 82
54 54 68
47 47 60
76 76 97
74 74 94
73 73 92
84 84 107
62 62 79
76 76 97
90 90 114
72 72 91
70 70 88
83 83 105
67 67 85
62 62 79
80 80 102
54 54 68
65 65 82
74 74 94
76 76 97
65 65 82
54 54 68
58 58 73
54 54 68
67 67 85
72 72 91
90 90 114
51 51 64
47 47 60
74 74 94
78 78 99
54 54 68
57 57 72
67 67 85
73 73 92
60 60 75
67 67 85
67 67 85
80 80 102
57 57 72
76 76 97
63 63 79
72 72 91
47 47 60
65 65 82
72 72 91
72 72 91
76 76 97
65 65 82
73 73 92
70 70 89
47 47 60
62 62 79
74 74 94
57 57 72
67 67 85
44 44 56
57 57 72
72 72 91
57 57 72
68 68 86
65 65 82
74 74 94
78 78 99
65 65 82
65 65 82
74 74 94
57 57 72
79 79 100
64 64 80
68 68 86
57 57 72
63 63 79
63 63 79
76 76 97
51 51 64
72 72 91
60 60 75
54 54 68
67 67 85
74 74 94
54 54 68
54 54 68
70 70 88
57 57 72
65 65 82
74 74 94
54 54 68
74 74 94
76 76 97
57 57 72
47 47 60
47 47 60
48 48 61
88 88 112
72 72 91
70 70 88
60 60 75
57 57 72
62 62 79
67 67 85
58 58 73
60 60 75
62 62 79
67 68 85
58 58 73
72 72 91
51 51 64
65 65 82
57 57 72
62 62 79
76 76 97
57 57 72
31 31 40
60 60 75
51 51 64
61 61 78
70 70 89
57 57 72
44 44 56
60 60 76
70 70 88
51 51 64
57 57 72
70 70 88
63 63 79
62 62 79
40 40 51
57 57 72
44 44 56
44 44 56
60 60 75
47 47 60
67 67 85
36 36 45
47 47 60
72 72 91
54 54 68
51 51 65
48 48 60
40 40 51
51 51 64
57 57 72
52 52 65
40 40 51
47 47 60
72 72 91
70 70 88
70 70 88
36 36 45
54 54 68
40 40 51
65 65 82
44 44 56
57 57 72
48 48 61
44 44 56
57 57 72
47 47 60
62 62 79
36 36 45
47 47 60
44 44 56
40 40 51
48 48 60
47 47 60
44 44 56
44 44 56
44 44 56
47 47 60
41 41 52
40 40 51
54 54 69
51 51 65
47 47 60
44 44 56
31 31 39
51 51 64
47 47 60
26 26 33
40 40 51
54 54 68
54 54 68
51 51 65
60 60 75
40 40 51
52 52 66
40 40 48
48 48 60
40 40 51
36 36 45
47 47 60
57 57 73
44 44 56
47 47 60
31 31 39
47 47 60
40 40 51
31 31 39
47 47 60
44 44 56
25 25 32
44 44 56
36 36 45
31 31 40
25 25 32
40 40 51
40 40 51
40 40 51
40 40 51
40 40 51
51 51 64
62 62 79
36 36 45
40 40 51
51 51 64
57 57 72
47 47 60
51 51 64
51 51 64
65 65 82
57 57 72
57 57 72
57 57 72
47 47 60
47 47 60
70 70 88
47 47 60
25 25 32
54 54 69
60 60 75
40 39 48
60 60 75
44 44 56
51 51 64
54 54 68
57 57 72
47 47 60
60 60 75
47 47 60
47 47 60
57 57 72
47 47 60
57 57 72
57 57 72
70 70 88
67 67 85
52 52 66
57 57 72
60 60 76
49 49 63
47 47 60
51 51 64
70 70 88
54 54 68
72 72 91
54 54 68
54 54 68
60 60 75
54 54 68
40 40 51
78 78 99
60 60 75
51 51 64
40 40 51
51 51 64
60 60 75
60 60 76
65 65 82
62 62 79
44 44 56
36 36 45
60 60 75
44 44 56
51 51 64
47 46 57
48 48 61
54 54 68
40 40 51
47 47 60
65 65 82
62 62 79
57 57 72
66 66 83
57 57 72
74 74 94
67 67 85
54 54 68
47 47 60
62 62 79
62 62 79
54 54 68
51 51 64
57 57 72
51 51 64
65 65 82
51 51 64
51 51 64
65 65 83
65 65 82
67 67 85
44 44 56
70 70 88
60 60 75
54 54 68
62 62 79
51 51 64
51 51 64
57 57 72
62 62 79
57 57 72
72 72 91
57 57 72
62 62 79
63 63 79
57 57 72
51 51 64
47 47 60
57 57 72
54 54 68
51 51 64
60 60 76
68 68 85
60 60 75
57 57 70
51 51 64
67 67 85
51 51 64
67 67 85
51 51 65
65 65 83
54 54 68
67 67 85
62 62 79
57 57 72
70 70 88
62 62 79
67 67 85
79 79 100
63 63 79
70 70 88
67 67 85
70 70 88
40 40 51
76 76 97
58 58 73
74 74 94
72 72 91
76 76 97
60 60 76
54 54 68
74 74 94
62 62 79
65 65 82
72 72 91
51 51 65
72 72 91
62 61 76
60 60 76
62 62 79
70 70 89
90 90 114
51 51 64
72 72 91
62 62 79
72 72 91
67 67 85
57 57 72
72 72 91
62 62 79
74 74 94
68 68 86
68 68 86
54 54 68
60 60 75
65 65 82
60 60 75
62 62 79
57 57 72
60 60 75
60 60 76
67 67 85
70 70 88
60 60 75
68 68 86
65 65 82
76 76 97
54 54 68
63 63 79
78 78 99
51 51 64
60 60 76
57 57 72
60 60 75
65 65 82
76 75 95
60 60 75
62 62 79
50 49 63
63 63 79
62 62 77
76 76 97
67 67 85
67 67 85
57 57 72
47 47 60
76 76 97
70 70 88
65 65 82
67 67 85
67 67 85
74 74 94
62 62 79
70 70 88
65 65 82
60 60 75
72 72 91
44 44 56
70 70 88
63 63 80
57 57 72
60 60 77
62 62 79
65 64 80
72 72 91
57 57 72
74 74 94
60 60 75
84 84 107
60 60 77
54 54 68
51 51 64
67 67 85
47 47 60
54 54 69
54 54 68
80 80 102
62 62 79
57 57 72
78 78 99
54 54 68
72 72 92
78 78 99
72 72 91
67 67 85
60 60 75
60 60 76
54 54 68
67 67 84
63 63 80
65 65 82
51 51 64
54 54 68
81 81 102
74 74 94
57 57 72
70 70 88
70 70 88
49 49 62
63 63 80
62 62 79
62 62 79
57 57 72
72 72 91
68 68 86
78 78 98
51 51 64
60 60 75
67 67 85
60 60 75
74 74 94
72 72 90
65 65 82
66 66 83
47 47 60
73 73 92
62 62 79
60 60 76
54 54 68
72 71 89
62 62 79
76 76 97
74 74 94
67 67 85
54 54 68
54 54 68
78 78 99
54 54 68
68 68 86
44 44 56
44 44 56
70 70 88
70 70 88
63 63 79
65 65 82
60 60 75
57 57 72
62 62 79
54 54 68
63 63 79
72 72 91
51 51 64
32 32 41
54 53 66
60 60 75
74 74 94
76 76 97
51 51 64
57 57 72
72 72 91
67 67 83
47 47 60
40 40 51
52 52 65
74 74 94
54 54 68
67 67 85
62 62 79
65 65 83
57 57 72
62 62 79
61 61 78
57 57 72
40 40 51
44 44 56
47 47 60
48 48 60
72 72 91
51 51 65
67 67 85
36 36 45
62 62 79
44 44 56
72 72 91
65 65 82
51 51 64
74 74 94
49 49 61
47 47 60
51 51 64
51 51 64
31 31 39
60 60 75
51 51 64
47 47 60
47 47 60
47 47 60
44 44 56
70 70 89
47 47 60
67 67 86
44 44 56
47 47 60
44 44 56
60 60 76
44 44 56
55 55 70
78 78 99
65 65 82
42 42 52
44 45 57
51 51 64
55 55 70
54 54 68
44 44 56
45 45 57
51 51 64
44 44 56
32 32 39
47 47 60
54 54 68
44 44 56
31 31 39
57 57 72
44 44 56
51 51 64
47 47 60
51 51 64
36 36 45
51 51 64
44 44 56
44 44 56
40 40 51
44 44 56
57 57 72
52 52 66
44 44 56
51 51 64
44 44 56
54 54 69
47 47 60
31 31 39
62 62 79
51 51 64
48 48 61
57 57 73
25 25 32
57 57 72
40 40 51
47 47 60
36 36 45
40 40 51
54 54 68
46 46 58
25 25 32
36 36 45
31 31 39
36 36 45
51 51 64
44 42 52
40 40 51
65 65 82
54 54 68
44 44 56
60 60 75
62 62 79
47 47 60
47 47 60
40 40 51
54 54 68
62 62 79
57 57 72
57 57 72
57 57 72
67 67 85
51 51 64
74 74 94
44 44 56
54 53 66
40 40 51
74 74 94
40 40 51
51 51 64
60 60 75
44 44 56
44 44 56
54 54 68
44 44 56
60 60 75
62 62 79
51 51 64
44 44 56
57 57 72
47 47 60
60 60 75
44 44 56
51 51 64
47 47 60
47 47 60
62 62 79
44 44 56
58 58 72
36 36 45
58 58 75
47 47 60
40 40 51
51 51 64
54 54 68
70 70 88
67 67 85
57 57 72
54 54 68
54 54 68
57 57 72
57 57 72
62 62 79
62 62 79
31 31 39
54 54 68
47 47 60
36 36 45
31 31 39
78 78 99
62 62 79
60 60 76
44 44 56
44 44 56
51 50 62
51 51 64
44 44 56
47 47 60
60 60 75
67 67 85
54 54 69
36 36 45
63 63 80
60 60 75
57 57 72
67 67 85
57 57 72
47 47 60
65 65 82
57 57 72
54 54 68
60 60 76
65 65 82
54 54 68
72 72 91
54 54 68
54 54 68
57 57 72
51 51 64
57 57 72
60 60 76
57 57 72
54 54 68
47 47 60
74 74 94
62 62 79
40 40 51
40 40 51
65 65 82
54 54 68
68 68 85
47 47 60
60 60 75
58 58 73
65 65 82
60 60 77
57 57 72
67 67 85
67 67 85
62 62 79
54 54 68
76 76 97
40 40 51
60 60 75
54 54 68
60 60 75
64 64 80
65 64 80
44 44 56
44 44 56
60 60 76
76 76 97
57 57 73
60 60 75
62 62 79
60 60 75
44 44 56
60 60 75
57 57 72
65 65 82
47 47 60
47 47 60
60 60 75
58 58 73
54 54 68
47 47 60
57 56 69
67 67 85
62 62 79
70 70 88
51 51 64
40 40 51
57 57 72
65 65 83
60 60 77
68 68 86
60 60 75
82 82 104
73 73 92
58 58 75
54 54 68
44 44 56
70 70 89
64 64 80
51 51 64
67 67 85
74 74 94
76 76 97
67 67 85
47 47 60
60 60 75
62 62 79
60 60 75
60 60 75
78 78 99
70 70 89
62 62 79
60 60 76
54 54 68
82 82 104
76 76 97
65 65 82
80 80 102
54 54 68
65 65 82
60 60 75
74 74 94
65 65 82
54 54 68
57 57 72
74 74 94
54 54 68
47 47 60
72 72 91
74 74 94
67 67 85
67 67 85
74 74 94
78 78 99
41 41 51
60 60 75
76 76 97
72 72 91
65 65 82
76 76 97
62 62 79
44 44 56
40 40 51
62 62 79
70 70 88
70 70 88
62 62 79
71 71 89
36 34 42
60 60 75
62 62 79
63 63 80
60 60 75
66 65 83
57 57 72
72 72 91
67 67 85
62 62 79
65 65 82
65 65 82
76 76 97
84 84 107
73 73 92
65 65 82
57 57 72
57 57 72
47 47 60
74 74 94
72 72 91
84 84 107
62 62 79
60 60 75
67 67 85
70 70 88
57 57 72
67 67 85
54 54 68
70 70 88
76 76 97
57 57 72
62 62 79
58 58 73
54 54 68
44 44 56
62 62 79
60 60 75
57 57 72
51 51 64
67 67 85
57 57 72
40 40 51
51 51 65
72 72 91
65 65 82
65 65 82
66 66 83
74 74 94
67 67 85
79 79 100
70 70 88
72 72 91
54 54 68
67 67 85
65 65 82
54 54 68
65 65 82
67 67 85
60 60 75
54 54 68
62 62 79
62 62 79
57 57 72
44 44 56
62 62 79
57 57 72
57 57 72
67 67 85
70 70 88
54 54 68
65 65 82
67 67 85
57 57 72
54 54 68
70 70 88
60 60 75
65 65 82
57 57 72
67 67 85
54 54 68
54 54 68
54 54 69
65 65 82
65 65 82
41 41 51
65 65 82
51 51 64
62 62 79
47 47 60
60 60 75
51 51 64
58 58 74
57 57 72
57 57 73
72 72 91
62 62 79
57 57 72
51 51 65
60 60 75
54 54 68
51 51 64
57 57 72
51 51 64
47 46 57
52 51 65
58 58 73
62 62 79
51 51 64
57 57 72
48 48 61
49 49 62
62 62 79
60 60 76
63 63 80
60 60 76
57 57 72
44 44 56
57 57 72
47 47 60
51 51 64
40 40 51
47 47 60
63 63 79
51 51 64
46 46 58
47 47 60
51 51 64
54 54 68
62 62 79
61 61 77
51 51 64
47 47 60
62 62 79
47 47 60
54 54 68
47 47 60
54 54 68
60 60 75
44 44 56
40 40 51
45 45 57
46 46 59
40 40 51
44 44 56
47 47 60
44 44 56
57 57 72
72 71 89
55 55 70
54 54 68
36 36 45
52 52 65
51 51 64
54 54 68
57 57 72
52 52 66
40 40 51
47 47 60
48 48 60
54 54 68
47 47 60
44 44 56
48 48 61
44 44 56
36 36 45
44 44 56
31 31 39
36 36 45
60 60 75
44 44 56
44 44 56
40 40 51
44 44 56
45 45 57
51 51 64
47 47 60
25 25 32
51 51 64
36 36 45
40 40 51
44 44 56
45 45 57
54 54 68
27 27 34
48 48 61
47 47 60
32 32 41
40 40 51
31 31 39
58 58 74
36 36 45
40 40 51
40 40 51
72 72 91
70 70 88
62 62 79
51 51 64
40 40 51
40 40 51
57 57 72
60 60 75
51 51 65
48 47 57
57 57 72
68 68 86
36 36 45
57 57 72
44 44 56
60 60 75
54 54 68
47 47 60
54 54 68
62 62 79
51 51 64
57 57 72
44 44 54
57 57 72
67 67 85
60 60 75
65 65 82
47 47 60
62 62 79
42 42 55
40 40 51
54 54 68
62 62 79
67 67 85
62 62 79
40 40 51
57 57 72
60 60 75
70 70 88
62 62 79
40 40 51
65 65 82
51 51 65
47 47 60
62 62 79
44 44 56
54 54 68
57 57 72
51 51 64
58 58 75
54 54 68
65 65 82
47 47 60
54 54 68
47 47 60
51 51 64
40 40 51
36 36 45
65 65 83
60 60 75
62 62 79
31 31 39
57 57 72
51 51 64
57 57 72
44 44 56
65 65 82
51 51 64
70 70 88
44 44 56
54 54 69
54 54 68
62 62 79
47 47 60
51 51 65
51 51 64
60 60 75
57 57 72
57 57 72
40 40 51
70 70 88
57 57 72
54 54 68
65 65 82
57 57 72
51 51 65
72 72 91
54 54 68
57 57 72
51 51 64
65 65 82
62 62 79
62 62 79
57 57 73
51 51 64
51 51 64
51 51 64
57 57 72
67 67 85
61 61 77
67 67 85
51 51 64
65 65 82
76 76 97
70 70 88
62 62 79
70 70 88
62 62 79
70 70 88
44 44 56
55 55 69
54 54 68
54 54 68
44 44 56
57 57 72
70 70 88
51 51 64
44 44 56
72 72 91
70 70 88
60 60 76
60 60 76
72 72 91
54 54 68
65 65 82
54 54 68
57 57 72
61 61 76
54 54 68
57 57 72
51 51 64
60 60 76
62 62 79
70 70 88
57 57 72
62 62 79
54 54 68
57 57 72
65 65 82
60 60 75
57 57 72
63 63 79
69 68 86
71 71 89
62 62 79
65 65 82
62 62 79
44 44 56
65 65 82
67 67 85
51 51 65
60 60 75
54 54 68
57 57 72
62 62 79
65 65 82
72 72 91
57 57 72
65 65 82
54 54 68
54 54 68
76 76 97
65 65 82
62 62 79
57 57 72
60 60 75
40 40 51
74 74 94
88 88 112
55 55 69
65 65 82
54 54 68
60 60 75
47 47 60
65 65 82
65 65 82
65 65 82
76 76 97
72 72 91
48 48 61
72 72 91
74 74 94
67 67 85
70 70 88
54 54 68
77 77 97
60 60 75
51 51 65
70 70 88
72 72 91
63 63 79
68 68 86
74 74 94
54 54 68
73 73 92
70 70 88
54 54 68
76 76 97
65 65 82
72 72 91
60 60 75
57 57 72
70 70 88
57 57 72
65 65 82
76 76 97
70 70 88
44 44 56
60 60 75
54 54 68
47 47 60
74 74 94
62 62 79
51 51 65
70 70 88
70 70 88
54 54 69
67 67 86
74 74 94
70 70 88
60 60 75
65 65 82
70 70 88
60 60 75
76 76 97
60 60 75
76 76 97
71 71 89
44 44 56
62 62 79
67 67 85
74 73 92
74 74 94
60 60 76
66 66 83
62 62 79
70 70 88
67 67 85
51 51 64
51 51 64
67 67 85
66 66 84
65 65 82
76 76 97
58 58 73
58 58 75
60 60 75
40 40 51
57 57 72
62 62 79
60 60 75
70 70 89
60 60 76
72 72 91
76 76 97
65 65 82
44 44 56
54 54 68
40 40 51
65 65 82
67 67 85
54 54 68
65 65 83
54 54 69
63 63 79
60 60 75
65 65 82
44 44 56
63 63 80
57 57 72
72 72 91
65 65 82
51 51 65
54 54 68
54 54 69
62 62 79
74 74 94
44 44 56
58 58 73
51 51 64
52 52 66
57 57 72
65 65 82
51 51 64
51 51 64
57 57 72
72 72 91
44 44 56
57 57 72
41 41 52
54 54 69
64 63 80
65 65 82
67 67 85
63 63 80
54 54 68
44 44 56
65 65 82
54 54 68
59 58 73
60 60 75
62 62 79
36 36 46
70 70 88
60 60 75
51 51 64
54 54 68
72 72 91
67 67 85
36 36 47
67 67 85
82 82 104
65 65 82
57 57 72
54 54 68
67 67 85
47 47 60
60 60 76
54 54 68
62 62 79
54 54 68
62 62 79
47 47 60
40 40 51
40 40 51
36 36 45
40 40 51
60 60 76
44 44 56
60 60 75
44 44 56
60 60 75
51 51 64
57 57 72
47 47 60
67 67 85
57 57 72
44 44 56
44 44 56
51 51 64
62 62 79
54 54 68
60 60 75
44 44 56
36 36 45
65 65 82
54 54 68
67 67 85
40 40 51
57 57 72
44 44 56
57 57 72
51 51 64
54 54 68
51 51 64
54 54 68
51 51 64
47 47 60
63 63 80
54 54 68
36 36 45
47 47 60
33 33 40
55 55 68
44 44 56
51 50 62
44 44 56
51 51 64
36 36 45
36 36 45
36 36 45
47 47 60
45 45 57
31 31 39
40 40 51
65 65 82
47 47 60
47 47 60
41 41 52
60 60 75
36 36 45
44 44 56
51 51 64
36 36 46
40 40 51
57 57 72
36 36 45
54 54 69
36 36 45
47 47 60
25 25 32
40 40 51
62 61 77
40 40 51
44 44 56
36 36 45
31 31 39
44 44 56
18 18 22
44 44 56
54 54 68
47 47 60
65 65 82
47 47 60
60 60 75
47 48 60
54 54 68
62 62 79
36 36 45
41 41 52
51 51 64
60 60 75
47 47 60
65 65 82
54 54 68
31 31 39
47 47 60
54 54 68
70 70 88
51 51 64
62 62 79
51 51 64
54 54 68
31 31 39
54 54 69
57 57 72
54 54 68
57 57 72
47 47 60
47 47 60
36 36 45
31 31 39
40 40 51
60 60 76
57 57 72
60 60 75
44 44 56
47 47 60
51 51 64
44 44 56
57 56 69
51 51 64
47 47 60
47 47 60
60 60 75
48 48 60
44 44 56
44 44 56
31 31 39
32 32 40
60 60 76
40 40 51
54 54 69
44 44 56
47 47 60
57 57 72
54 54 68
62 62 79
51 51 64
72 72 91
47 47 60
57 57 72
51 51 64
57 57 72
57 57 72
51 51 64
44 44 56
62 62 79
37 37 46
51 51 64
55 55 70
47 47 60
40 40 51
44 44 56
60 60 75
67 67 85
44 44 56
57 57 72
60 60 75
44 44 56
60 60 75
60 60 75
62 62 79
60 60 75
60 60 75
54 54 68
70 70 88
62 62 79
49 49 62
44 44 56
65 65 82
57 57 72
54 54 69
44 44 56
57 57 72
57 57 72
62 62 79
62 62 79
62 62 79
67 67 85
60 60 75
47 47 60
58 58 73
60 60 75
57 57 72
68 68 86
47 47 60
51 51 64
51 51 65
54 54 68
55 55 69
54 54 68
70 70 88
51 51 65
65 65 83
70 70 88
54 54 68
60 60 76
44 44 56
54 54 68
51 51 64
47 47 60
74 74 94
57 57 72
54 54 68
60 60 75
62 62 79
72 72 91
54 54 68
57 57 72
54 54 68
65 65 82
54 54 68
60 60 75
60 60 75
54 54 68
60 60 75
44 44 56
70 70 88
57 57 72
57 57 72
40 40 51
65 65 82
51 51 64
60 60 75
70 70 89
57 57 72
54 54 68
44 44 56
54 54 68
40 40 51
51 51 64
54 54 68
60 60 75
65 65 82
54 54 68
65 65 83
47 47 60
60 60 75
65 65 83
62 62 79
60 60 76
44 44 56
72 72 91
51 51 64
47 47 60
44 44 56
47 47 60
70 70 88
70 70 88
65 65 83
60 60 75
51 51 64
44 44 56
60 60 75
51 51 64
31 31 39
47 47 60
57 57 72
51 51 64
51 51 64
51 51 64
40 40 51
54 54 68
57 57 72
54 54 68
60 60 76
70 70 88
78 78 99
60 60 75
60 60 75
54 54 68
47 47 60
62 62 79
54 54 68
25 25 32
72 72 91
60 60 76
54 54 68
54 54 69
57 57 72
60 60 75
67 67 85
54 54 69
65 65 83
67 67 85
70 70 89
54 54 68
62 61 77
62 62 79
56 56 71
70 70 89
54 54 68
62 62 79
57 57 72
65 65 83
60 60 76
57 57 72
74 74 94
80 80 102
62 62 79
60 60 75
47 47 60
67 67 85
65 65 82
51 51 64
72 72 91
72 72 91
65 65 82
65 65 83
48 48 61
57 57 72
54 54 68
72 72 91
48 48 61
57 57 72
60 60 75
51 51 64
62 62 79
67 67 85
51 51 64
60 60 75
62 62 79
60 60 76
70 70 88
67 67 85
70 70 88
51 51 64
57 57 72
60 60 76
67 67 85
60 60 75
62 62 79
45 44 54
67 67 85
70 70 89
70 70 88
60 60 76
60 60 75
72 72 91
44 44 56
47 47 60
65 65 82
51 51 64
63 63 80
67 67 85
60 60 76
67 67 85
72 72 91
67 67 85
62 62 79
60 60 75
65 65 82
62 62 79
65 65 82
72 72 91
72 72 91
57 57 72
54 54 68
57 57 72
62 62 79
60 60 75
65 65 82
51 51 64
67 67 85
67 67 85
57 57 72
51 51 64
65 65 82
54 54 69
57 57 72
57 57 72
62 62 79
62 62 79
70 70 88
48 48 60
62 62 79
65 65 82
51 51 65
54 54 68
78 78 99
54 54 68
65 65 82
65 65 82
47 47 60
51 51 64
55 54 67
57 57 72
54 54 68
47 47 60
51 51 65
70 70 88
40 40 51
40 40 51
53 52 66
74 74 94
47 47 60
31 31 39
47 47 60
60 60 75
44 44 56
51 51 64
57 57 72
65 65 82
44 44 56
54 54 68
44 44 56
51 51 64
57 57 72
60 60 75
44 44 56
51 51 64
60 60 76
54 54 68
51 51 64
62 62 79
36 36 45
47 47 60
60 60 75
58 58 73
44 44 56
40 40 51
36 36 45
51 51 64
47 47 60
47 47 60
62 62 79
54 54 68
60 60 76
60 60 76
54 54 68
47 47 60
47 47 60
47 47 60
51 51 64
51 51 64
62 62 79
51 51 65
32 32 41
51 51 65
44 44 56
51 51 64
44 44 56
57 57 72
44 44 56
51 51 64
48 48 61
47 47 60
25 25 32
40 40 51
31 31 39
36 36 45
40 40 51
57 57 72
57 57 72
44 44 56
44 44 56
40 40 51
44 44 56
54 54 68
52 52 65
47 47 60
31 31 39
40 40 51
40 40 51
36 36 45
54 54 68
40 40 51
51 51 64
51 51 64
36 36 46
36 36 45
40 40 51
40 40 51
44 44 56
18 18 22
33 33 42
36 36 45
32 32 40
40 40 51
31 31 39
60 60 76
67 67 85
51 51 64
57 57 72
40 40 51
47 46 57
48 48 61
51 51 64
47 47 60
51 51 64
51 51 64
54 54 68
70 70 88
54 54 68
47 47 60
44 44 56
54 54 68
54 54 68
36 36 45
40 40 51
51 51 65
44 44 56
67 67 85
40 40 51
60 60 75
47 47 60
51 51 64
65 65 82
70 70 88
40 40 51
36 36 45
51 51 64
44 44 56
44 44 56
54 54 68
57 57 72
62 62 79
47 47 60
44 44 56
44 44 56
44 44 56
54 54 69
70 70 88
44 44 56
54 54 69
47 47 60
44 44 56
65 65 82
57 57 72
44 44 56
60 60 76
47 47 60
44 44 56
44 44 56
60 60 75
47 47 60
62 62 79
44 44 56
47 47 60
51 51 64
44 44 56
60 60 75
47 47 60
54 54 68
54 54 68
47 47 60
62 62 79
31 31 39
44 44 56
71 70 89
47 47 60
66 66 83
44 44 56
57 57 72
51 51 64
51 51 65
62 62 79
47 47 60
44 44 56
51 51 64
57 57 73
52 52 66
36 36 45
40 40 51
72 72 91
44 44 56
62 62 79
60 60 75
57 57 72
65 65 83
57 57 72
65 65 82
57 57 72
67 67 86
67 67 85
62 62 79
44 44 56
51 51 64
60 60 75
47 47 60
47 47 60
57 57 72
54 54 68
51 51 64
65 65 83
62 62 79
51 51 64
65 65 83
57 57 72
60 60 75
36 36 45
54 54 68
47 47 60
47 47 60
57 57 72
57 57 72
57 57 72
51 51 64
51 51 64
62 62 79
72 72 91
60 60 75
65 65 82
65 65 82
44 44 56
62 62 79
72 72 91
47 47 60
51 51 64
51 51 64
40 40 51
57 57 72
54 54 68
60 60 75
62 62 79
67 67 85
51 51 65
51 51 64
67 67 85
47 47 60
67 67 85
57 57 72
51 51 64
74 74 94
60 60 75
69 69 86
54 54 68
74 74 94
54 54 68
62 62 79
47 47 60
67 67 85
57 57 72
44 44 56
54 54 68
65 65 82
62 62 79
51 51 65
62 62 79
54 54 68
51 51 65
60 60 75
36 36 45
70 70 88
51 51 64
51 51 64
54 54 68
65 65 82
60 60 75
57 57 72
47 47 60
62 62 79
51 51 65
65 65 82
60 60 75
51 51 64
60 60 75
51 51 65
47 47 60
60 60 76
62 62 79
57 57 72
62 62 79
40 40 51
51 51 64
47 47 60
67 67 85
47 47 60
40 40 51
65 65 82
36 36 45
37 37 47
40 40 51
70 70 88
54 54 68
65 65 82
44 44 56
26 26 34
62 62 79
67 67 85
44 44 56
51 51 64
60 60 75
65 65 82
72 72 91
32 32 41
70 70 88
54 54 68
62 62 79
60 60 75
51 51 64
57 57 72
67 67 85
76 76 97
54 54 68
62 62 79
51 51 64
52 52 65
36 36 45
51 51 64
62 62 79
60 60 75
54 53 66
57 57 72
47 47 60
65 65 82
70 70 88
51 51 64
65 65 83
60 60 75
43 42 53
68 68 86
54 54 68
54 54 68
62 62 79
51 51 64
54 54 69
63 63 80
67 67 85
58 58 73
72 72 91
70 70 88
57 57 72
54 54 69
57 57 72
51 51 64
72 72 91
51 51 64
62 62 79
44 44 56
57 57 72
47 47 60
72 72 91
47 47 60
51 51 64
70 70 88
68 68 86
67 67 85
57 57 72
60 60 75
67 67 85
52 52 66
66 66 83
40 40 51
65 65 82
70 70 88
62 62 79
67 67 85
44 44 56
51 51 64
51 51 64
70 70 88
57 57 72
51 51 64
51 51 64
65 65 82
54 54 69
60 60 76
72 72 91
67 67 85
74 74 94
54 54 68
72 72 91
57 57 72
51 51 64
51 51 65
36 36 45
60 60 76
44 44 56
51 51 64
60 60 75
60 60 76
51 51 64
47 47 60
40 40 51
60 60 75
47 47 60
62 62 79
57 57 72
60 60 75
54 54 68
57 57 72
55 55 69
60 60 75
58 58 73
51 51 64
47 47 60
51 51 64
47 47 60
60 60 75
57 57 72
57 57 72
54 54 68
60 60 75
44 44 56
57 57 72
44 44 56
51 51 64
44 44 56
44 44 56
36 36 45
60 60 75
57 57 72
44 44 56
47 47 60
47 47 60
54 54 68
65 65 82
65 65 82
47 47 60
51 51 64
47 47 60
51 51 64
36 36 45
51 51 64
40 40 51
44 44 56
47 47 60
47 47 60
51 51 64
25 25 32
31 31 39
31 31 39
44 44 56
47 47 60
54 54 68
31 31 39
31 31 39
40 40 51
44 44 56
36 36 45
51 51 64
45 45 58
47 47 60
47 47 60
57 57 72
44 44 56
67 67 85
36 36 45
54 54 69
40 40 51
44 44 56
54 54 68
41 41 52
40 40 51
51 51 64
51 51 64
44 44 56
36 36 46
40 40 51
47 47 60
57 57 72
47 47 60
54 54 68
40 40 51
36 36 45
44 44 56
44 44 56
31 31 39
36 36 45
57 57 72
47 47 60
44 44 56
54 54 68
48 48 61
54 54 68
44 44 56
40 40 51
40 40 51
44 44 56
47 47 60
44 44 56
54 54 68
40 40 52
18 18 22
40 40 51
47 47 60
36 36 45
60 60 75
40 40 51
31 31 39
36 36 45
40 40 51
40 40 51
57 57 72
25 25 32
51 51 64
65 65 82
40 40 51
44 44 56
57 57 72
54 54 68
47 47 60
31 31 39
44 44 56
60 60 75
40 40 51
57 57 72
57 57 72
60 60 76
44 44 56
47 47 60
44 44 56
51 51 64
44 44 56
67 67 85
40 40 51
36 36 45
51 51 64
47 47 60
52 52 65
57 57 72
54 54 68
54 54 68
51 51 64
54 54 68
31 31 39
65 65 82
54 54 68
47 47 60
47 47 60
67 67 85
60 60 76
51 50 62
44 44 56
51 51 64
31 31 39
44 44 56
54 54 68
44 44 56
60 60 75
51 51 64
44 44 56
47 47 60
51 51 64
57 57 72
62 62 79
65 65 82
51 51 64
54 54 68
62 62 79
47 47 60
47 47 60
67 67 85
54 54 68
40 40 51
62 62 79
49 48 61
62 62 79
36 36 45
54 54 68
54 54 68
51 51 65
44 44 56
48 48 60
60 60 75
54 54 68
70 70 89
44 44 56
65 65 82
51 51 64
49 48 61
51 51 64
57 57 72
47 47 60
47 47 60
74 74 94
57 57 72
40 40 51
60 60 75
57 57 72
62 62 79
51 51 64
70 70 88
62 62 79
60 60 75
47 47 60
50 48 61
40 40 51
78 78 99
72 72 91
57 56 69
54 54 68
65 65 82
60 60 75
54 54 68
57 57 72
65 65 82
47 47 60
57 57 72
31 31 39
47 47 60
51 51 64
65 65 82
51 51 64
31 31 39
40 40 51
48 48 61
51 51 64
54 54 68
77 77 97
70 70 88
67 67 85
40 40 51
62 62 79
57 57 72
47 47 60
60 60 75
67 67 85
57 57 72
47 47 60
62 62 79
63 63 80
57 57 72
62 62 79
36 36 45
44 44 56
47 47 60
63 63 79
62 62 79
62 62 79
57 57 72
47 47 60
60 60 75
44 44 56
57 57 72
57 57 72
57 57 72
44 44 56
51 51 64
72 72 91
51 51 64
60 60 77
51 51 64
65 65 82
57 57 72
54 54 68
31 31 39
54 54 68
51 51 64
51 51 64
65 65 82
56 56 72
67 67 85
65 65 82
57 57 72
57 57 72
60 60 75
60 60 75
67 67 85
44 44 56
51 51 64
65 65 82
67 67 85
54 54 68
54 54 68
51 51 64
60 60 75
60 60 75
65 65 82
58 58 73
57 57 72
51 51 64
62 62 79
63 63 80
54 54 68
40 40 51
51 51 64
60 60 75
48 48 60
57 57 72
62 62 79
44 44 56
40 40 51
62 62 79
62 62 79
74 74 94
65 65 82
62 62 79
70 70 89
74 74 94
60 60 75
55 55 69
51 51 64
60 60 75
57 57 72
44 44 56
47 47 60
60 60 75
54 54 68
47 47 60
60 60 75
65 65 83
67 67 85
51 51 64
51 51 64
54 54 69
72 72 91
57 57 72
67 67 85
53 53 67
65 65 82
67 67 85
70 70 88
57 57 72
70 70 89
60 60 75
54 54 68
47 47 60
54 54 68
76 76 97
67 67 85
51 51 64
44 44 56
44 44 56
47 47 60
70 70 88
47 47 60
76 76 97
54 54 68
48 48 61
40 40 51
51 51 64
60 60 75
47 47 60
54 54 68
45 45 57
62 62 79
62 62 79
65 65 83
65 65 82
65 64 80
57 57 72
51 51 64
57 57 72
58 58 73
44 44 56
62 62 79
47 47 60
72 72 91
54 54 68
54 54 68
78 78 99
72 72 91
65 65 82
57 57 72
62 62 79
62 62 79
51 51 64
44 44 56
57 57 72
32 32 41
57 57 72
70 70 88
40 40 51
54 54 68
60 60 75
44 44 56
54 54 68
51 51 64
62 62 79
57 57 72
60 60 75
50 49 61
25 25 32
47 47 60
60 60 75
44 44 56
54 54 68
62 62 79
54 54 68
57 57 73
51 51 64
57 57 72
47 47 60
57 57 72
44 44 56
57 57 72
36 36 45
51 50 62
40 40 51
51 51 64
61 61 77
40 40 51
47 47 60
65 65 82
70 70 88
41 40 48
57 57 72
31 31 39
54 54 68
47 47 60
63 63 79
36 36 45
54 54 68
65 65 82
60 60 75
51 51 64
57 57 72
57 57 72
44 44 56
57 57 72
57 57 72
49 48 60
40 40 51
47 47 60
54 54 68
54 54 68
47 47 60
41 41 52
62 62 79
44 44 56
44 44 56
60 60 76
44 44 56
47 47 60
67 67 86
62 62 79
62 62 79
25 25 32
51 51 64
47 47 60
44 44 56
51 51 64
65 65 82
44 44 56
60 60 76
44 44 56
54 54 68
40 40 51
47 47 60
48 48 61
54 54 68
47 47 60
51 51 64
40 40 51
40 40 51
55 55 69
48 48 61
40 40 51
51 51 64
44 44 56
40 40 51
31 31 39
41 41 51
62 62 79
25 25 32
57 57 73
57 57 72
40 40 51
57 57 72
62 62 79
36 36 45
18 18 22
36 36 45
48 48 62
36 36 45
40 40 51
26 26 34
36 36 45
36 36 46
40 40 51
54 54 69
31 31 39
36 36 45
44 44 56
51 51 64
32 32 41
25 25 32
31 31 39
36 36 45
37 37 47
40 40 51
40 40 51
27 27 35
36 36 45
36 36 45
31 31 39
47 47 60
47 47 60
44 44 56
57 57 72
57 57 72
54 54 68
62 62 79
47 47 60
57 57 72
54 54 68
51 51 64
44 44 56
36 36 45
44 44 56
51 51 64
44 44 56
54 54 68
55 55 70
57 57 72
51 51 64
44 44 56
54 54 68
51 51 64
47 47 60
47 47 60
51 51 64
31 31 40
44 44 56
51 51 64
47 47 60
51 51 64
51 51 64
36 36 46
59 59 75
36 36 46
40 40 51
60 60 76
54 54 68
47 47 60
57 57 72
60 60 75
60 60 76
62 62 79
44 44 56
51 51 64
62 62 79
51 51 64
54 54 68
60 60 75
57 57 72
60 60 76
47 47 60
51 51 64
51 51 64
57 57 72
36 36 45
40 40 51
36 36 45
44 44 56
47 47 60
57 57 72
40 40 51
65 65 83
67 67 85
47 47 60
51 51 64
60 60 76
44 43 53
44 44 56
54 54 69
51 51 64
57 57 72
51 51 64
31 31 39
44 44 56
51 51 64
54 54 68
44 44 56
47 47 60
51 51 64
51 51 65
51 51 64
60 60 75
65 65 82
47 47 60
44 44 56
40 40 51
60 60 75
47 47 60
57 57 72
54 54 68
62 62 79
57 57 72
44 44 56
62 62 79
60 60 76
40 40 51
57 57 72
62 62 79
54 54 68
51 51 64
57 57 72
54 54 68
67 67 85
57 57 72
54 54 68
47 47 60
60 60 75
54 54 68
47 47 60
36 36 45
51 51 64
54 54 68
51 51 64
65 65 82
51 51 64
47 47 60
62 62 79
47 47 60
47 46 57
60 60 75
51 51 64
31 31 39
54 54 69
47 47 60
51 51 64
44 44 56
57 57 72
40 40 51
62 62 79
47 47 60
47 47 60
60 60 75
44 44 56
51 51 65
57 57 72
60 60 75
54 54 68
44 44 56
51 51 64
31 31 39
54 54 68
60 60 75
51 51 64
55 55 69
68 67 85
47 47 60
62 62 79
54 54 68
60 60 76
62 62 79
44 44 56
57 57 72
47 47 60
60 60 75
67 67 85
51 51 64
57 57 72
54 54 68
74 74 94
47 47 60
40 40 51
60 60 75
67 67 85
65 65 83
40 40 51
60 60 75
62 62 79
57 57 72
74 74 94
57 57 73
54 54 68
62 62 79
40 40 51
60 60 75
59 58 72
62 62 79
57 57 72
39 38 48
51 51 64
51 51 65
44 44 56
62 62 79
51 51 64
54 54 68
67 67 85
57 57 72
70 70 88
65 65 82
62 62 77
57 57 72
54 54 68
54 54 68
51 51 64
74 74 94
60 60 75
74 74 94
74 74 94
54 54 68
57 57 73
54 54 68
74 74 94
57 57 72
44 44 56
65 65 82
54 54 68
57 57 72
54 54 68
57 57 72
62 62 79
67 67 85
57 57 72
54 54 68
59 58 73
60 60 75
60 60 75
51 51 64
62 62 79
65 65 82
62 62 79
51 51 64
74 73 93
74 74 94
68 68 86
76 76 97
57 57 72
67 67 85
53 53 66
51 51 64
54 54 68
76 76 97
54 54 69
60 60 75
51 51 65
60 60 75
44 44 56
65 65 82
67 67 85
44 44 56
47 47 60
63 63 80
60 60 76
62 62 79
62 62 79
44 44 56
47 47 60
40 40 51
57 57 72
62 62 79
44 44 56
70 70 88
47 47 60
60 60 76
60 60 76
54 54 68
65 65 82
51 51 64
60 60 76
65 65 82
54 54 68
47 47 60
51 51 64
48 48 62
40 40 51
65 65 82
62 62 79
51 51 64
65 65 82
62 62 79
65 65 82
57 57 72
65 65 82
40 40 51
54 54 68
47 47 60
41 41 52
54 54 68
57 57 72
54 54 68
67 67 85
48 48 61
62 62 79
40 40 51
41 41 52
60 60 75
25 25 32
40 40 51
60 60 75
47 47 60
62 62 79
51 51 64
57 57 72
54 54 68
57 57 72
51 51 65
60 60 76
62 62 79
58 58 73
54 54 68
51 51 65
31 31 40
60 60 76
47 47 60
51 51 65
51 51 64
60 60 75
57 57 73
51 51 64
44 44 56
47 47 60
62 62 79
51 51 64
36 36 45
36 36 46
51 51 64
47 47 60
60 60 75
40 40 51
55 55 70
54 54 68
44 44 56
47 47 60
51 51 64
54 54 68
31 31 39
60 60 75
44 44 56
51 51 66
54 54 69
36 36 46
18 18 22
36 36 45
51 51 64
40 40 51
57 57 72
57 57 72
47 47 60
51 51 64
47 47 60
68 68 86
44 44 56
31 31 39
62 62 79
44 44 56
47 47 60
51 51 64
44 44 56
36 36 45
40 40 51
54 54 68
40 40 51
47 47 60
47 47 60
44 44 56
36 36 45
44 44 56
47 47 60
44 44 56
47 47 60
65 65 82
44 44 56
36 36 45
36 36 45
47 47 60
31 31 39
44 44 56
51 51 64
47 47 60
40 40 51
54 54 68
25 25 32
44 44 56
54 54 68
51 51 64
44 44 57
36 36 45
40 40 51
51 51 64
0 0 0
40 40 51
36 36 45
44 44 56
36 36 45
51 51 64
36 36 45
44 44 56
40 40 51
40 40 51
47 47 60
40 40 51
31 31 39
36 36 45
6 6 8
51 51 64
41 41 52
31 31 39
40 40 51
51 51 65
40 40 51
31 31 39
51 51 64
49 49 62
40 40 51
44 44 56
25 25 32
48 48 61
40 40 51
54 54 68
40 40 51
62 62 79
65 65 82
25 25 32
47 47 60
47 47 60
60 60 75
54 54 68
54 54 68
57 57 72
40 40 51
60 60 75
51 51 64
47 47 60
54 54 68
40 40 51
44 44 56
54 54 68
40 40 51
54 54 68
44 44 56
62 62 79
60 60 77
44 44 56
47 47 60
40 40 51
72 72 91
31 31 40
44 44 56
40 40 51
44 44 56
48 48 60
67 67 85
60 60 76
51 51 64
67 67 85
62 62 79
38 38 50
57 57 72
60 60 77
67 67 85
51 51 64
60 60 75
31 31 39
60 60 75
48 48 60
60 60 75
54 54 68
54 54 68
62 62 79
54 54 68
57 57 72
31 31 39
57 57 72
31 31 39
47 47 60
54 54 68
54 54 68
62 62 79
62 62 79
51 51 64
40 40 51
44 44 56
51 51 64
51 51 64
62 62 79
47 47 60
47 47 60
54 54 68
51 51 64
51 51 64
57 57 72
60 60 76
51 51 64
51 51 64
47 47 60
31 31 39
51 51 64
62 62 79
57 57 72
62 62 79
54 54 68
60 60 75
51 51 64
51 51 64
57 57 72
44 44 56
65 65 82
67 67 85
62 62 79
44 44 56
47 47 60
57 57 72
51 51 64
47 47 60
65 65 82
65 65 82
54 54 68
62 62 79
65 65 82
51 51 64
34 34 45
65 65 82
51 51 64
67 67 85
51 51 64
40 40 51
51 51 64
54 54 69
47 47 60
57 57 72
47 47 60
51 51 64
54 54 68
47 47 60
51 51 64
63 63 80
51 51 64
65 65 82
51 51 64
40 40 51
51 51 64
67 67 85
62 62 79
62 62 79
40 40 51
57 57 72
62 62 79
54 54 69
25 25 32
60 60 75
60 60 75
54 53 66
62 62 79
44 44 56
47 47 60
47 47 60
57 57 72
57 57 72
54 54 68
51 51 64
54 54 68
51 51 64
72 72 91
70 70 88
54 54 68
51 51 64
51 51 64
62 62 77
47 47 60
49 49 62
62 62 79
54 54 68
44 44 56
55 55 69
51 51 64
54 54 68
54 54 68
51 51 64
54 54 68
67 67 85
62 62 79
51 51 64
60 60 75
60 60 75
67 67 85
65 65 83
54 54 68
54 54 69
51 51 64
36 36 45
47 47 60
54 54 68
62 62 79
36 36 45
54 54 68
47 47 60
48 48 61
62 62 79
54 54 68
67 67 85
57 57 72
54 54 68
80 80 102
47 47 60
62 62 79
54 54 68
51 51 65
57 57 72
54 54 68
62 62 79
57 57 72
57 57 72
47 47 60
61 61 77
49 49 62
48 48 60
60 60 75
57 57 72
60 60 75
44 44 56
66 66 83
57 57 72
47 47 60
62 62 79
62 62 79
54 54 68
63 63 80
76 76 97
54 54 68
62 62 79
51 51 64
74 74 94
54 54 68
62 62 79
54 54 68
70 70 88
65 65 82
52 52 65
62 62 79
36 36 45
57 57 72
60 60 75
51 51 64
36 36 45
47 47 60
41 41 52
51 51 64
54 54 68
51 51 64
60 60 76
54 54 68
60 60 75
62 62 79
62 62 79
57 57 72
62 62 79
65 65 82
57 57 72
60 60 75
70 70 88
62 62 79
60 60 75
44 44 56
51 51 65
54 54 68
62 62 79
54 54 68
31 31 39
44 44 56
57 57 72
54 54 69
51 51 64
60 60 75
67 67 85
54 54 68
54 54 68
48 48 60
36 36 45
57 57 72
51 51 64
51 51 64
47 47 60
57 57 72
44 44 56
57 57 72
60 60 75
60 60 75
47 47 60
51 51 64
44 44 56
54 54 68
60 60 76
62 62 79
47 47 60
47 47 60
62 62 79
51 51 64
67 67 85
51 51 64
47 47 60
60 60 75
60 60 75
31 31 40
36 36 46
72 72 91
65 65 82
44 44 56
47 47 60
60 60 75
40 40 51
51 51 64
65 65 82
51 51 64
54 54 68
40 40 51
44 44 56
61 61 77
67 67 85
36 36 45
47 47 60
45 45 57
57 57 72
54 54 68
51 51 64
60 60 75
47 47 60
47 47 60
54 54 68
47 47 60
60 60 75
51 51 64
36 36 45
44 44 56
62 62 79
37 37 47
44 44 56
40 40 51
36 36 45
65 65 82
36 36 45
44 44 56
40 40 51
47 47 60
58 58 74
57 57 72
60 60 75
47 47 60
60 60 75
36 36 45
51 51 64
47 47 60
36 36 45
57 57 72
54 54 68
54 54 69
58 57 73
36 36 45
40 40 51
57 57 72
31 31 39
47 47 60
51 51 65
36 36 45
51 51 64
47 47 60
54 54 68
36 36 45
44 44 56
36 36 46
65 65 82
60 60 75
25 25 32
44 44 56
36 36 45
44 44 56
44 44 56
36 36 45
40 40 51
51 51 64
40 40 51
47 47 60
47 47 60
44 44 56
40 40 51
47 47 60
44 44 56
47 47 60
31 31 39
54 54 68
44 44 56
40 40 51
36 36 45
36 36 45
40 40 51
36 36 45
40 40 51
18 18 22
25 25 32
47 47 60
47 47 60
31 30 35
47 47 60
0 0 0
18 18 22
44 44 56
18 18 22
22 21 25
57 57 72
36 36 45
25 25 32
54 54 68
47 47 60
44 44 56
47 47 60
44 44 56
57 57 72
40 40 51
54 54 68
40 40 51
60 60 75
44 44 56
54 54 68
59 58 73
31 31 39
40 40 51
47 47 60
47 47 60
54 54 68
47 47 60
51 51 64
54 54 68
36 36 45
51 51 64
25 25 32
36 36 45
48 48 61
54 54 68
51 51 64
47 47 60
51 51 64
51 51 64
54 52 65
54 54 68
57 57 72
25 25 32
54 54 68
40 40 51
54 54 68
60 60 75
47 47 60
62 62 79
54 54 68
51 51 64
62 62 79
44 44 56
40 40 51
44 44 56
57 57 72
54 54 68
51 51 64
51 51 64
47 47 60
67 67 85
36 36 45
44 44 56
40 40 51
36 36 45
31 31 39
51 51 64
67 67 85
51 51 64
44 44 56
44 44 56
54 54 68
40 40 51
62 62 79
60 60 75
52 52 66
36 36 45
65 65 82
44 44 56
36 36 46
44 44 56
40 40 51
67 67 85
44 44 56
57 57 72
54 54 68
51 51 64
65 65 82
51 51 64
60 60 75
36 36 46
65 65 82
36 36 45
54 54 68
40 40 51
40 40 51
40 40 51
54 54 68
67 67 85
51 51 64
47 47 60
65 65 82
51 51 64
51 51 64
54 54 69
44 44 56
54 54 68
60 60 75
60 60 75
44 44 56
51 51 64
57 57 72
51 51 64
44 44 56
51 51 64
47 47 60
67 67 85
51 51 64
65 65 83
62 62 79
51 51 64
65 65 82
70 70 88
54 54 68
54 54 68
40 40 51
40 40 51
40 40 51
54 54 68
65 65 82
57 57 72
47 47 60
54 54 68
63 63 79
51 51 64
51 51 64
57 57 72
51 51 64
51 51 64
54 54 68
36 36 45
51 51 64
47 47 60
57 57 73
62 62 79
44 44 56
40 40 51
70 70 88
51 51 65
60 60 75
54 54 68
57 57 72
54 54 68
67 67 85
51 51 64
51 51 64
36 36 45
57 57 72
47 47 60
51 51 64
57 57 72
47 47 60
51 51 64
65 65 82
51 51 64
47 47 60
46 45 57
65 65 82
47 47 60
51 51 64
62 62 79
57 57 72
57 57 72
57 57 72
67 67 85
67 67 85
70 70 87
65 65 82
36 36 47
47 47 60
67 67 85
59 59 75
57 57 72
51 51 64
40 40 51
47 47 60
57 57 72
65 65 82
54 54 68
60 60 75
72 72 91
51 51 64
67 67 85
60 60 75
70 70 88
62 62 79
65 65 82
51 51 64
44 44 56
62 62 79
44 44 56
57 57 72
51 51 64
67 67 85
54 54 68
60 60 75
54 54 68
54 54 68
41 41 52
57 57 72
65 65 82
57 57 72
62 62 79
40 40 51
60 60 76
54 54 68
57 57 72
60 60 75
40 40 51
76 76 97
60 60 75
78 78 99
62 62 79
40 40 51
60 60 75
47 47 60
57 57 72
51 51 64
44 44 56
51 51 64
55 55 70
54 54 68
47 47 60
44 44 56
60 60 75
44 44 56
47 47 60
40 40 51
70 70 89
51 51 64
47 47 60
65 65 82
32 32 40
54 54 68
44 44 56
54 55 68
31 31 39
57 57 72
54 54 68
67 67 85
54 54 68
79 79 100
67 67 85
51 51 65
44 44 56
70 70 88
54 54 68
40 40 51
57 57 72
60 60 75
60 60 75
47 47 60
62 62 79
31 31 39
47 47 60
40 40 51
48 48 60
63 63 80
60 60 75
62 62 79
67 67 85
65 65 82
70 70 88
51 51 64
47 47 60
62 62 79
57 57 72
57 57 72
65 65 82
40 40 51
57 57 72
40 40 51
62 62 79
62 62 79
44 44 56
44 44 56
60 60 76
36 36 45
40 40 51
44 44 56
40 40 51
60 60 75
60 60 76
65 65 82
54 54 68
54 54 68
57 57 72
40 40 51
49 49 62
44 44 56
67 67 85
54 54 68
62 62 79
55 55 70
47 47 60
74 74 94
46 46 56
44 44 56
51 51 64
37 37 47
40 40 51
51 51 64
60 60 75
63 63 80
51 51 65
57 57 73
57 57 72
51 51 65
40 40 51
44 44 56
44 44 56
62 62 79
60 60 75
47 47 60
57 57 72
47 47 60
40 40 51
47 47 60
36 36 45
57 57 72
47 47 60
36 36 45
44 44 56
57 57 72
47 47 60
31 31 39
47 48 61
51 51 64
44 44 56
47 47 60
57 57 72
36 36 45
44 44 56
31 31 39
51 51 64
48 48 60
51 51 65
62 62 79
36 36 45
40 40 51
48 48 61
44 44 56
36 36 45
36 36 45
44 44 56
40 40 51
44 44 56
31 31 39
44 44 56
44 44 56
31 31 39
44 44 56
26 26 34
44 44 57
40 40 51
51 51 65
40 40 51
57 57 72
47 47 60
40 40 51
36 36 45
47 47 60
48 48 61
47 47 60
30 28 34
51 51 64
40 40 51
54 54 68
40 40 51
31 31 39
54 54 68
51 51 64
31 31 39
40 40 51
36 36 45
40 40 51
31 31 39
31 31 39
31 31 40
47 47 60
40 40 51
40 40 51
18 18 22
48 48 61
25 25 32
40 40 51
40 40 51
25 25 32
25 25 32
31 31 39
36 36 45
44 44 57
44 44 56
36 36 45
18 18 22
18 18 22
25 25 32
31 31 39
40 40 51
47 47 60
44 44 56
51 51 64
44 44 56
57 57 72
40 40 51
47 47 60
36 36 45
60 60 76
44 44 56
62 62 79
60 60 75
31 31 39
54 54 68
44 44 56
44 44 56
54 54 68
44 44 56
48 48 61
57 57 72
61 61 78
51 51 64
32 32 40
47 47 60
48 47 58
47 47 60
31 31 39
44 44 56
57 57 72
44 44 56
40 40 51
44 44 56
57 57 72
44 44 56
47 48 60
47 47 60
51 51 64
47 47 60
25 25 32
36 36 45
36 36 45
54 54 68
48 48 60
62 62 79
44 44 56
51 51 64
54 54 68
60 60 75
40 40 51
60 60 75
51 51 64
60 60 75
40 40 51
60 60 75
44 44 56
62 62 79
51 51 64
44 44 56
40 40 51
40 40 51
54 54 68
57 57 72
37 37 48
31 31 39
60 60 76
54 54 68
44 44 56
63 63 79
57 57 72
51 51 65
47 47 60
47 47 60
51 51 64
51 51 64
44 44 56
44 44 56
47 47 60
54 54 68
36 36 46
54 54 68
47 47 60
31 31 40
40 40 51
64 64 81
62 62 79
65 65 82
40 40 51
57 57 72
41 41 52
54 54 69
68 68 86
51 51 64
57 57 72
44 44 56
51 51 64
47 47 60
60 60 75
57 57 72
47 47 60
40 40 51
51 51 64
54 54 68
51 51 64
44 44 56
44 44 56
65 65 82
57 57 72
40 40 51
51 51 64
36 36 45
54 54 68
36 36 45
40 40 51
57 57 70
54 54 68
44 44 56
36 36 45
51 51 64
62 62 79
65 65 82
51 51 64
54 54 68
44 44 56
40 40 51
57 57 72
31 31 39
40 40 51
66 66 83
60 60 75
57 57 73
60 60 75
47 47 60
47 47 60
57 57 72
57 57 72
47 47 60
44 44 56
70 70 89
65 65 82
65 65 82
65 65 83
74 74 94
51 51 64
62 62 79
44 44 56
44 44 56
47 47 60
54 54 68
44 44 56
40 40 51
65 65 82
44 44 56
47 47 60
44 44 56
54 54 68
54 54 68
47 47 60
51 51 65
72 72 91
51 51 64
40 40 51
44 44 56
51 51 65
61 60 76
54 54 68
60 60 75
47 47 60
47 47 60
54 54 68
60 60 75
51 51 64
57 57 72
57 57 72
65 65 82
40 40 51
65 65 82
47 47 60
44 44 56
54 54 68
47 47 60
55 55 70
57 57 72
72 72 92
57 57 72
62 62 79
40 40 51
72 72 91
51 51 64
51 51 64
60 60 75
70 70 88
31 31 39
70 70 88
62 62 79
60 60 75
57 57 72
54 54 68
57 57 72
54 54 68
57 57 72
66 65 83
65 65 82
62 62 79
60 60 75
57 57 72
60 60 75
31 31 39
65 65 82
51 51 64
60 60 75
54 54 68
44 44 56
65 65 83
68 68 86
62 62 79
62 62 79
55 55 70
62 62 79
55 55 69
65 65 82
25 25 32
44 44 56
36 36 47
54 54 68
57 57 72
62 62 79
47 48 60
57 57 72
70 70 88
57 57 72
60 60 75
51 51 64
47 47 60
57 57 72
44 44 56
40 40 51
52 52 65
73 72 92
47 47 60
51 51 64
44 44 56
31 31 40
57 57 72
67 67 85
51 51 65
55 55 69
47 47 60
44 44 56
60 60 75
74 74 94
57 57 72
62 62 79
54 54 68
62 62 79
51 51 64
54 54 68
62 62 79
40 40 51
47 47 60
44 44 56
70 70 88
57 57 72
40 40 51
60 60 75
36 36 45
44 44 56
62 62 79
51 51 64
54 54 68
54 54 68
40 40 51
60 60 75
47 47 60
51 51 64
54 54 68
55 55 69
51 51 64
62 62 79
57 57 72
47 47 60
31 31 39
36 36 45
48 48 61
36 36 45
31 31 40
47 47 60
62 62 79
47 47 60
40 40 51
36 36 45
62 62 79
54 54 68
51 51 64
51 51 65
60 60 76
54 54 68
57 57 73
2 1 5
37 37 46
44 44 56
40 40 51
44 44 56
52 52 65
31 31 39
44 44 56
51 51 64
60 60 75
44 44 56
60 60 75
54 54 68
62 62 79
44 44 56
60 60 75
44 44 56
36 36 45
55 55 69
47 47 60
60 60 75
44 44 56
62 62 79
70 70 88
51 51 64
44 44 56
40 40 51
47 47 60
51 51 64
54 54 68
36 36 46
70 70 88
40 40 51
51 51 64
62 62 79
33 33 41
25 25 32
54 54 69
47 47 60
57 57 72
40 40 51
57 57 72
36 36 45
57 57 72
47 47 60
62 62 79
44 44 56
40 40 51
47 47 60
52 52 65
47 47 60
51 51 64
40 40 51
62 62 79
57 57 72
51 51 64
44 44 56
36 36 45
31 31 39
62 62 79
42 42 53
51 51 64
40 40 51
18 18 22
51 51 64
32 32 41
18 18 22
31 31 39
36 36 45
40 40 51
31 31 39
40 40 51
51 51 64
40 40 51
40 40 51
44 44 56
25 25 32
40 40 51
44 44 56
44 44 56
47 47 60
25 25 32
40 40 51
44 44 57
44 44 56
31 31 39
36 36 45
32 32 39
0 0 0
47 47 60
31 31 39
36 36 45
57 57 72
36 36 45
41 41 52
44 44 56
40 40 51
0 0 0
44 44 56
36 36 45
18 18 22
25 25 32
36 36 45
31 31 39
51 51 64
25 25 32
51 51 64
31 31 39
51 51 64
54 54 68
47 47 60
40 40 51
36 36 45
36 36 45
44 44 56
47 47 60
44 44 56
55 55 69
25 25 32
51 51 64
40 40 51
44 44 56
51 51 64
36 36 45
44 44 56
36 36 45
31 31 39
44 44 56
47 47 60
40 40 51
60 60 75
54 54 68
25 25 32
44 44 56
51 51 64
67 67 85
41 41 52
31 31 39
40 40 51
51 51 64
54 54 68
40 40 51
54 54 68
47 47 60
37 37 46
62 62 79
18 18 22
47 47 60
54 54 68
57 57 72
51 51 64
60 60 75
44 44 56
51 51 64
36 36 46
40 40 51
47 47 60
54 54 68
47 47 60
54 54 68
40 40 51
44 44 56
47 47 60
54 54 68
51 51 64
51 51 64
57 57 72
47 47 60
44 44 56
51 51 64
54 54 68
31 31 39
60 60 75
57 57 72
47 47 60
47 47 60
51 51 64
51 51 64
51 51 64
36 36 45
70 70 89
51 51 64
60 60 75
40 40 51
47 47 60
36 36 45
54 54 69
51 51 64
40 40 51
57 57 72
44 44 56
54 54 68
47 47 60
36 36 45
40 40 51
40 40 51
51 51 64
51 51 64
47 47 60
57 57 72
57 57 72
47 47 60
44 43 52
60 60 75
57 57 72
40 40 51
40 40 51
47 47 60
70 70 88
62 62 79
44 44 56
65 65 82
51 51 64
51 51 64
47 47 60
44 44 56
54 54 68
54 54 68
48 48 60
31 31 39
40 40 51
47 47 60
60 60 75
57 57 72
47 47 60
57 57 72
70 70 88
51 51 64
25 25 32
65 65 83
54 54 69
38 38 50
40 40 51
40 40 51
65 65 82
31 31 39
51 51 64
60 60 77
47 47 60
54 54 68
40 40 51
54 54 68
74 74 94
57 57 72
65 65 82
47 47 60
51 51 64
54 54 68
47 47 60
60 60 75
44 44 56
57 57 72
51 51 64
54 54 69
40 40 51
40 40 51
57 57 72
54 54 68
60 60 75
54 54 68
36 36 45
62 62 79
47 47 60
57 57 72
74 74 94
51 51 64
31 31 39
60 60 75
63 63 79
60 60 75
36 36 46
44 44 56
44 44 56
52 52 67
67 67 85
51 51 64
51 51 64
70 70 88
47 47 60
44 44 56
57 57 72
62 62 79
57 57 72
47 47 60
47 47 60
54 54 68
51 51 64
51 51 64
67 67 85
60 60 75
40 40 51
54 54 68
55 55 69
57 57 72
62 62 79
51 51 64
60 60 75
44 44 56
40 40 51
67 67 85
57 57 72
67 67 85
57 57 72
65 65 83
44 44 56
60 60 76
65 65 83
57 57 72
62 62 79
57 57 72
62 62 79
57 57 72
40 40 51
18 18 22
60 60 75
47 47 60
57 57 72
51 51 64
54 54 68
51 51 64
44 44 56
54 54 68
62 62 79
57 57 72
45 45 57
50 49 61
40 40 51
54 54 68
48 48 60
60 60 77
57 57 72
40 40 51
52 52 65
57 57 72
54 54 68
44 44 56
47 47 60
40 40 51
47 47 60
47 47 60
60 60 75
47 47 60
54 54 68
54 54 68
54 54 69
40 40 51
65 65 82
36 36 46
70 70 88
40 40 51
47 47 60
51 51 64
51 51 64
57 57 72
44 44 56
51 51 64
31 31 39
51 51 64
51 51 65
62 62 79
60 60 75
40 40 51
44 44 56
61 61 77
62 62 79
36 36 45
57 57 72
47 47 60
54 54 68
65 65 82
64 64 82
54 54 68
44 44 56
54 54 68
47 47 60
44 44 56
44 44 56
18 18 22
47 47 60
54 54 68
54 54 68
57 57 72
53 53 67
40 40 51
44 44 56
25 25 32
52 52 66
62 62 79
47 47 60
67 67 85
45 45 57
42 42 52
36 36 45
54 54 68
32 32 41
48 48 60
54 54 68
51 51 64
49 49 62
48 48 61
40 40 51
36 36 45
31 31 39
47 47 60
51 51 64
70 70 88
60 60 76
40 40 51
40 40 51
31 31 39
31 31 39
51 51 65
54 54 68
51 51 64
62 62 79
47 47 60
51 51 64
67 67 85
47 47 60
60 60 75
51 51 64
40 40 51
70 70 88
60 60 75
31 31 39
44 44 56
54 54 68
57 57 72
40 40 51
51 51 64
54 54 68
31 31 39
44 44 56
40 40 51
39 39 49
37 37 47
51 51 64
47 47 60
54 54 68
51 51 64
51 51 64
57 57 72
44 44 56
60 60 75
57 57 72
40 40 51
47 47 60
31 31 39
25 25 32
51 51 64
36 36 45
7 7 8
31 31 39
18 18 22
36 36 45
31 31 39
54 54 68
40 40 51
25 25 32
40 40 51
31 31 39
36 36 45
45 45 56
51 51 64
51 51 64
37 37 47
31 31 39
36 36 45
36 36 45
37 37 47
31 31 39
47 47 60
36 36 45
47 47 60
51 51 64
47 47 60
3 3 2
51 51 64
60 60 75
51 51 64
31 31 39
47 47 60
36 36 45
40 40 51
44 44 56
31 31 39
19 19 24
44 44 56
40 40 51
31 31 39
40 40 51
40 40 51
36 36 45
18 18 22
40 40 51
40 40 51
40 40 51
54 54 68
0 0 3
60 60 75
36 36 45
47 47 60
25 25 32
44 44 56
57 57 72
54 54 68
36 36 45
44 44 56
40 40 51
40 40 51
40 40 51
57 57 72
48 48 61
47 47 60
31 31 39
44 44 56
54 54 68
48 48 60
40 40 51
44 44 56
44 44 56
57 57 72
36 36 45
44 44 56
18 20 25
40 40 51
44 44 56
40 40 52
36 36 45
47 47 60
54 54 68
47 47 60
31 31 39
54 54 68
57 57 72
47 47 60
44 44 56
60 60 75
25 25 32
36 36 45
31 31 39
60 60 75
52 51 65
47 47 60
51 51 64
47 47 60
44 44 56
47 47 60
54 54 69
54 54 68
40 40 51
51 51 64
40 40 51
49 49 62
57 57 72
51 51 64
40 40 51
25 25 32
54 54 68
40 40 51
47 47 60
40 40 51
67 67 85
44 44 56
44 44 56
57 57 72
36 36 45
25 25 32
54 54 68
44 44 56
44 44 56
54 54 68
47 47 60
57 57 72
51 51 64
54 54 68
18 18 22
47 47 60
54 54 68
54 54 68
44 44 56
54 54 68
36 36 46
44 44 56
62 62 79
36 36 45
54 54 68
36 36 46
54 54 68
51 51 64
31 31 39
44 44 56
60 60 75
54 54 68
57 57 72
54 54 68
51 51 64
31 31 39
44 44 56
44 44 56
57 57 72
54 54 68
57 57 72
45 45 57
54 54 68
40 40 51
51 51 64
44 44 56
44 44 56
70 70 88
51 51 64
44 44 56
65 65 82
36 36 46
40 40 51
57 57 72
40 40 51
44 44 56
65 65 82
47 47 60
65 65 82
57 57 72
57 57 72
51 51 64
47 47 60
47 47 60
54 54 68
44 44 56
51 51 64
57 57 72
44 44 56
47 47 60
60 60 75
51 51 64
44 44 56
36 36 45
51 51 64
41 41 52
51 51 65
47 47 60
56 55 69
65 65 82
44 44 56
54 54 68
60 60 75
65 65 82
31 31 39
62 62 79
52 50 63
36 36 45
48 48 61
44 44 56
54 54 68
36 36 45
36 36 45
51 51 64
60 60 76
44 44 56
47 47 60
36 36 46
51 51 64
65 65 82
40 40 51
51 51 64
51 51 64
47 47 60
65 65 82
44 44 56
44 44 56
60 60 75
44 44 56
44 44 56
44 44 56
51 51 64
51 51 64
62 62 79
47 47 60
40 40 51
51 51 64
36 36 46
44 44 56
57 57 72
27 27 34
51 50 62
51 51 64
40 40 51
47 47 60
60 60 75
54 54 68
47 47 60
60 60 76
51 51 64
54 54 68
47 47 60
57 57 72
51 51 64
67 67 85
57 57 72
45 45 57
60 60 75
44 44 56
57 57 72
57 57 72
47 47 60
44 44 56
51 51 64
54 54 68
40 40 51
36 36 45
44 44 56
47 47 60
40 40 51
51 51 64
47 47 60
51 51 64
60 60 75
51 51 64
31 31 39
47 47 60
44 44 56
57 57 72
62 62 79
60 60 76
70 70 88
44 44 56
36 36 45
62 62 79
47 47 60
44 44 56
65 65 82
60 60 75
44 44 56
67 67 85
61 61 77
51 51 64
65 65 82
65 65 82
70 70 88
58 57 72
62 62 79
60 60 75
70 70 88
54 54 68
47 47 60
40 40 51
47 47 60
25 25 32
40 40 51
40 40 51
47 47 60
31 31 39
65 65 82
72 72 91
54 54 69
31 31 39
47 47 60
31 31 39
51 51 64
58 58 75
69 69 86
59 60 74
51 51 64
72 72 91
57 57 72
31 31 39
31 31 39
60 60 75
54 54 68
57 57 72
57 57 72
54 54 68
51 51 64
47 47 60
51 51 64
51 51 64
51 51 64
51 51 64
40 40 51
40 40 51
60 60 75
44 44 56
36 36 45
51 51 64
57 57 72
47 47 60
47 47 60
70 70 88
40 40 51
51 51 64
42 42 53
60 60 76
36 36 45
45 45 57
44 44 56
57 57 72
60 60 75
60 60 75
47 47 60
60 60 75
36 36 45
54 54 68
51 51 64
44 44 56
41 41 52
41 41 52
40 40 51
36 36 45
47 47 60
67 67 85
51 51 64
36 36 45
51 51 64
48 48 60
47 47 60
54 54 69
62 62 79
45 45 56
44 44 56
40 40 51
57 57 72
51 51 64
51 51 64
33 33 41
54 54 68
54 54 68
51 51 64
60 60 75
51 51 64
36 36 45
40 40 51
47 47 60
44 44 56
54 54 68
44 44 56
44 44 56
18 18 22
32 32 41
36 36 45
39 39 49
47 47 60
45 45 57
57 57 72
51 51 65
44 44 56
40 40 51
42 41 52
51 51 64
60 60 75
54 54 68
31 31 39
36 36 45
54 54 68
47 47 60
19 19 23
57 57 72
57 57 72
44 44 56
47 47 60
63 63 79
51 51 64
31 31 39
40 40 51
31 31 39
57 57 72
44 44 56
40 40 51
51 51 64
40 40 51
31 31 39
36 36 45
40 40 51
47 47 60
31 31 39
44 44 56
57 57 72
40 40 51
54 54 68
25 25 32
44 44 56
25 25 32
36 36 45
44 44 56
40 40 51
31 31 39
25 25 32
27 27 34
31 31 39
31 31 39
37 37 47
31 31 39
40 40 51
47 47 60
47 47 60
31 31 39
18 18 22
25 25 32
51 51 65
47 47 60
36 36 45
31 31 40
40 40 51
31 31 39
51 51 64
40 40 51
51 51 64
31 31 39
67 67 85
40 40 51
47 47 60
40 40 51
36 36 45
57 57 72
40 40 51
31 31 39
31 31 39
57 57 72
40 40 51
44 44 56
47 47 60
54 54 68
40 40 51
54 54 68
54 54 68
44 44 56
44 44 56
54 54 68
40 40 51
51 51 64
51 51 64
36 36 45
65 65 82
31 31 39
59 58 73
47 47 60
47 47 60
45 45 57
40 40 51
55 55 69
44 44 56
51 51 64
40 40 51
44 44 56
40 40 51
65 65 82
54 54 68
62 62 79
44 44 56
57 57 72
0 0 0
40 40 51
47 47 60
31 31 39
47 47 60
47 47 60
54 54 68
54 54 68
47 47 60
27 27 34
54 54 69
47 47 60
60 60 75
51 51 64
47 47 60
40 40 51
44 44 56
47 47 60
40 40 51
31 31 39
51 51 64
47 47 60
44 44 56
47 47 60
44 44 56
31 31 39
47 47 60
47 47 60
54 54 68
40 40 51
47 47 60
51 51 64
57 57 72
44 44 56
44 44 56
62 62 79
48 48 62
40 40 51
40 40 51
60 60 75
51 51 64
54 54 68
40 40 51
54 54 68
54 54 68
36 36 45
67 67 85
51 51 64
54 54 68
51 51 64
68 68 86
40 40 51
51 51 64
47 47 60
51 51 64
31 31 39
47 47 60
51 51 64
44 44 56
62 62 79
51 51 64
47 47 60
58 58 73
51 51 64
31 31 39
36 36 45
44 44 56
51 50 62
60 60 75
62 62 79
67 67 85
51 51 64
70 70 88
47 47 60
47 47 60
31 31 39
40 40 51
54 54 68
60 60 75
44 44 56
54 54 68
44 44 56
65 65 82
51 51 64
40 40 51
54 54 68
44 44 56
65 65 83
54 54 69
54 54 68
54 54 68
51 51 64
54 54 68
44 44 56
47 47 60
47 47 60
54 54 68
51 51 64
44 44 56
40 40 51
54 54 68
60 60 75
36 36 45
57 57 72
44 44 56
57 57 72
54 54 68
44 44 56
40 40 51
36 36 45
47 47 60
40 40 51
47 47 60
57 57 72
44 44 56
54 54 68
47 47 60
25 25 32
47 47 60
62 62 79
60 60 75
36 36 45
47 47 60
57 57 72
51 51 64
38 38 48
57 57 72
54 54 68
40 40 51
51 51 64
51 51 64
54 54 68
31 31 40
36 36 45
57 57 72
36 36 45
51 51 64
51 51 64
47 47 60
40 40 51
54 54 68
44 44 56
36 36 45
54 54 68
47 47 60
62 62 79
44 44 56
54 54 68
40 40 51
40 40 51
62 62 79
44 44 56
47 47 60
36 36 45
51 51 64
44 44 56
60 60 75
57 57 72
44 44 56
57 57 72
54 54 68
40 40 51
44 44 56
60 60 75
44 44 56
65 65 82
36 36 45
54 54 68
62 62 79
51 51 64
57 57 72
47 47 60
62 62 79
60 60 76
44 44 56
44 44 56
67 67 85
51 51 64
40 40 51
40 40 51
47 47 60
54 54 68
54 54 68
60 60 75
40 40 51
45 45 57
58 58 73
44 44 56
47 47 60
47 47 60
54 54 68
47 47 60
48 47 60
44 44 56
54 54 68
57 57 72
36 36 45
47 47 60
44 44 56
51 51 64
40 40 51
44 44 56
40 40 51
51 51 64
60 60 75
62 62 79
40 40 51
62 62 79
54 54 68
58 58 73
54 54 68
44 44 56
65 65 82
47 47 60
36 36 45
44 44 56
45 45 56
40 40 51
36 36 45
31 31 39
57 57 72
65 65 82
45 45 58
51 51 64
47 47 60
51 51 64
36 36 45
57 57 72
54 54 68
47 47 60
44 44 56
40 40 51
57 57 72
57 57 72
40 40 51
60 60 76
51 51 64
62 62 79
51 51 64
60 60 76
44 44 56
51 51 64
47 47 60
47 47 60
47 47 60
51 51 64
57 57 72
18 18 22
51 51 65
44 44 56
40 40 51
31 31 39
36 36 45
44 44 56
52 52 66
51 51 64
44 44 56
51 51 64
37 37 47
40 40 51
31 31 39
44 44 56
44 44 56
25 25 32
41 41 51
25 25 32
57 57 72
36 36 45
40 40 51
51 51 64
57 57 72
44 44 56
55 55 70
31 31 39
42 42 55
47 47 60
44 44 56
44 44 56
44 44 56
40 40 51
40 40 51
48 48 61
36 36 45
55 55 69
51 51 64
60 60 75
47 45 55
44 44 56
40 40 51
54 54 68
54 54 68
54 54 68
31 31 39
31 31 39
54 54 69
44 44 56
25 25 32
25 25 32
54 54 68
44 44 56
31 31 40
40 40 51
36 36 45
51 51 64
51 51 64
40 40 51
44 44 56
25 25 32
44 44 56
40 40 51
44 44 56
44 44 56
47 47 60
40 40 51
25 25 32
57 57 72
32 30 36
31 31 39
36 36 45
44 44 56
40 40 51
44 44 56
51 51 64
31 31 39
40 40 51
36 36 45
48 48 60
47 47 60
54 54 68
48 48 61
31 31 39
44 44 56
41 41 52
25 25 32
36 36 45
48 48 61
40 40 51
44 44 56
48 48 60
47 47 60
36 36 45
51 51 64
36 36 45
47 47 60
44 44 56
31 31 39
25 25 32
40 40 51
54 54 68
44 44 56
0 0 0
44 44 56
28 28 35
47 47 60
31 31 39
48 48 61
44 44 56
65 65 82
51 51 64
40 40 51
54 54 68
51 51 64
47 47 60
36 36 45
36 36 45
40 40 51
36 36 45
31 31 39
36 36 46
54 54 68
52 52 66
51 51 64
57 57 72
59 58 73
44 44 56
51 51 64
44 44 56
31 31 39
57 57 72
57 57 72
51 51 64
47 47 60
51 51 64
51 51 64
31 31 39
40 40 51
57 57 72
36 36 45
44 44 56
40 40 51
36 36 45
57 57 72
40 40 51
44 44 56
31 31 39
40 40 51
44 44 56
47 47 60
54 54 68
51 51 64
40 40 51
47 47 60
47 47 60
51 51 64
47 47 60
54 54 68
36 36 45
54 54 68
40 40 51
57 57 72
60 60 75
48 48 61
40 40 51
44 44 56
36 36 45
57 57 72
60 60 75
31 31 39
36 36 45
36 36 45
54 54 68
60 60 75
36 36 45
51 51 64
40 40 51
18 18 24
47 47 60
31 31 39
54 54 68
57 57 72
51 51 65
51 51 64
37 37 47
51 51 64
44 44 56
47 47 60
57 57 72
44 44 56
47 47 60
47 47 60
60 60 75
62 62 79
54 54 68
40 40 51
18 18 22
45 45 57
54 54 68
47 47 60
31 31 39
40 40 51
44 44 56
62 62 79
47 47 60
51 51 64
44 44 56
57 57 72
51 51 64
40 40 51
51 51 65
44 44 56
36 36 45
44 44 56
54 54 68
70 70 88
40 40 51
60 60 75
47 47 60
40 40 51
62 62 79
60 60 75
49 49 63
44 44 56
44 44 56
47 47 60
25 25 32
44 44 56
54 54 68
40 40 51
25 25 32
47 47 60
67 67 85
47 47 60
40 40 51
57 57 72
54 54 68
57 57 72
47 47 60
63 63 79
54 54 68
36 36 45
47 47 60
48 48 61
47 46 57
57 57 72
47 47 60
60 60 75
42 42 53
47 47 60
60 60 75
54 54 68
42 41 52
63 63 80
40 40 51
60 60 75
40 40 51
67 67 85
57 57 72
44 44 56
40 40 51
47 47 60
51 51 64
60 60 75
62 62 79
47 47 60
52 52 65
60 60 75
48 48 60
51 51 64
54 54 68
44 44 56
41 41 51
36 36 45
60 60 75
40 40 51
51 51 64
56 55 69
44 44 56
51 51 64
36 36 45
47 47 60
40 40 51
54 54 68
65 65 82
36 36 45
54 54 68
54 54 68
31 31 39
70 70 89
65 65 82
36 36 45
47 47 60
52 52 65
44 44 56
47 47 60
60 60 75
44 44 56
62 62 79
74 74 94
40 40 51
44 44 56
51 51 64
44 44 56
51 51 64
51 51 64
61 60 76
70 70 88
62 62 79
51 51 65
47 47 60
72 72 91
51 51 64
40 40 51
40 40 51
48 48 61
47 47 58
51 51 64
57 57 72
51 51 64
47 47 60
60 60 76
36 36 45
47 47 60
40 40 51
60 60 75
47 47 60
49 49 62
48 48 60
31 31 39
57 57 72
54 53 66
47 47 60
51 51 64
40 40 51
57 57 72
47 47 60
54 54 68
47 47 60
57 57 72
45 45 58
51 51 64
40 40 51
57 57 72
36 36 45
36 36 45
62 62 79
54 54 69
47 47 60
49 49 62
52 52 65
60 60 75
62 62 79
57 57 72
47 47 60
40 40 51
47 47 60
37 37 46
47 47 60
36 36 45
47 47 60
57 57 72
45 45 56
36 36 45
47 47 60
31 31 40
44 44 56
62 62 79
57 57 72
40 40 51
57 57 72
47 47 60
51 51 64
51 51 65
57 57 72
44 44 56
47 47 60
47 47 60
47 47 60
51 51 64
54 54 68
67 67 85
40 40 51
62 62 79
70 70 88
54 54 69
40 40 51
44 44 56
67 67 85
57 57 72
47 47 60
36 36 45
36 36 46
57 57 72
36 36 45
51 51 64
47 47 60
40 40 51
57 57 72
51 51 64
54 54 68
47 47 60
47 47 60
47 47 60
31 31 39
62 62 79
47 47 60
60 60 75
51 51 64
44 44 56
36 36 45
36 36 45
47 47 60
44 44 56
31 31 39
36 36 45
47 47 60
44 44 56
47 47 60
18 18 22
51 51 64
51 51 64
44 44 56
47 47 60
44 44 56
52 52 65
31 31 39
44 44 56
47 47 60
40 40 51
51 51 65
54 54 68
54 54 68
51 51 64
40 40 51
40 40 51
51 51 64
36 36 45
60 60 75
40 40 51
47 47 60
44 44 56
44 44 56
51 51 64
44 44 56
61 61 77
51 51 64
47 47 60
40 40 51
40 40 51
40 40 51
47 47 60
44 44 56
44 44 56
36 36 45
40 40 51
44 44 56
62 62 79
40 40 51
51 51 64
54 54 68
40 40 51
45 45 57
54 54 68
51 51 64
51 51 62
47 46 57
36 36 46
47 47 60
44 44 56
44 44 56
36 36 45
40 40 51
36 36 45
36 36 46
51 51 64
47 47 60
40 40 51
44 44 56
36 36 46
51 51 65
47 47 60
25 25 33
25 25 32
47 47 60
36 36 45
54 54 69
40 40 51
51 51 64
47 47 60
36 36 45
47 47 60
31 31 39
36 36 46
54 54 68
54 54 68
40 40 51
44 44 56
18 18 22
25 25 32
40 40 51
27 27 34
31 31 39
40 40 51
40 40 51
54 54 68
18 18 24
67 67 85
40 40 51
44 44 56
40 40 51
40 40 51
36 36 45
47 47 60
18 18 22
36 36 45
60 60 75
40 40 51
32 32 40
31 31 39
54 54 68
40 40 51
40 40 51
51 51 64
36 36 45
44 43 53
51 51 64
47 47 60
36 36 45
40 40 51
25 25 32
36 36 45
51 51 64
44 44 56
40 40 51
36 36 45
44 44 56
49 48 61
54 54 68
54 54 68
57 57 72
31 31 39
51 51 64
44 44 56
47 47 60
40 40 51
31 31 39
51 51 64
44 44 56
52 52 66
62 62 79
36 36 45
47 47 60
36 36 45
40 40 51
67 67 85
60 60 75
54 54 68
57 57 72
47 47 60
44 44 56
31 31 39
44 44 56
40 40 51
44 44 56
54 54 68
47 47 60
48 48 61
54 54 68
67 67 85
47 47 60
44 44 56
40 40 51
57 57 72
51 51 64
47 47 60
33 33 44
0 0 0
54 54 68
54 54 68
31 31 39
40 40 51
51 51 64
54 54 68
48 48 61
36 36 45
51 51 64
31 31 39
65 65 82
47 47 60
40 40 51
36 36 45
40 40 51
31 31 39
45 45 56
54 54 68
44 44 56
51 51 65
51 51 64
47 47 60
47 47 60
31 31 39
57 57 72
57 57 73
57 57 72
47 47 60
25 25 32
47 47 60
51 51 64
44 44 56
54 54 68
54 54 68
44 44 56
44 44 56
36 36 45
51 51 64
68 68 86
31 31 39
60 60 76
40 40 51
25 25 32
36 36 45
51 51 64
40 40 51
47 47 60
44 44 56
58 58 73
41 41 52
31 31 39
51 51 64
72 72 91
31 31 39
36 36 45
44 44 56
47 47 60
40 40 51
36 36 45
54 54 68
40 40 51
54 54 68
47 47 60
46 46 59
36 36 45
36 36 45
54 54 68
26 26 33
57 57 72
48 48 61
31 31 39
40 40 51
51 51 64
40 40 51
47 47 60
51 51 64
47 47 60
62 62 79
44 44 56
37 37 47
54 54 68
36 36 45
54 54 68
54 54 68
62 62 79
47 47 60
36 36 45
36 36 45
51 51 64
65 65 82
54 54 68
40 40 51
36 36 45
40 40 51
44 44 56
47 47 60
62 62 79
54 54 68
47 47 60
44 44 56
57 57 72
36 36 45
18 18 22
44 44 56
36 36 45
51 51 64
44 44 56
40 40 51
54 54 68
60 60 75
41 41 52
47 47 60
47 47 60
45 45 57
40 40 51
31 31 39
47 47 60
25 25 32
54 54 68
54 54 68
44 44 56
40 40 51
60 59 73
51 51 65
58 58 74
44 44 56
60 60 75
36 36 45
57 57 72
74 74 94
51 51 64
60 60 76
40 40 51
47 47 60
72 72 91
44 44 56
46 46 58
44 44 56
57 56 70
51 51 64
36 36 45
57 57 72
44 44 56
60 60 75
62 62 79
44 44 56
51 51 64
47 47 60
72 72 91
51 51 64
62 62 79
36 36 46
54 54 68
48 48 60
40 40 51
44 44 56
54 54 68
54 54 68
47 47 60
51 51 64
54 54 68
44 44 56
40 40 51
40 40 51
47 47 60
40 40 51
44 44 56
67 67 85
47 47 60
47 47 60
44 44 56
37 37 47
40 40 52
62 62 79
51 51 64
62 62 79
44 44 56
51 51 65
54 54 68
47 47 60
57 57 72
44 44 56
48 48 61
62 62 79
44 44 56
54 54 69
47 47 60
40 40 51
60 60 75
44 44 56
40 40 51
51 51 64
41 41 51
40 40 51
40 40 51
40 40 51
54 54 68
40 40 51
59 59 75
47 47 60
51 51 64
26 26 33
44 44 56
47 47 60
51 51 64
54 54 68
54 54 68
40 40 51
44 44 56
51 51 64
36 36 45
52 52 66
44 44 56
47 47 60
51 51 64
40 40 51
47 47 60
47 47 60
51 51 65
27 27 35
31 31 39
60 60 75
54 54 69
40 40 51
36 36 46
40 40 51
44 44 56
54 54 68
51 51 64
47 47 60
57 57 72
51 51 65
36 36 45
57 57 72
31 31 39
31 31 39
45 45 57
40 40 51
40 40 51
51 51 64
47 47 60
36 36 45
40 40 51
47 47 60
57 57 72
31 31 39
25 25 32
40 40 51
31 31 39
40 40 51
40 40 51
57 57 72
47 47 60
54 54 68
31 31 39
54 54 68
52 52 66
40 40 51
47 47 60
51 51 64
47 47 60
40 40 51
54 54 68
25 25 32
53 52 65
40 40 51
54 54 68
51 51 64
51 51 64
36 36 45
31 31 40
44 44 56
54 54 68
40 40 51
44 44 56
25 25 32
40 40 51
31 31 39
40 40 51
54 54 68
31 31 39
31 31 39
44 44 56
47 47 60
31 31 39
45 45 57
40 40 51
40 40 51
44 44 56
44 44 56
44 44 56
40 40 51
51 51 64
51 51 65
47 47 60
40 40 51
31 31 39
40 40 51
40 40 51
49 49 62
31 31 39
31 31 39
57 57 72
31 31 39
25 25 32
18 18 22
40 40 51
40 40 51
40 40 51
36 36 47
25 25 32
31 31 39
31 31 39
44 44 56
36 36 45
40 40 51
44 44 56
44 44 56
40 40 51
18 18 22
36 36 45
18 18 22
31 31 39
48 48 61
31 31 39
31 31 39
25 25 32
51 51 64
32 32 41
36 36 45
47 47 60
47 47 60
36 36 45
47 47 60
31 31 39
44 44 56
31 31 39
36 36 45
40 40 51
54 54 68
47 47 60
51 51 64
51 51 64
40 40 51
36 36 45
47 47 60
57 57 72
31 31 39
47 47 60
62 62 79
36 36 45
44 44 56
51 51 64
47 47 60
51 51 64
60 60 75
44 44 56
51 51 64
57 57 72
51 51 64
40 40 51
47 47 60
58 58 74
40 40 51
44 44 56
47 47 60
47 47 60
36 36 45
57 57 72
47 47 60
44 44 56
44 44 56
47 47 60
40 40 51
31 31 39
57 57 72
54 54 68
57 57 72
36 36 45
40 40 51
40 40 51
44 44 56
36 36 45
57 57 72
36 36 45
54 54 69
60 60 75
54 54 68
36 36 45
40 40 51
51 51 65
31 31 39
40 40 51
57 57 72
27 27 34
31 31 39
51 51 64
60 60 75
47 47 60
70 70 87
47 47 60
40 40 51
47 47 60
25 25 32
40 40 51
31 31 40
40 40 51
44 44 56
54 54 68
54 54 68
51 51 64
47 47 60
51 51 64
51 51 64
26 26 34
44 44 56
31 31 39
51 51 64
25 25 32
44 44 56
40 40 51
44 44 56
36 36 45
54 54 68
51 51 64
62 62 79
40 40 51
47 47 60
31 31 39
31 31 39
54 54 68
54 54 68
51 51 64
40 40 51
70 70 88
40 40 51
47 47 60
54 54 68
54 54 68
60 60 75
70 70 88
51 51 64
37 37 49
54 54 68
0 0 0
65 65 82
54 54 69
25 25 32
51 51 65
65 65 82
57 57 72
36 36 46
44 44 56
44 44 56
44 44 56
51 51 64
51 51 64
72 72 91
47 47 60
51 51 65
54 54 68
44 44 56
54 54 68
44 44 56
65 65 82
47 47 60
47 47 60
54 54 68
47 47 60
41 41 52
51 51 65
60 60 75
40 40 51
18 18 23
57 57 72
44 44 56
60 60 75
31 31 39
25 25 32
40 40 51
44 44 57
36 36 45
47 47 60
62 62 79
51 51 64
36 36 45
31 31 39
55 54 69
47 47 60
62 62 79
31 31 39
60 60 75
57 57 72
57 57 73
51 51 64
54 54 68
47 47 60
72 72 91
36 36 45
60 60 76
44 44 56
47 47 60
50 50 62
26 26 34
40 40 51
51 51 64
44 44 56
44 44 56
44 44 56
36 36 45
44 44 56
60 60 75
74 74 94
60 60 75
51 51 64
60 60 75
54 54 68
57 57 72
57 57 72
47 47 60
58 58 73
51 51 64
31 31 39
44 44 56
51 51 65
36 36 45
45 45 57
36 36 45
47 47 60
44 44 56
54 54 68
60 60 75
48 48 60
36 36 45
36 36 45
47 47 60
54 54 68
47 47 60
0 0 0
47 47 60
54 54 68
18 18 22
44 44 56
44 44 56
54 54 68
40 40 51
49 48 61
36 36 45
50 50 61
36 36 45
44 44 56
57 57 72
36 36 45
40 40 51
51 51 64
42 42 53
46 45 57
44 44 56
47 47 60
62 62 79
36 36 45
47 47 60
54 54 68
54 54 68
40 40 51
44 44 56
47 47 60
54 54 68
25 25 32
47 47 60
31 31 39
54 54 68
36 36 45
31 31 40
58 58 73
54 54 68
40 40 51
40 40 51
40 40 51
40 40 51
47 47 60
31 31 39
49 49 62
47 47 60
57 57 72
65 65 82
40 40 51
31 31 39
51 51 64
40 40 51
44 44 56
47 47 60
44 44 56
40 40 51
51 51 64
67 67 85
44 44 56
62 62 79
54 54 68
44 44 56
51 51 64
52 52 65
44 44 56
36 36 45
57 57 72
60 60 76
44 44 56
36 36 45
49 48 61
63 63 79
48 48 61
51 51 64
54 54 68
31 31 39
60 60 75
57 57 72
44 44 56
60 60 75
25 25 32
47 47 60
40 40 51
47 47 60
51 51 64
40 40 51
47 47 60
51 51 64
36 36 45
36 36 46
44 44 56
47 47 60
40 40 51
36 36 45
51 51 64
54 54 68
31 31 39
36 36 45
51 51 64
47 47 60
52 51 65
47 47 60
54 54 68
44 44 56
25 25 32
25 25 32
40 40 51
31 31 39
44 44 56
27 27 35
36 36 46
51 51 64
51 51 64
41 41 51
40 40 49
40 40 51
31 31 39
44 44 56
36 36 45
60 60 77
51 51 64
54 54 68
31 31 39
44 44 56
44 44 56
47 47 60
50 49 61
31 31 39
40 40 51
25 25 32
40 40 51
25 25 32
18 18 23
60 60 75
40 40 51
51 51 64
47 47 60
44 44 56
44 44 56
31 31 39
51 51 64
44 44 56
40 40 51
57 57 72
31 31 39
0 0 0
31 31 39
57 57 72
44 44 56
44 44 56
57 57 72
44 44 56
54 54 68
18 18 23
36 36 45
40 40 51
47 47 60
40 40 51
36 36 45
25 25 32
51 51 64
40 40 51
40 40 51
31 31 39
44 44 56
54 54 68
18 18 22
36 36 45
31 31 39
54 54 68
51 51 64
47 47 60
26 26 33
31 31 39
26 26 34
25 25 32
18 18 22
36 36 45
36 36 45
36 36 45
36 36 45
40 40 51
44 44 56
18 18 22
36 36 45
25 25 32
36 36 45
41 41 52
36 36 45
36 36 45
47 47 60
31 31 39
51 51 64
40 40 51
36 36 45
36 36 45
44 44 56
40 40 51
45 45 57
44 44 56
36 36 45
57 57 72
62 62 79
54 54 68
31 31 39
25 25 32
51 51 64
40 40 51
51 51 64
51 51 64
25 25 32
40 40 51
40 40 51
44 44 56
54 54 68
51 51 64
25 25 32
31 31 39
44 44 56
31 31 39
44 44 56
36 36 46
40 40 51
44 44 56
47 47 60
47 47 60
44 44 56
51 51 64
25 25 32
40 40 51
40 40 51
36 36 45
36 36 45
54 54 68
44 44 56
44 44 56
47 47 60
31 31 40
44 44 56
54 54 68
54 54 68
51 51 64
44 44 56
62 62 79
36 36 45
51 51 64
54 54 68
57 57 72
40 40 51
31 31 39
62 62 79
44 44 56
25 25 32
47 47 60
60 60 75
51 51 64
40 40 51
57 57 72
54 54 68
44 44 56
44 44 56
47 47 60
60 60 75
44 44 56
47 47 60
59 58 73
57 57 72
44 44 56
40 40 51
57 57 72
36 36 45
47 47 60
54 54 68
44 44 56
36 36 45
54 54 68
57 57 72
51 51 65
40 40 51
57 57 72
60 60 75
65 65 82
47 47 60
40 40 51
47 47 60
40 40 51
47 47 60
40 40 51
47 47 60
44 44 56
44 44 56
40 40 51
51 51 64
47 47 58
54 54 68
25 25 32
40 40 51
46 45 56
42 42 55
51 51 64
40 40 51
54 54 68
36 36 45
57 57 72
60 60 75
40 40 51
47 47 60
47 47 60
36 36 45
44 44 56
36 36 45
44 44 56
57 57 72
40 40 51
48 48 61
52 52 65
51 51 64
41 41 51
51 51 64
40 40 51
47 47 60
40 40 51
54 54 68
51 51 64
36 36 45
40 40 51
47 47 60
44 44 56
51 51 64
47 47 60
44 44 56
62 62 79
65 65 82
27 27 34
51 51 65
40 40 51
31 31 39
37 37 47
54 54 68
57 57 72
31 31 39
32 32 41
47 47 60
51 51 64
40 40 51
60 60 76
57 57 72
48 48 61
31 31 39
40 40 51
36 36 45
36 36 46
36 36 45
36 36 45
51 51 64
57 57 72
32 32 41
40 40 51
62 62 79
57 57 72
40 40 51
48 48 61
54 54 68
51 51 65
47 47 60
62 62 79
60 60 75
44 44 56
57 57 72
52 52 65
36 36 45
44 44 56
44 44 56
44 44 56
44 44 56
62 62 79
44 44 56
36 36 45
44 44 56
47 47 60
40 40 51
38 38 48
67 67 85
48 48 61
51 51 64
51 51 64
25 25 32
47 47 60
57 57 72
37 37 47
51 51 64
54 54 68
60 60 75
44 44 56
40 40 51
40 40 51
37 37 47
36 36 45
45 45 57
31 31 39
44 44 56
51 51 64
57 57 72
44 44 56
51 51 64
44 44 56
51 51 64
51 51 64
54 54 68
57 57 72
31 31 39
47 47 60
49 48 60
51 51 65
45 44 56
44 44 56
40 40 51
44 44 56
51 51 64
31 31 39
54 54 68
40 40 51
51 51 64
51 51 64
40 40 51
54 54 68
57 57 72
67 67 85
62 62 79
44 44 56
36 36 45
36 36 45
44 44 56
76 76 97
51 51 64
40 40 51
47 47 60
51 51 64
47 47 60
36 36 45
60 60 75
44 44 56
47 47 60
44 44 56
44 44 56
31 31 39
44 44 56
47 47 60
40 40 51
37 37 47
31 31 39
57 57 72
51 51 64
52 51 65
47 47 60
25 25 32
51 51 64
44 44 56
33 33 42
25 25 32
36 36 45
65 65 82
41 41 52
51 51 64
31 31 39
36 36 45
51 51 64
57 57 72
51 51 64
44 44 56
47 47 60
40 40 51
44 44 56
57 57 72
40 40 51
44 44 56
62 62 79
36 36 46
70 70 88
51 51 64
44 44 56
31 31 39
36 36 45
31 31 39
51 51 64
36 36 45
40 40 51
54 54 68
36 36 45
44 44 56
51 51 64
44 44 56
54 54 68
47 47 60
44 44 56
44 44 56
40 40 52
54 54 68
41 41 52
51 51 64
57 57 72
33 33 42
26 26 33
44 44 56
36 36 45
44 44 56
51 51 64
47 47 60
40 40 51
40 40 51
31 31 39
47 47 60
40 40 51
31 29 35
36 36 45
40 40 51
31 31 39
40 40 51
51 51 65
47 47 60
47 47 60
44 44 56
51 51 64
40 40 51
36 36 45
54 54 68
40 40 51
54 54 68
51 51 64
51 51 64
47 47 60
40 40 51
31 31 39
57 57 72
25 25 32
36 36 45
44 44 56
18 18 22
57 57 72
31 31 39
40 40 51
51 51 64
25 25 32
44 44 56
47 47 60
40 40 51
48 48 60
40 40 51
47 47 60
54 54 68
36 36 45
36 36 45
36 36 45
32 32 40
60 60 76
40 40 51
40 40 51
40 40 51
25 25 32
36 36 45
44 44 56
25 25 32
36 36 45
47 47 60
44 44 56
40 40 51
31 31 39
40 40 51
31 31 40
31 31 39
40 40 51
31 31 39
36 36 46
40 40 51
36 36 45
40 40 51
47 47 60
18 18 22
48 48 60
25 25 32
44 44 56
44 44 56
40 40 51
0 0 0
31 31 39
47 47 60
44 44 56
51 51 64
31 31 39
40 40 51
40 40 51
47 47 60
36 36 45
19 19 25
32 32 41
31 31 39
47 47 60
44 44 56
44 44 56
44 44 56
62 62 79
18 18 22
36 36 45
57 57 72
40 40 51
51 51 64
51 51 64
31 31 39
57 57 72
36 36 45
44 44 56
51 51 64
44 44 56
44 44 56
25 25 32
40 40 51
20 20 25
25 25 32
44 44 56
51 51 64
51 51 65
36 36 45
31 31 39
40 40 51
40 40 51
40 40 51
44 44 56
36 36 45
36 36 45
47 47 60
44 44 56
51 51 64
45 45 56
36 36 46
33 33 42
47 47 60
44 44 56
36 36 45
51 51 64
60 60 75
47 47 60
47 47 60
54 54 68
51 51 64
47 47 60
44 44 56
40 40 51
44 44 56
44 44 56
36 36 45
40 40 51
62 62 79
44 44 56
36 36 46
51 51 64
44 44 56
55 55 69
31 31 39
62 62 79
47 47 60
44 44 56
47 47 60
31 31 39
40 40 51
25 25 32
51 51 64
18 18 22
54 54 68
57 57 72
40 40 51
31 31 39
31 31 39
57 57 72
31 31 39
47 47 60
51 51 64
60 60 75
47 47 60
36 36 45
51 51 64
51 51 64
47 47 60
47 47 60
51 51 64
40 40 51
40 40 51
51 51 64
40 40 51
51 51 64
40 40 51
44 44 56
44 44 56
47 47 60
51 51 64
51 51 64
62 62 79
47 47 60
51 51 64
36 36 45
44 44 56
51 51 64
36 36 45
44 44 56
55 55 69
44 44 56
40 40 51
44 44 56
51 51 64
41 41 52
57 57 72
31 31 39
44 44 56
31 31 39
44 44 56
47 47 60
54 54 68
57 57 72
51 51 64
40 40 51
54 54 68
67 67 85
47 47 60
36 36 45
51 51 64
44 44 56
51 51 64
31 31 39
36 36 45
31 31 39
57 57 72
31 31 39
72 72 91
18 18 22
40 40 51
44 44 56
40 40 51
44 44 56
60 60 75
54 54 68
44 44 56
54 54 68
54 54 68
36 36 45
51 51 64
51 51 64
54 54 68
31 31 39
40 40 51
48 48 61
18 18 22
60 60 75
44 44 56
40 40 51
47 47 60
36 36 45
45 45 58
51 51 64
36 36 45
51 51 64
65 65 82
51 51 64
44 44 56
36 36 46
51 51 64
65 65 82
47 47 60
47 47 60
40 40 51
44 44 56
36 36 45
44 44 56
62 62 79
47 47 60
31 31 39
31 31 39
40 40 51
51 51 64
51 51 64
40 40 51
47 47 60
54 54 68
44 44 56
60 60 75
47 47 60
47 47 60
48 48 61
54 54 68
36 36 45
51 51 64
44 44 56
36 36 45
54 54 68
51 51 64
47 47 60
47 47 60
44 44 56
47 47 60
51 51 64
54 54 68
51 51 64
31 31 39
40 40 51
65 65 82
25 25 32
31 31 39
47 47 60
57 57 72
44 44 56
47 47 60
51 51 64
36 36 45
47 47 60
44 44 56
52 52 66
40 40 51
51 51 64
62 62 79
47 47 60
40 40 51
36 36 45
51 51 64
51 51 64
31 31 39
47 47 60
47 47 60
57 57 72
51 51 64
54 54 68
36 36 46
36 36 45
36 36 45
44 44 56
44 44 56
47 47 60
40 40 51
40 40 51
47 47 60
51 51 64
67 67 85
44 44 56
57 57 72
51 51 64
47 47 60
65 65 82
36 36 45
62 62 79
35 35 42
47 47 60
40 40 51
25 25 32
31 31 39
40 40 51
44 44 56
51 51 64
36 36 45
25 25 32
44 44 56
45 45 57
44 44 56
40 40 51
54 54 68
40 40 51
51 51 64
47 47 60
47 47 60
44 44 56
36 36 45
40 40 51
40 40 51
44 44 56
47 47 60
47 47 60
51 51 64
51 51 64
40 40 51
36 36 45
57 57 72
47 47 60
51 51 64
36 36 45
25 25 32
44 44 56
40 40 51
40 40 51
57 57 72
40 40 51
51 51 64
25 25 32
44 44 56
40 40 51
40 40 51
44 44 56
40 40 51
44 44 56
47 47 60
25 25 32
31 31 39
47 47 60
25 25 32
47 47 60
51 51 64
42 41 51
40 40 51
51 51 62
57 57 72
31 31 40
36 36 45
36 36 45
41 41 51
40 40 51
57 57 72
47 47 60
36 36 46
36 36 45
44 44 56
25 25 32
40 40 51
47 47 60
25 25 32
31 31 39
25 25 32
47 47 60
40 40 51
31 31 39
51 51 64
37 37 46
36 36 45
36 36 45
51 51 64
44 44 56
47 47 60
31 31 39
31 31 39
18 18 23
44 44 56
36 36 45
44 44 56
36 37 46
36 36 45
25 25 32
47 47 60
47 47 60
31 31 39
36 36 45
36 36 45
40 40 51
36 36 45
25 25 32
36 36 45
44 44 56
41 41 51
25 25 32
51 51 64
36 36 45
45 45 58
40 40 51
40 40 51
40 40 51
40 40 51
40 40 51
41 41 52
44 44 56
36 36 45
25 25 32
47 47 60
47 47 60
40 40 51
36 36 45
47 47 60
36 36 45
0 0 0
25 25 32
40 40 51
18 18 22
41 41 51
44 44 56
47 47 60
31 31 40
44 44 56
25 25 32
40 40 51
25 25 32
31 31 40
36 36 45
25 25 32
40 40 51
18 18 22
31 31 39
31 31 40
40 40 51
44 44 56
44 44 56
25 25 32
31 31 39
44 44 56
40 40 51
57 57 72
41 41 51
36 36 45
36 36 46
51 51 64
31 31 39
31 31 39
40 40 51
44 44 56
54 54 68
40 40 51
40 40 51
54 54 68
47 47 60
31 31 39
36 36 45
51 51 64
44 44 56
51 51 64
40 40 51
44 44 56
40 40 51
36 36 45
47 47 60
32 32 41
44 44 56
54 54 68
44 44 56
40 40 51
47 47 60
48 48 61
47 47 60
44 44 56
31 31 39
47 47 60
36 36 45
54 54 68
44 44 56
18 18 22
40 40 51
40 40 51
51 51 64
44 44 56
36 36 45
51 51 64
31 31 39
47 47 60
57 57 72
36 36 45
47 47 60
31 31 39
40 40 51
25 25 32
36 36 45
40 40 51
44 44 56
18 18 22
40 40 51
36 36 45
40 40 51
44 44 56
44 44 56
62 62 79
51 51 64
47 47 60
54 54 68
36 36 45
51 51 64
57 57 72
25 25 32
62 62 79
40 40 51
40 40 51
60 60 75
40 40 51
36 36 45
36 36 45
44 44 56
40 40 51
51 51 64
40 40 51
47 47 60
31 31 39
31 31 39
40 40 51
54 54 68
51 51 65
52 51 65
40 40 51
54 54 68
31 31 39
31 31 39
57 57 72
47 47 60
47 47 60
40 40 51
31 31 39
45 45 57
25 25 32
47 47 60
36 36 45
51 51 64
47 47 60
36 36 46
25 25 32
36 36 45
51 51 65
40 40 51
57 57 72
31 31 39
44 44 56
51 51 64
44 44 56
25 25 32
41 41 52
54 54 68
36 36 45
57 57 72
62 62 79
36 36 45
44 44 56
60 60 75
54 54 68
51 51 64
44 44 56
48 48 60
31 31 39
44 44 56
36 36 45
45 45 57
36 36 45
31 31 39
36 36 46
36 36 45
51 51 64
41 41 52
60 60 75
57 57 72
36 36 45
51 51 65
47 47 60
60 60 75
31 31 39
44 44 56
40 40 51
54 54 68
36 36 47
54 54 69
40 40 51
31 31 39
51 51 64
54 54 68
47 47 60
57 57 72
44 44 56
36 36 45
57 57 72
47 47 60
36 36 45
65 65 82
62 62 79
47 47 60
51 51 64
51 51 64
51 51 65
51 51 64
45 45 58
25 25 32
36 36 45
54 54 68
40 40 51
57 57 72
44 44 56
44 44 56
54 54 68
40 40 51
48 48 61
57 57 72
44 44 56
54 54 68
47 47 60
40 40 51
44 44 56
44 44 56
54 54 68
67 67 85
44 44 56
40 40 51
51 51 65
54 54 68
44 44 56
36 36 45
67 67 85
45 45 57
60 60 75
31 31 40
47 47 60
47 47 60
36 36 45
60 60 75
31 31 39
44 44 56
44 44 56
57 57 72
47 47 60
36 36 45
47 47 60
66 66 85
40 40 51
44 44 56
47 47 60
54 54 68
40 40 51
31 31 39
44 44 56
47 47 60
62 62 79
36 36 46
54 54 68
51 51 64
37 37 47
25 25 32
47 47 60
40 40 51
47 47 60
40 40 51
40 40 51
44 44 56
31 31 39
51 51 64
51 51 64
51 51 64
36 36 45
54 54 68
51 51 64
31 31 39
51 51 64
47 47 60
40 40 51
36 36 46
51 51 64
54 54 68
57 57 72
44 44 56
40 40 51
54 54 68
31 31 39
44 44 56
36 36 45
45 45 56
40 40 51
31 31 39
44 44 56
48 48 61
51 51 64
44 44 56
40 40 51
54 54 68
36 36 45
57 57 72
36 36 45
47 47 60
51 51 64
47 47 60
51 51 64
44 44 56
31 31 39
54 54 68
25 25 32
47 47 60
44 44 56
44 44 56
54 54 68
54 54 68
62 62 79
44 44 56
25 25 32
57 57 72
51 51 64
44 44 56
54 54 68
31 31 39
31 31 39
44 44 56
47 47 60
40 40 51
25 25 32
51 51 64
51 51 65
47 47 60
44 44 56
36 36 45
31 31 39
44 44 56
51 51 64
40 40 51
36 36 45
31 31 39
55 55 70
51 51 64
37 37 47
44 44 56
51 51 64
32 32 41
44 44 57
44 44 57
44 44 54
44 44 56
25 25 32
36 36 45
40 40 51
40 40 51
44 44 56
31 31 39
36 36 45
51 51 64
36 36 45
25 25 32
36 36 45
51 51 64
40 40 51
36 36 46
60 60 75
36 36 45
47 47 60
44 44 56
54 54 68
40 40 51
36 36 45
41 41 52
31 31 39
54 54 68
54 54 68
25 25 32
51 51 64
40 40 51
44 44 56
36 36 45
40 40 51
31 31 39
47 47 60
57 57 72
31 31 39
40 40 51
37 37 47
40 40 51
31 31 39
33 32 39
51 51 64
18 18 22
44 44 56
25 25 32
31 31 39
36 36 45
36 36 45
44 44 56
32 32 41
40 40 51
47 47 60
37 37 46
31 31 39
36 36 45
51 51 64
31 31 39
36 36 45
47 47 60
57 57 72
44 44 56
40 40 51
44 44 56
36 36 46
41 41 51
25 25 32
40 40 51
44 44 56
18 18 22
36 36 45
47 47 60
3 3 4
54 54 68
44 44 56
25 25 32
25 25 32
40 40 51
36 36 45
40 40 51
44 44 56
30 30 36
54 54 68
60 60 75
44 44 56
25 25 32
18 18 22
31 31 39
25 25 32
31 31 39
31 31 39
47 47 60
51 50 62
40 40 51
54 54 68
40 40 51
47 47 60
25 25 32
31 31 39
54 54 68
36 36 45
31 31 39
31 31 39
49 49 62
44 44 56
25 25 32
47 47 60
31 31 39
51 51 64
47 47 60
31 31 39
31 31 39
36 36 46
40 40 51
57 57 72
36 36 45
47 46 57
40 40 51
40 40 51
45 45 57
51 51 64
40 40 51
44 44 56
36 36 45
51 51 64
44 44 56
40 40 51
47 47 60
36 36 45
44 44 56
31 31 39
51 51 64
45 45 57
51 51 64
44 44 56
31 31 39
51 51 64
25 25 32
44 44 56
36 36 46
25 25 32
36 36 46
54 54 68
40 40 51
40 40 51
31 31 39
40 40 51
44 44 56
44 44 56
40 40 51
51 51 64
57 57 72
31 31 39
51 51 64
25 25 32
40 40 51
40 40 51
52 51 65
36 36 45
36 36 45
44 44 56
37 37 47
36 36 45
47 47 60
36 36 46
44 44 56
62 62 79
40 40 51
36 36 45
40 40 51
47 47 60
36 36 45
36 36 45
51 51 64
36 36 45
57 57 73
31 31 39
47 47 60
44 44 56
31 31 39
47 47 60
47 47 60
40 40 51
36 36 46
44 44 56
31 31 39
40 40 51
47 47 60
47 47 60
36 36 45
51 51 65
51 51 64
51 51 64
44 44 56
44 44 56
40 40 51
65 65 82
31 31 39
40 40 51
31 31 39
40 40 51
36 36 45
36 36 45
44 44 56
44 44 56
31 31 39
47 47 60
44 44 56
57 57 72
57 57 72
51 51 64
62 62 79
47 47 60
31 31 39
51 51 64
44 44 56
31 31 39
60 60 75
44 44 56
60 60 75
51 51 65
54 54 69
40 40 51
31 31 39
47 47 60
44 44 56
40 40 51
31 31 39
54 54 68
37 37 47
51 51 64
40 40 51
57 57 72
36 36 45
54 54 68
49 49 62
47 47 60
44 44 56
57 57 72
58 58 74
44 44 56
47 47 60
51 51 64
51 51 64
44 44 56
36 36 45
37 37 47
36 36 45
54 54 68
36 36 45
40 40 51
60 60 75
40 40 51
47 47 60
51 51 64
36 36 45
57 57 73
44 44 56
44 44 56
60 60 75
40 40 51
54 54 68
51 51 64
44 44 56
31 31 39
44 44 56
62 62 79
44 44 56
47 47 60
36 36 45
40 40 51
31 31 39
44 44 56
51 51 64
40 40 51
44 44 56
37 37 47
51 51 64
44 44 56
40 40 51
40 40 51
40 40 51
47 47 60
47 47 60
41 41 51
51 51 64
47 47 60
54 54 68
60 60 75
51 51 64
44 44 56
47 47 60
57 57 72
47 47 60
44 44 56
44 44 56
47 47 60
44 44 56
36 36 45
44 44 56
51 51 64
18 18 22
31 31 39
25 25 32
47 47 60
51 51 65
40 40 51
44 44 56
57 57 72
36 36 45
40 40 51
37 37 46
31 31 39
36 36 45
60 60 75
25 25 32
67 67 85
62 62 79
47 47 60
44 44 56
57 57 72
47 47 60
42 42 53
31 30 36
41 41 52
51 51 64
57 57 73
47 47 60
44 44 56
47 47 60
44 44 56
31 31 39
51 51 64
25 25 32
47 47 60
47 47 60
54 54 68
25 25 32
51 51 64
51 51 64
54 54 68
47 47 60
36 36 45
47 47 60
40 40 51
47 47 60
36 36 45
40 40 51
36 36 45
41 41 52
32 32 41
60 60 75
36 36 45
47 47 60
37 37 47
47 47 60
47 47 60
36 36 45
57 57 72
33 33 41
44 44 56
36 36 45
36 36 45
36 36 45
54 54 68
57 57 72
51 51 64
47 47 60
47 47 60
44 44 56
47 47 60
44 44 56
36 36 45
31 31 39
65 65 82
25 25 32
54 54 68
51 51 64
40 40 51
60 60 75
40 40 51
40 40 51
51 51 64
51 51 64
51 51 64
51 51 64
36 36 45
32 32 40
40 40 51
36 36 45
47 47 60
31 31 39
43 42 52
60 60 75
47 47 60
57 57 72
44 44 56
47 47 60
51 51 64
54 54 68
44 44 56
51 51 64
54 54 68
47 47 60
40 40 51
51 51 64
51 51 64
31 31 40
44 44 56
47 47 60
40 40 51
44 44 56
54 54 68
44 44 56
40 40 51
25 25 32
57 57 72
44 44 56
40 40 51
47 47 60
47 47 60
40 40 51
31 31 39
45 45 57
31 31 39
33 33 41
40 40 51
31 31 39
44 44 56
36 36 45
44 44 56
25 25 32
57 57 72
31 31 39
25 25 32
36 36 45
44 44 56
40 40 51
44 44 56
31 31 39
44 44 56
40 40 51
45 45 57
32 32 41
47 47 60
47 47 60
40 40 51
41 41 52
51 51 64
57 57 72
36 36 45
51 51 64
44 44 56
40 40 51
57 57 72
40 40 51
25 25 32
40 40 51
36 36 45
26 26 33
36 36 45
36 36 45
36 36 45
40 40 51
25 25 32
44 44 56
36 36 45
47 47 60
31 31 40
36 36 45
31 31 39
36 36 45
41 41 52
40 40 51
25 25 32
31 31 39
36 36 45
36 36 45
36 36 45
47 47 60
25 25 32
51 51 64
31 31 39
47 47 60
36 36 46
25 25 32
36 36 46
36 36 46
25 25 32
18 18 22
36 36 45
40 40 51
44 44 56
44 44 56
36 36 45
36 36 45
44 44 56
18 18 22
31 31 39
0 0 0
40 40 51
44 44 56
44 44 56
44 44 56
62 62 77
31 31 40
44 44 56
47 47 60
47 47 60
36 36 45
47 47 60
31 31 39
31 31 39
31 31 39
40 40 51
40 40 51
40 40 51
31 31 39
54 54 68
40 40 51
51 51 64
57 57 72
31 31 39
47 47 60
44 44 56
26 26 33
40 40 51
47 47 60
44 44 56
47 47 60
54 54 68
44 44 56
40 40 51
40 40 51
51 51 64
18 18 22
44 44 56
54 54 68
60 60 75
36 36 45
36 36 45
41 41 52
31 31 39
40 40 51
54 54 68
18 18 22
54 54 68
40 40 51
36 36 45
18 18 22
47 47 60
40 40 51
49 49 63
44 44 56
55 55 69
36 36 45
47 47 60
40 40 51
44 44 56
44 44 56
31 31 39
44 44 56
60 60 75
54 54 68
48 48 60
51 51 64
36 36 46
51 51 64
51 51 64
36 36 45
51 51 64
60 60 75
51 51 64
57 57 72
40 40 51
62 62 79
44 44 56
44 44 56
54 54 68
54 54 68
62 62 79
31 31 39
54 54 68
36 36 45
44 44 57
18 18 22
54 54 68
51 51 64
40 40 51
47 47 60
54 54 68
40 40 51
57 57 72
44 44 56
58 58 73
47 47 60
44 44 56
36 36 46
51 51 64
54 54 68
36 36 45
40 40 51
36 36 45
60 60 75
31 31 39
42 41 52
51 51 64
44 44 56
54 54 68
40 40 51
31 31 39
44 44 56
44 44 56
47 47 60
47 47 60
67 67 85
31 31 39
54 54 68
60 60 75
37 37 47
40 40 51
36 36 46
40 40 51
44 44 56
31 31 39
51 51 64
54 54 68
40 40 51
25 25 32
40 40 51
57 57 72
51 51 64
36 36 45
54 54 68
65 65 82
62 62 79
44 44 56
47 47 60
49 49 62
44 44 56
47 47 60
60 60 75
72 72 91
57 57 72
31 31 39
50 50 64
40 40 51
44 44 56
40 40 51
51 51 64
44 44 56
44 44 56
18 18 22
36 36 45
36 36 45
40 40 51
44 44 56
62 62 79
47 47 60
40 40 51
31 31 39
36 36 45
36 36 46
57 57 72
31 31 39
47 47 60
44 44 56
47 47 60
62 62 79
51 51 64
58 58 73
62 62 79
38 38 48
31 31 39
47 47 60
44 44 56
40 40 51
44 44 56
44 44 56
25 25 32
57 57 72
51 51 64
47 47 60
36 36 45
62 62 79
31 31 39
54 54 68
51 51 64
51 51 64
47 47 60
47 47 60
36 36 45
40 40 51
40 40 51
31 31 39
54 54 68
40 40 51
47 47 60
40 40 51
40 40 51
37 37 46
62 62 79
36 36 45
47 47 60
64 64 80
44 44 56
47 47 60
51 51 64
47 47 60
40 40 51
60 60 75
40 40 51
31 31 39
31 31 39
44 44 56
44 44 56
32 32 41
47 47 60
54 54 68
63 63 79
25 25 32
51 51 64
62 62 79
54 54 68
57 57 72
47 47 60
25 25 32
36 36 45
52 52 66
36 36 46
40 40 51
40 40 51
31 31 39
51 51 64
67 67 85
44 44 56
40 40 51
40 40 51
47 47 60
47 47 60
40 40 51
40 40 51
54 54 68
31 31 39
25 25 32
36 36 46
44 44 56
31 31 39
57 57 72
36 36 45
51 51 64
65 65 82
44 44 56
40 40 51
45 45 57
60 60 75
54 54 68
31 31 39
47 47 60
57 57 72
47 47 60
54 54 68
36 36 45
40 40 51
47 47 60
32 32 41
57 57 72
40 40 51
31 31 39
57 57 72
40 40 51
54 54 68
40 40 51
40 40 51
47 47 60
40 40 51
44 44 56
48 48 61
45 45 57
44 44 56
44 44 56
53 52 65
36 36 46
47 47 60
51 51 64
44 44 56
31 31 39
40 40 51
54 54 68
40 40 51
40 40 51
54 54 68
47 47 60
40 40 51
44 44 56
40 40 51
47 47 60
44 44 56
47 46 57
57 57 72
44 44 56
47 47 60
18 18 22
40 40 51
36 36 45
51 51 64
57 57 72
31 31 40
51 51 64
44 44 56
31 31 39
31 31 39
31 31 39
31 31 39
47 47 60
40 40 51
44 44 56
40 40 51
58 58 73
47 47 60
36 36 45
25 25 32
36 36 45
47 47 60
40 40 51
51 51 64
51 51 64
40 40 51
47 47 60
40 40 51
44 44 56
47 47 60
31 31 39
47 47 60
36 36 43
54 54 68
40 40 51
47 47 60
31 31 39
31 31 39
32 32 40
65 65 82
44 44 56
54 54 68
40 40 51
31 31 39
40 40 51
25 25 32
31 31 39
18 18 22
47 47 60
36 36 45
18 18 22
31 31 39
18 18 22
44 44 56
36 36 45
37 37 48
31 31 39
44 44 56
40 40 51
36 36 45
40 40 51
31 31 39
54 54 68
40 40 51
25 25 32
51 51 64
44 44 56
36 36 46
40 40 51
31 31 39
36 36 46
40 40 51
32 32 41
25 25 32
44 44 56
31 31 39
36 36 45
40 40 51
25 25 32
40 40 51
18 18 22
40 40 51
47 47 60
47 47 60
36 36 45
38 38 50
31 31 39
47 47 60
47 47 60
40 40 51
44 44 56
51 51 64
18 18 22
40 40 51
40 40 51
44 44 56
44 44 56
48 48 61
47 47 60
51 51 64
36 36 46
40 40 51
36 36 45
40 40 51
36 36 45
36 36 46
31 31 39
36 36 45
45 45 57
54 54 68
40 40 51
54 54 66
62 62 79
40 40 51
54 54 68
25 25 32
36 36 45
40 40 51
31 31 39
47 47 60
36 36 45
25 25 32
19 19 25
25 25 32
25 25 32
37 36 46
44 44 56
31 31 39
36 36 45
40 40 51
44 44 56
31 31 39
37 37 47
54 54 68
47 47 60
31 31 39
40 40 51
51 51 64
47 47 60
47 47 60
47 47 60
40 40 51
36 36 45
36 36 45
44 44 56
36 36 45
54 54 68
47 47 60
40 40 51
40 40 51
67 67 85
42 41 52
41 41 52
47 47 60
36 36 45
54 54 68
51 51 64
44 44 56
31 31 39
47 47 60
40 40 51
40 40 51
44 44 54
40 40 51
40 40 51
65 65 82
47 47 60
36 36 45
54 54 68
36 36 45
47 47 60
47 47 60
57 57 72
40 40 51
62 62 79
31 31 39
31 31 39
44 44 56
25 25 32
40 40 51
52 52 65
31 31 39
40 40 51
31 31 39
40 40 51
47 47 60
40 40 51
47 46 57
40 40 51
49 49 61
40 40 51
36 36 45
31 31 39
51 51 64
27 27 35
51 51 64
62 63 79
36 36 45
54 54 68
36 36 45
31 31 39
51 51 64
48 48 61
62 62 79
54 54 68
51 51 64
31 31 39
44 44 56
47 47 60
31 31 39
60 60 76
40 40 51
31 31 39
44 44 56
36 36 45
60 60 75
76 76 97
36 36 45
48 48 61
40 40 51
31 31 39
25 25 32
54 54 68
47 47 60
44 44 56
51 51 64
40 40 51
40 40 51
44 44 56
51 51 64
40 40 51
51 51 64
26 25 32
51 51 64
51 51 64
60 60 75
31 31 39
40 40 51
47 47 60
47 47 60
47 47 60
47 47 60
40 40 51
47 47 60
47 47 60
54 54 68
57 57 72
47 47 60
36 36 45
40 40 51
47 47 60
40 40 51
36 36 46
44 44 56
62 62 79
47 47 60
44 44 56
40 40 51
44 44 56
47 47 60
54 54 68
36 36 45
54 54 68
47 47 60
40 40 51
18 18 22
40 40 51
40 40 51
54 54 68
36 36 45
47 47 60
25 25 32
40 40 51
41 41 52
44 44 56
54 54 68
48 48 61
44 44 56
49 49 61
47 47 60
25 25 32
40 40 51
40 40 51
40 40 51
47 47 60
36 36 45
47 47 60
47 47 60
44 44 56
57 57 72
54 54 68
57 57 72
40 40 51
54 54 68
54 54 68
40 40 51
51 51 64
40 40 51
44 44 56
55 55 69
52 52 65
25 25 32
36 36 45
40 40 51
44 44 56
47 47 60
51 51 64
47 47 60
44 44 56
51 51 64
57 57 72
32 32 41
51 51 64
51 51 64
36 36 45
40 40 51
40 40 51
47 47 60
31 31 39
40 40 51
40 40 51
44 44 56
31 31 39
47 47 60
60 60 75
36 36 45
51 51 64
36 36 45
36 36 45
47 47 60
40 40 51
38 38 48
54 54 69
44 44 56
51 51 64
47 47 60
36 36 45
58 58 73
47 47 60
44 44 56
51 51 64
44 44 56
47 47 60
40 40 51
51 51 64
36 36 45
54 54 68
57 57 72
40 40 51
36 36 45
40 40 51
47 47 60
36 36 45
31 31 39
31 31 39
51 51 64
60 60 75
47 47 60
18 18 22
36 36 45
31 31 39
36 36 45
47 47 60
60 60 76
36 36 46
44 44 56
44 44 56
57 57 73
25 25 32
44 44 56
31 31 39
44 44 56
41 41 51
51 51 64
44 44 56
25 25 32
47 47 60
32 32 40
31 31 39
40 40 51
47 47 60
47 47 60
36 36 45
36 36 45
25 25 32
51 51 64
40 40 51
40 40 51
44 44 56
47 47 60
47 47 60
40 40 51
44 44 56
47 47 60
40 40 51
44 44 56
36 36 45
36 36 45
31 31 39
51 51 64
36 36 45
36 36 45
40 40 51
44 44 56
31 31 39
7 7 9
25 25 32
32 31 40
38 37 46
25 25 32
40 40 51
47 47 60
25 25 32
40 40 51
44 44 56
44 44 56
31 31 39
31 31 39
31 31 40
31 31 39
51 51 64
44 44 56
37 37 45
40 40 51
36 36 45
47 47 60
47 47 60
32 32 41
51 51 64
47 46 57
57 57 72
31 31 39
31 31 39
51 51 64
0 0 0
25 25 32
36 36 45
57 57 72
44 44 56
19 19 24
36 36 45
44 44 56
36 36 46
31 31 39
40 40 51
31 31 39
47 46 57
31 31 39
25 25 32
44 44 56
25 25 32
31 31 39
31 31 39
44 44 56
31 31 39
44 44 56
31 31 39
36 36 45
44 44 56
44 44 56
47 47 60
36 36 45
40 40 51
25 25 32
36 36 45
40 40 51
40 40 51
31 31 39
51 51 64
36 36 45
35 34 41
25 25 32
32 32 41
40 40 51
36 36 45
31 31 39
31 31 39
31 31 39
18 18 22
36 36 45
47 47 60
35 33 41
25 25 32
40 40 51
40 40 51
40 40 51
44 44 56
54 54 68
36 36 45
31 31 40
36 36 45
47 47 60
31 31 39
44 44 56
36 36 45
25 25 32
31 31 39
40 40 51
44 44 56
36 36 45
51 51 64
40 40 51
31 31 39
36 36 45
40 40 51
18 18 22
44 44 56
44 44 56
44 44 56
40 40 51
36 36 45
37 37 48
36 36 46
31 31 39
51 51 65
25 25 32
60 60 76
40 40 51
54 54 68
47 47 60
31 31 39
51 51 64
25 25 32
57 57 72
40 40 51
60 60 75
62 62 79
44 44 56
36 36 45
40 40 51
47 47 60
47 47 60
40 40 51
36 36 45
31 31 39
36 36 45
44 44 56
31 31 39
36 36 45
54 54 68
40 40 51
51 51 64
44 44 56
25 25 32
31 31 39
36 36 45
47 47 60
44 44 56
46 46 59
36 36 45
47 47 60
36 36 45
44 44 56
44 44 56
40 40 51
36 36 45
40 40 51
60 60 75
44 44 56
54 54 68
48 48 60
31 31 39
54 54 68
47 47 60
40 40 51
40 40 51
34 33 40
40 40 51
36 36 45
31 31 39
31 31 39
36 36 45
47 47 60
44 44 56
60 60 75
57 57 72
44 44 56
44 44 56
31 31 39
44 44 56
44 44 56
36 36 45
48 48 60
40 40 51
25 25 32
36 36 45
44 44 56
47 47 60
60 60 75
54 54 68
25 25 32
51 51 64
36 36 45
31 31 39
54 54 68
54 54 68
31 31 39
31 31 39
47 47 60
44 44 56
51 51 64
34 34 43
44 44 56
36 36 45
40 40 51
25 25 32
57 56 69
25 25 32
40 40 51
33 33 40
47 47 60
36 36 45
44 44 56
48 48 61
40 40 51
54 54 68
40 40 51
36 36 45
47 46 57
57 57 72
36 36 45
36 36 45
40 40 51
36 36 46
47 47 57
31 31 39
36 36 45
40 40 51
40 40 51
44 44 56
18 18 22
44 44 56
62 62 79
36 36 45
44 44 56
40 40 51
40 40 51
31 31 40
40 40 51
41 41 52
44 44 56
57 57 72
47 47 60
51 51 64
62 62 79
47 47 60
51 51 64
51 51 64
40 40 51
45 45 57
44 44 56
18 18 22
51 51 64
54 54 68
44 44 56
31 31 39
54 54 68
57 57 72
47 47 60
44 44 56
25 25 32
47 47 60
51 51 64
40 40 51
36 36 45
40 40 51
47 47 60
51 51 64
47 47 60
31 31 39
54 54 68
40 40 51
44 44 56
40 40 51
31 31 39
40 40 51
44 44 56
26 26 33
44 44 56
47 47 60
47 47 60
25 25 32
47 47 60
36 36 45
36 36 45
51 51 64
47 47 60
47 47 60
44 44 56
36 36 45
44 44 56
36 36 45
31 31 39
46 46 58
40 40 51
40 40 51
62 62 79
40 40 51
36 36 45
54 54 68
40 40 51
44 44 56
60 60 75
36 36 45
18 18 22
40 40 51
31 31 41
44 44 56
36 36 45
47 47 60
44 44 56
51 51 64
47 47 60
31 31 39
40 40 51
51 51 64
40 40 51
31 31 39
51 50 62
18 18 22
54 54 68
47 47 60
48 48 61
47 47 60
44 44 56
25 25 32
40 40 51
54 54 68
54 54 68
57 57 72
31 31 40
60 60 75
44 44 56
44 44 56
25 25 32
37 37 46
36 36 45
40 40 51
54 54 68
40 40 51
47 47 60
36 36 45
44 44 57
25 25 32
44 44 56
54 54 68
47 47 60
44 44 56
44 44 56
40 40 51
40 40 51
31 31 39
45 45 57
40 40 51
31 31 39
40 40 51
37 37 47
51 51 64
40 40 51
40 40 51
31 31 39
47 47 60
36 36 45
57 57 72
54 54 68
51 51 64
0 0 0
54 54 68
57 57 72
31 31 39
47 47 60
31 31 39
40 40 51
51 51 64
57 57 72
31 31 39
31 31 39
18 18 22
54 54 68
31 31 39
36 36 45
44 44 56
31 31 40
51 51 64
40 40 51
31 31 39
31 31 39
25 25 32
25 25 32
47 47 60
40 40 51
40 40 51
54 54 68
44 44 56
36 36 45
44 44 56
51 51 64
36 36 45
44 44 56
36 36 45
36 36 45
31 31 39
45 45 56
31 31 39
25 25 32
40 40 51
47 47 60
31 31 40
47 47 60
41 41 52
36 36 45
47 47 60
40 40 51
40 40 51
44 44 56
44 44 56
40 40 51
60 60 75
45 45 58
51 51 64
47 47 60
44 44 56
57 57 73
51 51 64
51 51 64
36 36 45
44 44 56
40 40 51
51 51 64
44 44 56
25 25 32
31 31 39
36 36 45
18 18 22
40 40 51
36 36 45
18 18 22
36 36 45
25 25 32
47 47 60
37 37 47
31 31 39
54 54 68
36 36 45
51 51 64
36 36 45
36 36 45
31 31 39
36 36 46
37 37 47
25 25 32
31 31 39
57 57 72
41 41 52
40 40 51
36 36 45
25 25 32
44 44 56
40 40 51
36 36 45
36 36 45
25 25 32
25 25 32
51 51 64
40 40 51
31 31 39
25 25 32
36 36 45
36 36 45
36 36 45
36 36 45
47 47 60
18 18 22
18 18 22
25 25 32
40 40 51
25 25 32
47 47 60
25 25 32
36 36 45
36 36 45
44 44 56
36 36 45
36 36 45
18 18 22
31 31 39
36 36 45
18 18 22
48 48 61
36 36 45
47 47 60
51 51 64
31 31 39
51 51 64
51 51 64
44 44 56
40 40 51
40 40 51
36 36 45
47 47 60
40 40 51
31 31 39
36 36 45
36 36 45
44 44 56
36 36 45
25 25 32
51 51 64
40 40 51
36 36 46
48 48 60
44 44 56
31 31 39
40 40 51
42 42 53
25 25 32
51 51 64
47 47 60
36 36 45
54 54 68
31 31 39
44 44 56
36 36 45
31 31 39
40 40 51
25 25 32
44 44 56
36 36 45
44 44 56
28 28 35
44 44 56
32 32 41
31 31 39
40 40 51
40 40 51
40 40 51
25 25 32
47 47 60
47 47 60
54 54 68
47 47 60
51 51 64
40 40 51
40 40 51
44 44 56
57 57 72
36 36 45
54 54 68
51 51 64
31 31 39
44 44 56
47 47 60
40 40 51
40 40 51
44 44 56
48 48 61
40 40 51
40 40 51
25 25 32
31 31 39
36 36 45
40 40 51
44 44 56
47 47 60
36 36 45
40 40 51
38 38 50
44 44 56
54 54 68
63 63 79
47 47 60
37 37 46
44 44 56
40 40 51
31 31 39
36 36 45
36 36 46
36 36 45
6 6 8
44 44 56
36 36 45
36 36 45
51 51 64
40 40 51
44 44 56
25 25 32
33 33 42
44 44 56
40 40 51
54 54 68
47 47 60
36 36 45
47 47 60
54 54 68
36 36 45
54 54 68
54 54 68
36 36 45
31 31 39
44 44 56
0 0 0
40 40 51
36 36 45
44 44 56
60 60 75
31 31 39
44 44 56
40 40 51
47 47 60
54 54 68
31 31 40
51 51 64
36 36 45
51 51 64
51 51 64
60 60 76
47 47 60
40 40 51
40 40 51
51 51 64
47 47 60
40 40 51
40 40 51
44 44 56
44 44 56
51 51 64
31 31 39
36 36 45
44 44 56
36 36 45
54 54 68
51 51 64
61 61 76
54 54 68
47 47 60
62 62 79
44 44 56
44 44 56
40 40 51
44 44 56
31 31 39
42 41 52
44 44 56
44 44 56
36 36 45
36 36 45
41 41 52
47 47 60
25 25 32
40 40 51
25 25 32
51 51 64
36 36 45
54 54 68
25 25 32
36 36 45
31 31 39
18 18 22
36 36 45
36 36 45
31 31 39
44 44 56
51 51 64
40 40 51
47 47 60
51 51 64
44 44 56
47 47 60
47 47 60
47 47 60
47 47 60
25 25 32
36 36 45
18 18 22
44 44 56
40 40 51
44 44 56
31 31 39
47 47 60
54 54 68
51 51 64
51 51 64
40 40 51
65 65 82
60 60 75
51 51 64
54 54 69
51 51 64
36 36 45
40 40 51
36 36 45
44 44 56
36 36 45
31 31 39
44 44 56
40 40 51
51 51 64
31 31 39
40 40 51
40 40 51
31 31 39
36 36 45
40 40 51
36 36 45
25 25 32
54 54 68
60 60 75
40 40 51
44 44 56
60 60 75
47 47 60
51 51 65
31 31 39
25 25 32
40 40 51
36 36 45
54 54 69
47 47 60
60 60 75
40 40 51
36 36 46
47 47 60
31 31 39
44 44 56
40 40 51
40 40 51
48 48 61
40 40 51
36 36 45
57 57 72
47 47 60
40 40 51
25 25 32
36 36 45
47 47 60
44 44 56
36 36 46
36 36 45
44 44 56
36 36 45
47 47 60
31 31 39
47 47 60
31 31 39
41 41 52
36 36 45
18 18 22
40 40 51
36 36 45
44 44 56
25 25 32
40 40 51
47 47 60
36 36 45
40 40 51
47 47 60
40 40 51
44 44 56
44 44 56
47 47 60
31 31 39
40 40 51
44 44 56
47 47 60
36 36 45
0 0 0
37 37 47
44 44 56
40 40 51
40 40 51
36 36 46
25 25 32
51 51 64
44 44 56
44 44 56
18 18 22
40 40 51
54 54 68
36 36 45
36 36 45
36 36 45
40 40 51
44 44 56
36 36 46
36 36 45
40 40 51
40 40 51
40 40 51
54 54 68
36 36 45
18 18 22
31 31 39
51 51 64
31 31 39
36 36 45
51 51 64
40 40 51
36 36 45
31 31 39
25 25 32
31 31 39
47 47 60
36 36 45
40 40 51
40 40 51
36 36 45
40 40 51
44 44 56
44 44 56
36 36 45
47 47 60
31 31 39
44 44 56
44 44 56
18 18 22
36 36 46
51 51 64
36 36 45
18 18 23
47 47 60
44 44 56
44 44 56
31 31 39
0 0 0
25 25 32
47 47 60
25 25 32
31 31 39
47 47 58
36 36 45
25 25 32
40 40 51
51 51 64
47 47 60
31 31 39
40 40 51
36 36 45
25 25 32
44 44 56
36 36 45
40 40 51
36 36 45
31 31 39
36 36 45
31 31 39
54 54 69
31 32 39
44 44 56
40 40 51
36 36 45
32 32 40
40 40 51
40 40 51
40 40 51
36 36 45
36 36 45
31 31 40
36 36 45
36 36 45
29 29 37
25 25 32
47 47 60
31 31 39
44 44 56
25 25 32
36 36 45
44 44 56
51 51 64
18 18 22
25 25 32
36 36 45
36 36 46
40 40 51
51 50 62
31 31 39
25 25 32
51 51 64
25 25 32
40 40 51
25 25 32
31 31 39
18 18 22
40 40 51
31 31 39
36 36 45
28 28 35
36 36 45
36 36 45
31 31 39
36 36 45
40 40 51
44 44 56
40 40 51
25 25 32
31 31 39
51 51 64
31 31 39
36 36 45
40 40 51
44 44 56
40 40 51
31 31 39
31 31 39
36 36 45
51 51 64
47 47 60
40 40 51
36 36 45
36 36 45
36 36 45
36 36 46
31 31 39
44 44 56
40 40 51
36 36 45
36 36 45
31 31 39
51 51 64
44 44 56
31 31 39
44 44 56
44 44 56
36 36 45
51 51 64
36 36 45
36 36 45
47 47 60
40 40 51
25 25 32
36 36 45
25 25 32
44 44 56
40 40 51
47 47 60
36 36 45
40 40 51
47 47 60
36 36 45
44 44 56
40 40 51
31 31 39
51 51 64
31 31 39
40 40 51
36 36 45
65 65 82
44 44 56
26 26 33
40 40 51
44 44 56
36 36 45
44 44 56
31 31 39
51 51 64
31 31 39
31 31 39
25 25 32
41 41 52
31 31 39
36 36 45
36 36 45
36 36 45
44 44 56
44 44 56
44 44 56
31 31 39
36 36 45
36 36 45
51 51 64
44 44 56
51 51 64
32 32 41
47 47 60
31 31 39
36 36 45
25 25 32
44 44 56
44 44 56
31 31 39
51 51 64
47 47 60
44 44 56
32 32 40
44 44 56
44 44 56
40 40 51
36 36 45
51 51 64
28 28 37
31 31 39
40 40 51
36 36 45
44 44 56
54 54 68
44 44 56
31 31 39
31 31 39
47 47 60
31 31 39
31 31 39
36 36 45
44 44 56
54 54 68
25 25 32
31 31 39
31 31 39
31 31 39
31 31 39
44 44 56
40 40 51
62 62 79
51 51 64
44 44 57
40 40 51
44 44 56
36 36 45
54 54 68
25 25 32
40 40 51
44 44 56
44 44 56
31 31 39
47 47 60
31 31 40
36 36 45
55 55 69
36 36 45
18 18 22
41 41 52
44 44 56
36 36 45
44 44 56
40 40 51
37 37 47
51 51 64
40 40 51
36 36 46
31 31 39
40 40 51
40 40 51
49 49 62
44 44 56
44 44 56
40 40 51
36 36 45
36 36 45
31 31 39
44 44 56
36 36 45
65 65 82
36 36 45
47 47 60
36 36 46
44 44 56
40 40 51
54 54 68
31 31 39
47 47 61
25 25 32
31 31 39
31 31 39
27 27 34
40 40 51
44 44 56
40 40 51
31 31 40
18 18 22
31 31 39
47 47 60
44 44 56
25 25 32
18 18 22
57 57 72
44 44 56
36 36 45
36 36 45
57 57 73
47 47 60
36 36 45
47 47 60
54 54 68
40 40 51
44 44 56
51 51 64
31 31 39
40 40 51
47 47 60
54 54 68
47 47 60
36 36 45
40 40 51
40 40 52
40 40 51
44 44 56
54 54 68
36 36 45
47 47 60
40 40 51
54 54 68
40 40 51
41 41 51
41 41 52
54 54 68
48 48 61
51 51 64
47 47 60
40 40 51
40 40 51
57 57 72
57 57 72
36 36 45
54 54 68
18 18 22
47 47 60
47 47 60
36 36 45
40 40 51
36 36 45
44 44 56
44 44 56
40 40 51
36 36 45
31 31 39
44 44 56
44 44 56
47 47 60
40 40 51
44 44 56
36 36 45
31 31 39
45 45 57
40 40 51
57 57 72
40 40 51
31 31 39
44 44 56
37 37 47
40 40 51
40 40 51
36 36 46
57 57 72
51 51 64
36 36 45
44 44 56
18 18 22
48 48 61
62 62 79
40 40 51
36 36 45
60 60 75
36 36 45
47 47 60
51 51 64
55 55 70
36 36 45
31 31 39
40 40 51
41 41 52
36 36 45
31 31 40
25 25 33
51 51 64
44 44 56
40 40 51
47 47 60
40 40 51
47 47 60
44 44 56
40 40 51
44 44 56
36 36 45
47 47 60
36 36 45
31 31 39
36 36 45
31 31 39
51 51 64
31 31 39
57 57 72
47 47 60
44 44 56
47 47 60
40 40 51
51 51 64
47 47 60
44 44 56
44 44 56
47 47 60
25 25 32
46 45 57
44 44 56
36 36 45
51 51 64
36 36 45
44 44 56
36 36 45
49 49 61
47 47 60
31 31 39
47 47 60
31 31 39
51 51 64
31 31 40
36 36 45
40 40 51
40 40 51
31 31 39
27 27 34
40 40 52
51 51 64
36 36 45
47 47 60
36 36 45
54 54 68
40 40 51
44 44 56
40 40 51
25 25 32
54 54 68
40 40 51
47 47 60
31 31 39
40 40 51
36 36 45
40 40 51
25 25 32
31 31 39
44 44 56
37 37 47
41 41 52
31 31 40
0 0 0
31 31 39
36 36 45
36 36 45
40 40 51
40 40 51
36 36 45
44 44 56
36 36 45
57 57 72
57 57 72
40 40 51
18 18 22
44 44 56
26 26 32
36 36 45
36 36 45
44 44 56
31 31 39
47 47 60
31 31 40
31 31 39
40 40 51
30 29 34
25 25 32
36 37 47
28 27 33
36 36 45
40 40 51
31 31 39
25 25 32
37 37 46
44 44 56
31 31 39
31 31 39
44 44 56
45 44 56
40 40 51
0 0 0
0 0 0
40 40 51
44 44 56
25 25 32
47 47 60
36 36 45
36 36 45
37 37 47
36 36 45
31 31 39
33 33 42
44 44 56
44 44 56
44 44 56
47 47 60
31 31 39
18 18 22
51 51 64
44 44 56
18 18 22
40 40 51
44 44 56
44 44 56
40 40 51
54 54 68
31 31 39
31 31 39
40 40 51
31 31 39
36 36 45
25 25 32
47 47 60
25 25 32
31 31 39
36 36 45
25 25 32
36 36 46
40 40 51
40 40 51
47 47 60
40 40 51
36 36 45
18 18 22
36 36 45
51 51 64
47 47 60
36 36 45
36 36 45
44 44 56
36 36 45
31 31 39
40 40 51
40 40 51
36 36 45
36 36 45
36 36 45
36 35 42
54 54 68
40 40 51
36 36 45
44 44 56
44 44 56
40 40 51
36 36 45
44 44 56
25 25 32
44 44 56
36 36 45
44 44 56
44 44 56
31 31 39
51 51 64
31 31 39
54 54 68
25 25 32
40 40 51
36 36 45
44 44 56
40 40 51
36 36 45
44 44 56
31 31 39
0 0 0
44 44 56
48 48 61
44 44 56
40 40 51
40 40 51
36 36 45
40 40 51
32 32 40
18 18 22
48 48 60
36 36 45
36 36 46
40 40 51
25 25 32
36 36 45
47 47 60
40 40 51
40 40 51
40 40 51
44 44 56
44 44 56
40 40 51
31 31 39
25 25 32
44 44 56
36 36 45
40 40 51
62 62 79
40 40 51
44 44 57
51 51 64
36 36 45
36 36 45
40 40 51
25 25 32
36 36 45
41 41 52
40 40 51
31 31 39
44 44 56
44 44 56
54 54 68
40 40 51
54 54 68
54 54 68
47 47 60
36 36 45
44 44 56
57 57 72
51 51 64
31 31 39
47 47 60
40 40 51
44 44 56
36 36 46
54 54 68
31 31 39
25 25 32
40 40 51
47 47 60
57 57 72
44 44 56
40 40 51
40 40 51
47 47 60
37 37 46
36 36 45
62 62 79
40 40 51
40 40 51
32 32 41
51 51 64
51 51 64
40 40 51
44 44 56
44 44 56
60 60 75
47 47 60
47 47 60
51 51 64
40 40 51
36 36 45
40 40 51
31 31 39
31 31 40
40 40 51
60 60 75
30 28 34
40 40 51
31 31 39
36 36 45
36 36 45
57 57 72
54 54 68
36 36 45
44 44 56
47 47 60
25 25 32
40 40 51
36 36 45
44 44 56
31 31 39
40 40 51
36 36 45
51 51 65
36 36 45
36 36 45
57 57 72
51 51 64
57 57 72
47 47 60
40 40 51
18 18 22
19 19 25
51 51 64
54 54 68
32 32 40
36 36 45
51 51 64
47 47 60
44 44 56
25 25 32
47 47 60
47 47 60
25 26 32
40 40 51
41 41 52
47 47 60
25 25 32
44 44 56
31 31 39
51 51 64
62 62 79
36 36 45
18 18 22
51 51 64
44 44 56
40 40 51
44 44 56
48 48 60
25 25 32
31 31 39
40 40 51
44 44 56
51 51 65
44 44 56
47 47 60
18 18 22
31 31 39
36 36 45
47 47 60
36 36 45
47 47 60
40 40 51
36 36 45
25 25 32
45 45 57
36 36 45
57 57 72
36 36 45
47 47 60
31 31 39
36 36 45
54 54 68
40 40 51
51 51 64
36 36 45
36 36 45
36 36 45
44 44 56
51 51 64
51 51 64
47 47 60
51 51 65
40 40 51
36 36 45
36 36 45
25 25 32
31 31 39
54 54 68
40 40 51
40 40 51
36 36 45
40 40 51
31 31 39
31 31 39
36 36 45
54 54 68
31 31 39
31 31 39
51 51 64
31 31 39
25 25 32
36 36 45
44 44 56
36 36 45
54 54 68
40 40 51
54 54 68
36 36 45
44 44 56
51 51 64
18 18 22
36 36 45
51 51 64
54 54 68
18 18 22
40 40 51
36 36 45
31 31 39
40 40 51
31 31 39
44 44 56
31 31 39
57 57 72
44 44 56
36 36 45
47 47 60
47 47 60
47 47 60
48 48 62
44 44 56
36 36 45
37 37 46
31 31 39
31 31 39
31 31 39
31 31 39
36 36 45
44 44 56
44 44 56
18 18 22
36 36 45
26 26 33
40 40 51
44 44 56
36 36 45
44 44 56
25 25 32
40 40 51
18 18 22
25 25 32
36 36 45
36 36 45
18 18 22
27 26 33
36 36 45
47 47 60
36 36 45
47 47 60
47 47 60
40 40 51
54 54 68
44 44 56
47 47 60
18 18 22
31 31 39
36 36 45
31 31 39
44 44 56
47 46 57
25 25 32
47 47 60
25 25 32
40 40 51
18 18 22
20 20 25
36 36 45
54 54 68
26 26 33
31 31 39
44 44 56
40 40 51
40 40 51
36 36 45
40 40 51
31 31 39
40 40 51
36 36 45
25 26 32
31 31 39
36 36 45
25 25 32
31 31 39
36 36 45
31 31 39
26 26 33
44 44 56
36 36 46
47 47 60
44 44 56
31 31 39
36 36 45
25 25 32
44 44 56
18 18 22
40 40 51
25 25 32
54 54 68
40 40 51
31 31 39
4 4 5
36 36 45
44 44 56
40 40 51
47 47 60
31 31 39
31 31 39
36 36 45
47 47 60
3 3 4
40 40 51
44 44 56
36 36 45
25 25 32
25 25 32
25 25 32
40 40 51
40 40 51
31 31 39
31 31 39
36 36 45
40 40 51
25 25 32
0 0 0
18 18 22
51 51 64
25 25 32
40 40 51
18 18 22
31 31 39
25 25 32
25 25 32
44 44 56
40 40 51
31 31 39
40 40 51
47 47 60
40 40 51
25 25 32
31 31 40
44 44 56
44 44 56
44 44 56
36 36 45
36 36 45
31 31 39
36 36 46
44 44 56
35 34 41
51 51 64
25 25 32
44 44 56
40 40 51
26 26 34
40 40 51
25 25 32
44 44 56
48 48 61
47 47 60
31 31 39
0 0 0
31 31 39
36 36 46
40 40 51
44 44 56
27 27 34
43 42 52
40 40 51
40 40 51
36 36 45
25 25 32
44 44 56
54 54 68
31 31 39
54 54 68
25 25 32
47 47 60
40 40 51
31 31 39
18 18 22
40 40 51
36 36 45
36 36 45
36 36 45
51 51 64
31 31 39
57 57 72
31 31 39
47 47 60
40 40 51
47 47 60
44 44 56
40 40 51
36 36 46
18 18 22
36 36 46
51 51 64
36 36 45
25 25 32
40 40 51
57 57 72
31 31 39
31 31 39
40 40 51
31 31 39
67 67 85
36 36 45
36 36 45
48 48 62
54 54 68
31 31 39
40 40 51
57 57 72
36 36 45
44 44 56
44 44 56
47 47 60
40 40 51
44 44 56
44 44 56
36 36 45
65 65 82
40 40 51
25 25 32
47 47 60
51 51 64
57 57 72
49 49 62
40 40 51
31 31 39
40 40 51
57 57 72
25 25 32
54 54 68
36 36 45
57 57 72
36 36 45
31 31 39
51 51 64
36 36 45
44 44 56
25 25 32
48 48 61
51 51 64
54 54 68
47 47 60
62 62 79
41 41 52
40 40 51
36 36 46
36 36 45
31 31 39
47 47 60
36 36 45
44 44 56
47 47 60
47 47 60
36 36 45
41 41 52
51 51 64
40 40 51
51 51 64
40 40 51
45 45 57
51 51 64
25 25 32
18 18 22
40 40 51
47 47 60
44 44 56
36 36 45
44 44 56
36 36 45
47 47 60
40 40 51
54 54 68
36 36 45
36 36 46
36 36 45
36 36 45
31 31 39
54 54 68
31 33 42
44 44 56
40 40 51
54 54 68
51 51 64
40 40 51
51 51 64
57 57 72
40 40 51
25 25 32
31 31 39
31 31 39
40 40 51
40 40 51
47 47 60
40 40 51
25 25 32
18 18 22
31 31 39
36 36 45
31 31 39
31 31 39
25 25 32
36 36 45
47 47 60
47 47 60
25 25 32
36 36 45
51 51 64
31 31 39
54 54 68
18 18 22
36 36 45
40 40 51
36 36 45
40 40 51
47 47 60
47 47 60
47 47 60
44 44 56
36 36 45
47 47 60
31 31 39
44 44 56
44 44 56
40 40 51
47 47 60
48 48 60
54 54 68
44 44 56
38 37 46
47 47 60
47 47 60
40 40 51
44 44 56
57 57 72
51 51 64
31 31 39
44 44 56
36 36 45
47 47 60
32 32 41
47 47 60
25 25 32
31 31 39
0 0 0
44 44 56
25 25 32
31 31 39
48 48 60
36 36 45
51 51 64
47 47 60
44 44 56
51 51 64
51 51 64
36 36 45
40 40 52
44 44 56
44 44 56
51 51 64
44 44 56
40 39 50
51 51 65
36 36 45
36 36 46
36 36 45
44 44 56
47 47 60
36 36 45
31 31 39
44 44 56
31 31 40
51 51 64
40 40 51
44 44 56
36 36 45
51 51 64
36 36 46
40 40 51
36 36 45
31 31 39
40 40 51
51 51 65
40 40 51
40 40 51
31 31 39
40 40 51
41 41 52
40 40 51
48 48 60
40 40 51
44 43 53
55 55 69
31 31 39
47 47 60
48 48 60
25 25 32
36 36 45
42 42 53
51 51 64
25 25 32
40 40 51
25 25 32
36 36 45
36 36 45
44 44 56
36 36 45
51 51 64
40 40 51
33 33 41
31 31 39
41 41 52
40 40 51
40 40 51
54 54 68
36 36 45
57 57 72
36 36 45
40 40 51
31 31 39
36 36 45
40 40 51
47 47 60
55 55 71
40 40 51
31 31 39
36 36 45
40 40 51
47 47 60
25 25 32
44 44 56
44 44 56
40 40 51
40 40 51
31 31 39
19 19 25
31 31 39
40 40 51
47 47 60
36 36 45
44 44 56
44 44 56
0 0 0
25 25 32
47 47 60
41 41 52
36 36 45
40 40 51
40 40 51
44 44 56
18 18 23
36 36 45
31 31 39
47 47 60
40 40 51
40 40 51
51 51 64
18 18 22
31 31 39
31 31 39
36 36 45
26 26 33
18 18 22
40 40 51
25 25 32
47 47 60
36 36 45
47 47 58
40 40 51
31 31 39
40 40 51
40 40 51
48 48 60
40 40 51
31 31 39
47 47 60
25 25 32
36 36 45
54 54 68
40 40 51
31 31 40
36 36 45
40 40 51
25 25 32
40 40 52
18 18 22
45 45 57
31 31 39
36 36 45
36 36 45
44 44 56
25 25 32
34 33 40
40 40 51
40 40 51
40 40 51
36 36 45
36 36 45
18 18 22
25 25 32
36 36 45
25 25 32
25 25 32
36 36 45
31 31 39
31 31 40
25 25 32
40 40 51
40 40 51
18 18 22
31 31 39
0 0 0
37 37 47
31 31 39
40 40 51
25 25 32
44 44 56
27 26 34
18 18 22
44 44 56
25 25 32
25 25 32
37 37 47
25 25 32
31 31 39
36 36 45
47 47 60
31 31 39
0 0 3
31 31 39
25 25 32
36 36 45
31 31 39
18 18 22
40 40 51
31 31 39
25 25 32
40 40 51
31 31 39
36 36 45
40 40 51
31 31 39
54 54 68
40 40 51
40 40 51
31 31 39
31 31 39
31 31 39
36 36 45
47 47 60
44 44 56
51 51 64
25 25 32
40 40 51
40 40 51
25 25 32
57 57 72
40 40 51
40 40 51
31 31 39
18 18 22
47 47 60
25 25 32
25 25 32
18 18 22
25 25 32
44 44 56
40 40 51
44 44 56
47 47 60
36 36 45
36 36 45
31 31 39
44 44 56
40 40 51
40 40 51
25 25 32
25 25 32
36 36 45
40 40 51
44 44 56
40 40 51
40 40 51
44 44 56
31 31 39
40 40 51
44 44 56
36 36 45
36 36 45
31 31 39
36 36 45
44 44 56
25 25 32
40 40 51
40 40 51
36 36 45
47 47 60
25 25 32
31 31 39
40 40 51
47 47 60
44 44 56
25 25 32
44 44 56
25 25 32
51 51 64
44 44 56
40 40 51
18 18 22
40 40 51
40 40 51
40 40 51
62 62 79
31 31 39
18 18 22
31 31 39
36 36 46
40 40 51
36 36 45
40 40 51
40 40 51
51 51 64
40 40 51
40 40 51
40 40 51
44 44 56
54 54 68
18 18 22
31 31 39
54 54 68
54 54 68
51 51 64
40 40 51
31 31 39
36 36 45
44 44 56
33 32 41
60 60 75
25 25 32
47 47 60
32 32 40
41 40 51
54 54 68
40 40 51
25 25 32
47 47 60
36 36 45
40 40 51
47 47 60
40 40 51
22 22 28
44 44 56
36 36 45
44 44 56
0 0 0
40 40 51
51 51 65
44 44 56
36 36 45
36 36 45
36 36 45
47 47 60
25 25 32
40 40 51
36 36 45
51 51 64
36 36 45
36 36 45
36 36 45
25 25 32
47 47 60
40 40 51
36 36 45
44 44 56
54 54 68
51 51 64
40 40 51
36 36 46
27 27 34
47 47 60
60 60 75
40 40 51
44 44 56
36 36 45
36 36 45
36 36 45
47 47 60
36 36 45
44 44 56
36 36 45
47 47 60
41 41 52
57 57 72
51 51 64
44 44 56
47 47 60
36 36 45
44 44 56
47 47 60
57 57 73
51 51 64
36 36 46
44 44 56
31 31 39
40 40 51
57 57 72
47 47 60
44 44 56
47 47 60
44 44 56
44 44 56
54 54 69
47 47 60
45 45 57
36 36 45
36 36 45
47 47 60
40 40 51
44 44 56
36 36 45
31 31 39
31 31 39
40 40 51
36 36 45
40 40 51
47 47 60
44 44 56
31 31 39
44 44 56
51 51 64
25 25 32
51 51 64
31 31 40
40 40 51
31 31 39
54 54 68
25 25 32
25 25 32
36 36 45
44 44 56
36 36 45
36 36 45
54 54 68
36 36 45
25 25 32
44 44 56
31 31 39
25 25 32
44 44 56
25 25 32
36 36 45
44 44 56
51 51 64
54 54 68
44 44 56
54 54 68
40 40 51
40 40 51
54 54 68
31 31 39
44 44 56
25 25 32
52 52 66
31 31 39
47 47 60
31 31 39
36 36 45
62 62 79
44 44 56
40 40 51
36 36 45
48 48 60
31 31 39
44 44 56
36 36 45
44 44 56
44 44 56
40 40 51
47 47 60
47 47 60
44 44 56
31 31 39
51 51 64
31 31 40
31 31 39
31 31 39
31 31 39
18 18 24
40 40 51
36 36 45
25 25 32
41 41 52
44 44 56
36 36 45
54 54 68
36 36 45
54 54 68
40 40 51
47 47 60
51 51 64
25 25 32
31 31 39
25 25 32
31 31 39
40 40 51
36 36 45
36 36 45
40 40 51
18 18 22
44 44 56
44 44 56
26 26 32
25 25 32
40 40 51
40 40 51
25 25 32
18 18 22
44 44 56
57 57 72
37 37 47
40 40 51
41 41 52
31 31 39
25 25 32
6 6 8
47 47 60
25 24 26
51 51 64
47 47 60
51 51 64
31 31 39
25 25 32
36 36 45
44 44 56
18 18 22
37 36 46
36 36 45
36 36 45
31 31 39
51 51 64
31 31 39
54 54 68
36 36 45
31 31 39
25 25 32
31 31 39
25 25 32
36 36 45
36 36 45
40 40 51
44 44 56
32 32 41
25 25 32
47 47 60
47 47 60
44 44 56
36 36 45
40 40 51
40 40 51
40 40 51
44 44 56
44 44 56
36 36 45
47 47 60
31 31 39
31 31 40
41 41 52
49 49 61
36 36 45
18 18 22
47 47 60
31 31 40
54 54 68
25 25 32
47 47 60
36 36 45
31 31 39
51 51 64
25 25 32
40 40 51
40 40 51
40 40 51
36 36 45
18 18 22
36 36 45
36 36 45
44 44 57
25 25 32
36 36 45
18 18 22
40 40 51
54 54 68
31 31 39
18 18 22
18 18 22
40 40 51
25 25 32
36 36 45
62 62 79
44 44 56
40 40 51
25 25 32
31 31 39
31 31 39
40 40 51
0 0 0
25 25 32
0 0 0
36 36 45
36 36 46
25 25 32
40 40 51
31 31 39
44 44 56
18 18 22
44 44 56
40 40 51
36 36 46
40 40 51
31 31 39
36 36 45
31 31 39
18 18 22
36 36 45
31 31 39
18 18 22
31 31 39
36 36 45
18 18 22
31 31 39
36 36 45
26 26 33
51 51 64
18 18 22
47 47 60
47 47 60
31 31 39
36 36 45
44 44 56
40 40 51
40 40 51
44 44 56
31 31 39
26 26 33
40 40 51
51 51 64
18 18 22
44 44 56
18 18 22
51 51 64
47 47 60
36 36 45
41 41 52
51 51 64
40 40 51
36 36 45
51 51 64
36 36 45
36 36 45
31 31 39
31 31 39
51 51 64
44 44 56
25 25 32
36 36 45
44 44 56
36 36 45
54 54 68
36 36 45
36 36 45
51 51 64
44 44 56
40 40 51
36 36 45
25 25 32
54 54 68
36 36 45
47 47 60
40 40 51
31 31 39
37 37 47
25 25 32
44 44 56
36 36 46
48 48 60
47 47 60
40 40 51
48 48 61
31 31 39
36 36 45
47 47 60
26 26 33
36 36 45
32 32 41
40 40 51
40 40 51
25 25 32
51 51 64
36 36 45
48 48 61
31 31 39
54 54 68
40 40 51
44 44 56
48 48 61
54 54 68
36 36 45
36 36 45
44 44 56
40 40 51
44 44 56
51 51 64
36 36 45
36 36 45
54 54 68
31 31 39
44 44 56
36 36 45
25 25 32
40 40 51
36 36 45
40 40 51
51 51 64
31 31 40
36 36 45
40 40 51
31 31 39
27 26 32
51 51 64
51 51 64
40 40 51
36 36 45
44 44 56
36 36 45
40 40 51
31 31 39
36 36 45
54 54 68
44 44 56
47 47 60
47 47 60
36 36 45
44 44 56
40 40 51
40 40 51
40 40 51
40 40 51
65 65 82
36 36 46
47 47 60
47 47 60
40 40 51
31 31 39
60 60 75
36 36 45
31 31 39
31 31 39
36 36 45
57 57 72
40 40 51
25 25 32
36 36 45
36 36 45
44 44 56
40 40 51
44 44 56
36 36 45
47 47 60
44 44 56
36 36 45
40 40 51
51 51 64
40 40 51
40 40 51
36 36 45
18 18 22
25 25 32
54 54 68
44 44 56
36 36 45
44 44 56
44 44 56
18 18 22
31 31 39
36 36 45
36 36 45
36 36 46
51 51 64
44 44 56
51 51 64
44 44 56
40 40 51
18 18 22
47 47 60
40 40 51
47 47 60
0 0 0
51 51 64
45 45 57
47 47 60
44 44 56
36 36 45
51 51 64
40 40 51
31 31 40
44 44 56
36 36 45
36 36 45
25 25 32
47 47 60
47 47 60
31 31 39
31 31 39
18 18 22
44 44 56
44 44 56
36 36 45
18 18 22
26 26 33
36 36 45
31 31 39
19 19 24
57 57 72
18 18 22
31 31 39
36 36 45
47 47 60
36 36 45
54 54 68
25 25 32
36 36 45
31 31 39
44 44 56
25 25 32
36 36 45
31 31 39
44 44 56
57 57 72
31 31 39
31 31 39
36 36 45
51 51 64
51 51 65
44 44 56
47 47 60
47 47 60
57 57 72
18 18 22
31 31 39
36 36 45
44 44 56
30 28 34
36 36 45
44 44 56
54 54 68
36 36 45
0 0 0
36 36 45
36 36 45
40 40 51
44 44 56
40 40 51
36 36 45
18 18 22
51 51 64
54 54 69
40 40 51
44 44 56
40 40 51
25 25 32
40 40 51
40 40 51
44 44 56
40 40 51
25 25 32
31 31 39
44 44 56
31 31 39
25 25 32
31 31 39
44 44 56
31 31 39
54 54 68
31 31 39
18 18 22
36 36 45
25 25 32
25 25 32
41 41 52
36 36 45
47 47 60
40 40 51
36 36 45
40 40 51
31 31 39
44 44 56
31 31 39
47 47 60
52 52 65
40 40 51
40 40 51
25 25 32
62 62 79
47 47 60
44 44 56
47 47 60
36 36 45
43 42 52
36 36 45
36 36 45
18 18 23
44 44 56
25 25 32
38 38 47
44 44 56
31 31 39
47 47 60
36 36 45
18 18 22
47 47 60
36 36 45
40 40 51
25 25 32
57 57 72
54 54 68
40 40 51
18 18 22
44 44 56
44 44 56
36 36 45
31 31 39
40 40 51
36 36 45
40 40 51
36 36 45
36 36 45
31 31 39
37 37 47
57 57 72
52 52 65
40 40 51
40 40 51
31 31 39
40 40 51
36 36 45
47 47 60
31 31 39
44 44 56
44 44 56
18 18 22
40 40 51
36 36 45
36 36 45
18 18 22
0 0 0
60 60 75
36 36 45
44 44 56
44 44 56
40 40 51
54 54 68
36 36 45
47 47 60
31 31 39
40 40 51
40 40 51
25 25 32
44 44 56
54 54 68
18 18 22
18 18 22
44 44 56
44 44 56
36 36 45
44 44 56
25 25 32
31 31 39
37 37 44
25 25 32
18 18 22
40 40 51
18 18 22
25 25 32
31 31 39
36 36 45
36 36 45
40 40 51
42 42 55
36 36 45
31 31 39
40 40 51
40 40 51
25 25 32
47 47 60
18 18 22
31 31 39
25 25 32
31 31 40
44 44 56
31 31 39
36 36 45
31 31 39
40 40 51
37 37 46
36 36 45
44 44 56
36 36 45
31 31 39
36 36 45
51 51 64
31 31 39
31 31 39
40 40 51
18 18 22
40 40 51
31 31 39
25 25 32
31 31 39
51 51 65
36 36 45
25 25 32
36 36 45
40 40 51
40 40 51
18 18 22
25 25 32
25 25 32
31 31 39
46 45 56
32 32 39
36 36 45
36 36 45
51 51 64
44 44 56
47 47 60
44 44 56
47 47 60
47 47 60
31 31 39
40 40 51
40 40 51
0 0 0
25 25 32
36 36 45
36 36 45
40 40 51
47 47 60
31 31 39
41 41 52
47 47 60
31 31 39
40 40 51
40 40 51
26 26 33
40 40 51
31 31 39
54 54 68
25 25 32
51 51 64
18 18 22
18 18 22
31 31 39
36 36 45
40 40 51
40 40 51
40 40 51
47 47 60
57 57 72
47 47 57
36 36 45
47 47 60
40 40 51
36 36 45
31 31 39
38 38 48
44 44 56
40 40 51
36 36 45
40 40 51
40 40 51
36 36 45
44 44 56
60 60 76
40 40 51
54 54 68
40 40 51
40 40 51
36 36 45
44 44 56
40 40 51
36 36 45
40 40 51
31 31 39
31 31 39
40 40 51
40 40 51
36 36 46
47 47 60
36 36 45
36 36 45
44 44 56
44 44 56
31 31 40
36 36 45
25 25 32
36 36 45
44 44 56
40 40 51
36 36 46
36 36 45
57 57 72
36 36 45
18 18 22
31 31 39
18 18 22
51 51 64
18 18 22
40 40 51
31 31 39
36 36 45
40 40 51
25 25 32
36 36 45
44 44 56
31 31 39
44 44 56
31 31 39
51 51 65
40 40 51
54 54 68
36 36 45
36 36 45
40 40 51
40 40 51
44 44 56
51 51 64
31 31 40
36 36 45
36 36 45
25 25 32
47 47 60
36 36 45
40 40 51
40 40 51
36 36 45
44 44 56
40 40 51
60 60 75
51 51 64
31 31 39
40 40 51
44 44 56
44 44 56
36 36 45
31 31 39
44 44 56
18 18 22
47 47 60
31 31 39
44 44 56
40 40 51
18 18 22
31 31 39
25 25 32
48 48 60
44 44 56
44 44 56
41 41 52
36 36 45
44 44 56
31 31 39
44 44 56
47 47 60
31 31 39
36 36 45
47 47 60
40 40 51
0 0 0
42 42 53
51 51 64
36 36 45
0 0 0
31 31 39
49 49 62
40 40 51
44 44 56
31 31 39
36 36 45
25 25 32
36 36 46
44 44 56
44 44 56
25 25 32
51 51 64
36 36 45
40 40 51
47 47 60
36 36 45
44 44 56
40 40 51
44 44 56
31 31 39
25 25 32
25 25 32
37 37 47
44 44 56
49 49 61
44 44 56
47 47 60
51 51 64
54 54 68
18 18 22
44 44 56
36 36 45
36 36 45
51 51 64
25 25 32
44 44 56
31 31 40
25 25 32
36 36 45
44 44 56
31 31 39
36 36 45
54 54 68
40 40 51
40 40 51
47 47 60
25 25 32
36 36 45
44 44 56
31 31 39
40 40 51
44 44 56
40 40 51
44 44 56
40 40 51
57 57 72
40 40 51
36 36 45
62 62 79
31 31 39
40 40 51
25 25 32
44 44 56
51 51 64
40 40 51
51 51 64
44 44 56
36 36 45
47 47 60
40 40 51
40 40 51
18 18 22
44 44 56
51 51 64
36 36 45
40 40 51
31 31 39
36 36 45
47 47 60
31 31 39
31 31 39
36 36 45
18 18 22
47 47 60
25 25 32
31 31 39
36 36 45
40 40 51
36 36 45
44 44 56
44 44 56
40 40 51
44 44 56
36 36 45
31 31 39
31 31 39
51 51 64
54 54 68
40 40 51
31 31 39
31 31 39
51 51 64
36 36 45
36 36 45
31 31 39
18 18 22
51 51 64
36 36 45
51 51 64
36 36 45
47 47 60
36 36 46
51 51 64
47 47 60
48 48 60
31 31 39
47 47 60
18 18 22
36 36 45
36 36 45
51 51 64
31 31 39
47 47 60
25 25 32
40 40 51
31 31 39
51 51 64
36 36 45
25 25 32
31 31 39
44 44 56
36 36 45
40 40 51
36 36 45
44 44 56
25 25 32
36 36 45
18 18 22
36 36 45
51 51 64
65 65 82
0 0 0
36 36 45
54 54 68
18 18 22
51 51 64
36 36 45
40 40 51
25 25 32
31 31 39
54 54 69
36 36 45
51 51 64
18 18 22
40 39 48
44 44 56
40 40 51
25 25 32
51 51 64
40 40 51
40 39 47
36 36 45
44 44 56
40 40 51
25 25 32
47 47 60
44 44 56
36 36 45
36 36 45
51 51 64
31 31 39
44 44 56
31 31 39
51 51 64
31 31 39
36 36 45
36 36 46
31 31 39
47 47 60
44 44 56
19 19 24
36 36 45
36 36 45
45 44 54
51 51 64
25 25 32
44 44 56
37 37 47
40 40 51
40 40 51
44 44 56
31 31 39
31 31 39
40 40 51
40 40 51
40 40 51
47 47 60
44 44 56
25 25 32
18 18 22
40 40 51
36 36 45
36 36 46
25 25 32
25 25 32
47 47 60
44 44 56
36 36 45
31 31 39
47 47 60
31 31 39
40 40 51
44 44 56
47 47 60
36 36 45
36 36 45
48 48 60
40 40 51
41 41 52
31 31 39
36 36 45
47 47 60
33 33 41
31 31 39
48 48 61
40 40 51
25 25 32
44 44 56
40 40 51
31 31 39
25 25 32
40 40 51
25 25 32
36 36 45
31 31 39
25 25 32
57 57 72
19 19 25
47 47 60
51 51 64
31 31 39
40 40 51
40 40 51
26 26 34
40 40 51
40 40 51
18 18 22
40 40 51
44 44 56
25 25 32
36 36 46
25 25 32
0 0 0
25 25 32
40 40 51
25 25 32
40 40 51
47 47 60
51 51 64
44 44 56
47 47 60
40 40 51
25 25 32
31 31 39
18 18 22
40 40 51
40 40 51
31 31 39
36 36 45
44 44 56
25 25 32
31 31 39
40 40 51
31 31 39
36 36 45
55 55 71
31 31 39
48 48 61
44 44 56
40 40 51
31 31 39
18 18 22
40 40 51
48 48 60
44 44 56
31 31 39
25 25 32
44 44 56
44 44 56
47 47 60
40 40 51
31 31 39
25 25 32
36 36 45
57 57 72
36 36 45
36 36 45
44 44 56
40 40 51
51 51 64
48 48 60
40 40 51
47 47 60
31 31 40
31 31 39
44 44 56
31 31 39
31 31 39
40 40 51
47 47 60
40 40 51
40 40 51
36 36 45
44 44 56
0 0 0
31 31 39
36 36 46
40 40 51
31 31 39
31 31 39
40 40 51
40 40 51
31 31 39
41 41 52
31 31 39
44 44 56
31 31 39
36 36 45
44 44 56
40 40 51
31 31 39
40 40 51
25 25 32
31 31 39
36 36 45
44 44 56
40 40 51
40 40 51
31 31 39
40 40 51
51 51 64
31 31 39
44 44 56
36 36 45
47 47 60
44 44 56
47 47 60
47 47 60
36 36 45
36 36 45
37 37 47
54 54 68
31 31 39
44 44 56
40 40 51
44 44 56
44 44 56
31 31 39
40 40 51
54 54 68
36 36 45
31 31 39
40 40 51
32 32 40
37 37 47
31 31 39
18 18 22
36 36 45
44 44 56
36 36 45
25 25 32
31 31 39
18 18 22
47 47 60
44 44 56
31 31 39
37 37 47
36 34 42
44 43 52
51 51 64
31 31 40
31 31 39
47 47 60
44 44 56
51 51 64
32 32 41
31 31 39
65 65 82
40 40 51
60 60 76
40 40 51
40 40 51
44 44 56
47 47 60
40 40 51
18 18 22
25 25 32
44 44 56
57 57 72
51 51 64
40 40 51
54 54 68
40 40 51
26 26 33
44 44 56
51 51 64
44 44 56
40 40 51
44 44 56
44 44 56
40 40 51
36 36 45
31 31 39
34 33 41
44 44 56
40 40 51
36 36 45
31 31 39
47 47 60
40 40 51
31 31 39
44 44 56
40 40 51
36 36 45
31 31 39
36 36 45
44 44 56
40 40 51
38 38 48
36 36 45
31 31 39
52 52 65
51 51 64
47 47 60
44 44 56
40 40 51
36 36 45
44 44 56
31 31 39
44 44 56
40 40 51
57 57 72
40 40 51
44 44 56
40 40 51
18 18 22
47 47 60
54 54 68
47 47 60
36 36 45
44 44 56
31 31 39
40 40 51
51 51 65
31 31 39
44 44 56
25 25 32
57 57 72
44 44 56
40 40 51
31 31 39
25 25 32
25 25 32
44 44 56
40 40 51
44 44 53
44 44 56
40 40 51
25 25 32
40 40 51
40 40 51
31 31 39
31 31 40
31 31 39
40 40 51
47 47 60
47 47 60
54 54 68
36 36 45
40 40 51
31 31 39
25 25 32
31 31 39
36 36 45
40 40 51
44 44 56
40 40 51
31 31 39
44 44 56
57 57 72
47 47 60
44 44 56
40 40 51
31 31 39
31 31 40
25 25 32
31 31 39
0 0 0
36 36 45
47 47 60
40 40 51
31 31 39
54 54 68
47 47 60
47 47 60
40 40 51
36 36 45
31 31 39
31 31 39
40 40 51
25 25 32
40 40 51
18 18 22
25 25 32
44 44 56
40 40 51
36 36 45
40 40 51
40 40 51
40 40 51
41 41 52
47 47 60
36 36 45
31 31 39
36 36 45
36 36 45
31 31 39
47 47 60
25 25 32
44 44 56
25 25 32
40 40 51
40 40 51
18 18 22
38 38 48
18 18 22
51 51 64
31 31 39
47 47 60
44 44 56
31 31 39
36 36 45
44 44 56
54 54 68
44 44 56
40 40 51
44 44 56
36 36 46
54 54 68
31 31 39
40 40 51
25 25 32
41 41 52
40 40 51
25 25 32
40 40 51
40 40 51
36 36 45
44 44 56
35 34 41
25 25 32
44 44 56
31 31 39
25 25 32
4 4 5
25 25 32
44 44 56
44 44 56
18 18 22
25 25 32
25 25 32
31 31 40
18 18 22
36 36 45
20 20 27
36 36 45
44 44 56
44 44 56
40 40 51
25 25 32
40 40 51
31 31 39
47 47 60
36 36 45
31 31 39
31 31 39
40 40 51
31 31 39
25 25 32
44 44 56
31 31 39
44 44 56
47 47 60
31 31 39
36 36 45
47 47 60
40 40 51
36 36 45
36 36 45
52 52 66
26 26 33
31 31 39
36 36 45
44 44 56
36 36 45
31 31 39
36 36 46
36 36 45
47 47 60
31 31 39
36 36 45
44 44 56
40 40 51
40 40 51
44 44 56
40 40 51
40 40 51
31 31 39
31 31 39
40 40 51
47 47 60
31 31 39
18 18 22
44 44 56
31 31 39
44 44 56
25 25 32
18 18 22
18 18 22
36 36 45
40 40 51
25 25 32
31 31 39
40 40 51
25 25 32
44 44 56
36 36 45
18 18 23
44 44 56
25 25 32
51 51 64
31 31 39
44 44 56
25 25 32
40 40 51
18 18 22
0 0 0
31 31 39
51 51 64
44 44 56
36 36 45
25 25 32
36 36 45
54 54 68
36 36 45
18 18 22
25 25 32
25 25 32
36 36 45
25 25 32
25 25 32
31 31 39
31 31 39
31 31 39
40 40 51
31 31 39
40 40 51
40 40 51
36 36 45
25 25 32
36 36 45
31 31 39
40 40 51
44 44 56
25 25 32
40 40 51
40 40 51
36 36 46
18 18 22
36 36 45
18 18 22
36 36 45
47 47 60
36 36 45
44 44 56
47 47 60
36 36 45
40 40 51
47 47 60
31 31 39
40 40 51
25 25 32
0 0 0
44 44 56
40 40 51
40 40 51
36 36 45
40 40 51
27 27 35
31 31 39
25 25 32
25 25 32
36 36 45
40 40 51
44 44 56
47 47 60
36 36 45
36 36 45
40 40 51
54 54 68
31 31 39
0 0 0
36 36 45
41 41 52
44 44 56
51 51 64
36 36 45
0 0 0
31 31 39
36 36 45
36 36 45
0 0 0
44 44 56
36 36 46
36 36 45
54 54 68
31 31 39
36 36 45
70 70 88
31 31 39
36 36 45
47 47 60
40 40 51
25 25 32
40 40 51
31 31 39
40 40 51
40 40 51
25 25 32
25 25 32
36 36 45
31 31 39
31 31 39
36 36 45
40 40 51
60 60 75
36 36 45
40 40 51
47 47 60
36 36 45
31 31 39
36 36 45
48 48 61
47 47 60
25 25 32
38 38 48
40 40 51
44 44 56
25 25 32
18 18 22
41 41 52
18 18 22
25 25 32
60 60 75
36 36 45
51 51 64
60 60 75
44 44 56
47 46 57
36 36 45
51 51 64
40 40 51
47 47 60
40 39 47
31 31 39
31 31 39
52 52 66
31 31 39
54 54 68
44 44 56
25 25 32
36 36 45
40 40 51
54 54 68
40 40 51
25 25 32
54 54 68
40 40 51
20 19 23
36 36 45
51 51 64
40 40 51
40 40 51
31 31 39
31 31 39
36 36 45
31 31 39
36 36 45
44 44 56
31 31 39
47 47 60
31 31 39
57 57 72
44 44 56
25 25 32
36 36 46
35 34 42
36 36 45
40 40 51
36 36 45
31 31 39
31 31 39
40 40 51
36 36 45
36 36 45
44 44 56
44 44 56
44 44 56
44 44 57
36 36 45
40 40 51
40 40 51
40 40 51
18 18 22
47 47 60
44 44 56
40 40 51
47 47 60
47 47 60
44 44 56
51 51 64
36 36 45
40 40 51
51 51 64
36 36 45
55 55 69
31 31 39
40 40 51
31 31 39
40 40 51
36 36 45
40 40 51
18 18 22
36 36 45
36 36 45
44 44 56
18 18 22
47 47 60
31 31 39
36 36 45
44 44 56
51 51 65
45 45 57
31 31 39
31 31 39
40 40 51
44 44 56
40 40 51
47 47 60
36 36 45
36 36 45
54 54 68
40 40 51
47 47 60
44 44 56
48 48 61
47 47 60
44 44 56
49 49 61
44 44 56
44 44 56
31 31 39
44 44 56
36 36 45
44 44 56
47 47 60
40 40 51
65 65 82
44 44 56
36 36 45
26 26 32
31 31 39
36 36 45
31 31 39
36 36 45
36 36 45
31 31 39
36 36 45
47 47 60
51 51 64
45 45 57
60 60 75
40 40 51
0 0 0
36 36 45
36 36 45
54 54 68
36 36 45
33 33 42
31 31 39
47 47 60
9 9 11
44 44 56
36 36 45
40 40 51
18 18 22
32 32 40
57 57 72
40 40 51
31 31 39
40 40 51
31 31 39
25 25 32
47 47 60
47 47 60
47 47 60
25 25 32
31 31 39
31 31 39
18 18 22
51 51 64
25 25 32
36 36 45
36 36 45
45 45 57
40 40 51
31 31 39
40 40 51
40 40 51
40 40 51
57 57 72
31 31 39
31 31 39
40 40 51
47 47 60
36 36 45
32 32 41
44 44 56
36 36 45
40 40 51
36 36 45
51 51 64
31 31 39
40 40 51
25 25 32
31 31 39
25 25 32
44 44 56
40 40 51
40 40 51
25 25 32
47 47 60
36 36 45
31 31 39
36 36 45
36 36 45
36 36 45
31 31 39
31 31 39
40 40 51
36 36 45
44 44 56
25 25 33
0 0 0
25 25 32
25 25 32
40 40 51
31 31 39
44 44 56
25 25 32
36 36 45
0 0 0
31 31 39
25 25 32
25 25 32
0 0 0
25 25 32
36 36 46
40 40 51
31 31 39
47 47 60
25 25 32
44 44 56
31 31 39
31 31 39
40 40 51
36 36 45
44 44 56
45 45 56
25 25 32
31 31 40
25 25 32
31 31 39
36 36 45
54 54 68
41 40 51
0 0 0
36 36 45
44 44 56
40 40 51
31 31 39
40 40 51
36 36 45
31 31 39
31 31 39
40 40 51
31 31 39
36 36 45
36 36 45
0 0 0
31 31 39
40 40 51
36 36 45
0 0 0
31 31 39
31 31 39
44 44 56
36 36 45
31 31 39
44 44 56
40 40 51
44 44 56
35 34 41
27 27 35
31 31 39
47 47 60
18 18 22
36 36 45
25 25 32
40 40 51
25 25 32
40 40 51
25 25 32
25 25 32
36 36 46
36 36 45
18 18 22
36 36 45
25 25 32
25 25 32
31 31 39
26 26 32
26 26 33
31 31 39
36 36 45
25 25 32
25 25 32
18 18 22
42 42 53
44 44 56
25 25 32
40 40 51
31 31 39
21 22 27
36 36 45
47 47 60
31 31 39
44 44 56
54 54 68
25 25 32
40 40 51
40 40 51
31 31 39
36 36 45
40 40 51
44 44 56
25 25 32
44 44 56
60 60 75
31 31 39
40 40 51
31 31 39
25 25 32
36 36 45
44 44 56
36 36 45
44 44 56
26 26 32
31 31 39
47 47 60
31 31 39
31 31 39
40 40 51
31 31 39
44 44 56
36 36 45
36 36 46
18 18 22
36 35 42
40 40 51
36 36 45
51 51 64
31 31 39
51 51 64
25 25 32
2 4 0
36 36 45
25 25 32
47 47 60
40 40 51
44 44 56
36 36 45
36 36 46
25 25 32
25 25 32
40 40 51
18 18 22
44 44 56
54 54 68
45 45 57
25 25 32
31 31 39
31 31 39
25 25 32
36 36 45
40 40 51
25 25 32
47 47 60
47 47 60
47 47 60
44 44 56
51 51 64
36 36 45
36 36 45
31 31 39
44 44 56
25 25 32
44 44 56
31 31 39
36 36 45
40 40 51
44 44 56
36 36 45
51 51 64
18 18 23
51 51 64
36 36 45
44 44 56
47 47 60
36 36 45
44 44 56
18 18 22
44 44 56
31 31 39
44 44 56
51 51 64
36 36 45
44 44 56
44 44 56
54 54 68
0 0 0
51 51 64
31 31 39
40 40 51
31 31 39
25 25 32
44 44 56
54 54 68
36 36 45
26 26 33
40 40 51
51 51 64
47 47 60
40 40 51
25 25 32
47 47 60
31 31 39
40 40 51
31 31 39
18 18 22
36 36 45
36 36 45
54 54 68
49 49 63
44 44 56
40 40 51
47 47 60
36 36 45
47 47 60
40 40 51
36 36 45
25 25 32
31 31 39
40 40 51
40 40 51
40 40 51
25 25 32
51 51 64
47 47 60
40 40 51
44 44 56
36 36 45
40 40 51
36 36 45
31 31 39
31 31 39
51 51 64
31 31 39
38 38 47
44 44 56
25 25 32
31 31 39
40 40 51
40 40 51
40 40 51
47 47 60
44 44 56
44 44 56
25 25 32
36 36 45
44 44 56
31 31 39
36 36 45
40 40 51
44 44 56
36 36 45
40 40 51
51 51 64
25 25 32
36 36 45
31 31 39
41 41 52
31 31 39
54 54 67
44 44 56
25 25 32
44 44 56
36 36 45
47 47 60
40 40 51
36 36 45
36 36 45
44 44 56
36 36 45
40 40 51
25 25 32
36 36 45
18 18 22
40 40 51
40 40 51
31 31 39
36 36 45
31 31 39
51 51 64
31 31 39
44 44 56
36 36 45
41 41 52
40 40 51
18 18 22
44 44 56
31 31 39
31 31 39
44 44 56
54 54 68
51 51 64
31 31 39
31 31 39
36 36 45
32 32 40
36 36 45
40 40 51
44 44 56
36 36 45
36 36 45
25 25 32
31 31 39
36 36 45
41 41 52
54 54 68
40 40 51
40 40 51
36 36 45
40 40 51
47 47 60
51 51 64
40 40 51
25 25 32
47 47 60
36 36 45
44 44 56
25 25 32
36 36 45
40 40 51
36 36 46
40 40 51
36 36 45
36 36 45
47 47 60
47 47 60
31 31 39
47 47 60
40 40 51
25 25 32
36 36 46
31 31 39
31 31 39
44 44 56
36 36 45
40 40 51
31 31 39
25 25 32
31 31 39
36 36 45
31 31 39
47 47 60
44 44 56
40 40 51
54 54 68
36 36 45
31 31 39
36 36 45
40 40 51
18 18 22
31 31 39
25 25 32
40 40 51
40 40 51
25 25 32
40 40 51
44 44 56
44 44 56
40 40 51
48 48 61
40 40 51
47 47 60
36 36 45
51 51 64
36 36 45
31 31 39
44 44 56
18 18 22
36 36 45
47 47 60
32 32 41
18 18 22
25 25 32
40 40 51
40 40 51
25 25 32
47 47 60
36 36 45
31 31 39
25 25 32
44 44 56
36 36 45
31 31 39
36 36 45
40 40 51
18 18 22
40 40 51
40 40 51
36 36 45
40 40 51
36 36 45
31 31 39
36 36 45
49 49 62
47 47 60
44 44 56
47 47 60
31 31 40
31 31 39
51 51 64
51 51 64
47 47 60
41 41 52
44 44 56
40 40 51
36 36 45
44 44 56
25 25 32
18 18 22
31 31 39
36 36 45
31 31 39
31 31 39
32 32 41
45 45 57
47 47 60
18 18 22
36 36 45
44 44 56
44 44 56
31 31 39
40 40 51
25 25 32
18 18 22
25 25 32
41 41 52
31 31 39
31 31 39
18 18 22
18 18 22
40 40 51
31 31 39
40 40 51
31 31 39
31 31 39
25 25 32
36 36 45
36 36 45
31 31 39
18 18 22
26 26 33
25 25 32
36 36 45
25 25 32
36 36 45
18 18 22
44 44 56
18 18 22
25 25 32
25 25 32
36 36 45
40 40 51
31 31 40
25 25 32
18 18 22
44 44 56
47 47 60
47 47 60
44 44 56
44 44 56
36 36 45
36 36 45
44 44 56
31 31 39
31 31 39
31 31 39
36 36 45
45 45 57
33 33 42
40 40 51
47 47 60
25 25 32
36 36 45
31 31 39
25 25 32
31 31 39
25 26 32
40 40 51
18 18 22
31 31 39
44 44 56
25 25 32
40 40 51
25 25 32
44 44 56
36 36 45
47 47 60
25 25 32
31 31 39
51 51 64
26 26 32
40 40 51
44 44 56
51 51 65
47 47 60
25 25 32
36 36 46
18 18 22
40 40 51
40 40 51
40 40 51
31 31 39
40 40 51
47 47 60
36 36 45
19 19 23
44 44 56
25 25 32
19 19 24
40 40 51
36 36 46
18 18 22
31 31 39
31 31 39
36 36 45
36 36 45
36 36 45
36 36 45
40 40 51
54 54 68
44 44 56
31 31 39
18 18 22
36 36 45
44 44 56
40 40 51
25 25 32
31 31 39
51 51 64
31 31 39
44 44 56
47 47 60
36 36 45
36 36 45
25 25 32
40 40 51
40 40 51
36 36 45
40 40 51
37 37 47
44 44 56
44 44 56
36 36 45
36 36 45
40 40 51
31 31 39
36 36 45
25 25 32
36 36 47
36 36 45
36 36 45
47 47 60
31 31 39
31 31 39
25 25 32
36 36 45
40 40 51
32 32 41
25 25 32
22 22 30
36 36 45
47 47 60
54 54 68
40 40 51
31 31 39
31 31 39
41 41 52
47 47 60
18 18 23
31 31 39
40 40 51
25 25 32
47 47 60
36 36 45
40 40 51
31 31 39
40 40 51
18 18 22
31 31 39
25 25 32
25 25 32
25 25 32
31 31 39
25 25 32
44 44 56
36 36 45
18 18 22
31 31 39
36 36 45
54 54 68
36 36 45
51 51 65
31 31 39
36 36 45
57 57 72
47 47 60
51 51 64
40 40 51
38 38 48
36 36 46
40 40 51
47 47 60
36 36 45
18 18 23
40 40 51
47 47 60
31 31 39
18 18 22
57 57 72
31 31 39
47 47 60
44 44 56
40 40 51
40 40 51
54 54 68
60 60 75
31 31 39
25 25 32
31 31 39
36 36 45
36 36 45
44 44 56
51 51 64
25 25 32
40 40 51
54 54 68
31 31 39
51 51 64
51 51 64
54 54 68
40 40 51
40 40 51
40 40 51
54 54 68
47 47 60
44 44 56
44 44 56
54 54 68
44 44 56
31 31 39
31 31 39
44 44 56
36 36 45
25 25 32
31 31 39
47 47 60
51 51 64
36 36 45
36 36 45
40 40 51
36 36 45
44 44 56
25 25 32
31 31 39
44 44 56
40 40 51
44 44 56
36 36 45
40 40 51
36 36 45
54 54 67
47 47 60
36 36 45
40 40 51
36 36 45
47 47 60
31 31 39
51 51 64
31 31 40
26 26 33
36 36 45
44 44 56
47 47 60
31 31 39
40 40 51
0 0 0
40 40 51
51 51 64
25 25 32
26 26 33
36 36 45
43 42 52
57 57 72
44 44 56
31 31 39
35 34 41
31 31 39
51 51 64
25 25 32
31 31 39
44 44 56
37 37 47
47 47 60
18 18 22
44 44 56
25 25 32
40 40 51
36 36 45
40 40 51
36 36 45
40 40 51
44 44 56
57 57 72
36 36 45
40 40 51
54 54 68
36 36 45
40 40 51
51 51 64
18 18 22
47 47 60
31 31 39
40 40 51
40 40 51
36 36 46
57 57 72
25 25 32
40 40 51
47 47 60
40 40 51
36 36 45
36 36 45
40 40 51
36 36 45
36 36 45
36 36 45
31 31 39
31 31 39
44 44 56
40 40 51
36 36 45
25 25 32
40 40 51
36 36 45
31 31 39
40 40 51
36 36 45
31 31 39
31 31 39
18 18 22
44 44 56
40 40 51
25 25 32
31 31 39
44 44 56
18 18 22
40 40 51
40 40 51
57 57 72
25 25 32
25 25 32
25 25 32
36 36 45
51 51 64
40 40 51
36 36 45
31 30 35
36 36 45
31 31 39
31 31 39
25 25 32
40 40 51
31 31 39
36 36 45
47 47 60
44 44 56
47 47 60
31 31 39
40 40 51
51 51 64
31 31 39
31 31 39
47 47 60
47 47 60
44 44 56
31 31 39
40 40 51
36 36 45
25 25 32
36 36 45
36 36 45
40 40 51
37 37 47
40 40 51
31 31 39
25 25 32
31 31 39
40 40 51
44 44 56
31 31 40
47 47 60
36 36 46
40 40 51
51 51 64
36 36 46
40 40 51
37 37 47
44 44 56
44 44 56
18 18 22
36 36 45
44 44 56
44 44 56
40 40 51
36 36 45
44 44 56
36 36 45
40 40 51
25 25 32
25 25 32
36 36 45
36 36 45
47 47 60
45 45 57
36 36 45
36 36 45
25 25 32
51 51 64
36 36 45
37 37 47
31 29 34
37 37 47
47 47 60
31 31 39
31 31 39
29 29 38
36 36 45
0 0 0
36 36 45
18 18 22
25 25 32
36 36 45
18 18 22
57 57 72
36 36 45
26 26 34
25 25 32
40 40 51
47 47 60
25 25 32
47 47 60
25 25 32
25 25 32
31 31 39
18 18 22
25 25 32
18 18 22
40 40 51
31 31 39
31 31 39
36 36 45
36 36 45
25 25 32
40 40 51
18 18 22
31 31 39
36 36 45
36 36 45
27 27 34
40 40 51
25 25 32
31 31 39
44 44 56
36 36 45
40 40 51
31 31 39
25 25 32
40 40 51
25 25 32
36 36 45
44 44 56
36 36 45
31 31 39
31 31 39
0 0 0
18 18 22
40 40 51
25 25 32
31 31 39
31 31 39
25 25 32
36 36 45
31 31 39
40 40 51
31 31 39
25 25 32
36 36 45
18 18 22
40 40 51
44 44 56
57 57 72
36 36 45
25 25 32
31 31 39
31 31 39
40 40 51
40 40 51
31 31 39
36 34 41
44 44 56
40 40 51
47 47 60
36 36 45
40 40 51
47 47 60
40 40 51
18 18 22
36 36 45
31 31 39
44 44 56
31 31 39
44 44 56
25 25 32
40 40 51
36 36 45
44 44 56
51 51 64
31 31 39
40 40 51
19 19 24
31 31 39
44 44 56
47 47 60
40 40 51
36 36 45
47 47 60
31 31 39
44 44 56
25 25 32
51 51 64
47 47 60
36 36 45
31 31 39
40 40 51
25 25 32
36 36 45
25 25 32
0 0 0
36 36 46
31 31 39
47 47 60
31 31 39
31 30 35
25 25 32
40 40 51
25 25 32
44 44 56
31 31 39
31 31 39
36 36 45
32 32 41
31 31 39
47 47 60
18 18 22
44 44 56
31 31 39
31 31 39
25 25 32
18 18 22
40 40 51
51 51 64
47 47 60
31 31 39
40 40 51
40 40 51
40 40 51
47 47 60
36 36 45
44 44 56
36 36 45
31 31 39
40 40 51
36 36 45
18 18 22
44 44 56
36 36 45
25 25 32
44 44 56
31 31 39
44 44 56
36 36 45
36 36 45
36 36 45
31 31 39
36 36 45
47 47 60
40 40 51
44 44 56
40 40 51
44 44 56
36 36 45
36 36 45
33 32 40
25 25 32
36 35 42
25 25 32
40 40 51
36 36 45
31 31 39
44 44 56
44 44 56
31 31 39
25 25 32
25 25 32
44 44 56
36 36 45
25 25 32
36 36 45
57 56 67
40 40 51
36 36 45
18 18 22
40 40 51
18 18 22
44 44 56
40 40 51
40 40 51
31 31 39
31 31 39
47 47 60
47 47 60
40 40 51
25 25 32
31 31 40
25 25 32
54 54 68
54 54 68
44 44 56
44 44 56
25 25 32
44 44 56
36 36 45
31 31 39
40 40 51
31 31 39
44 44 56
51 51 64
36 36 45
36 36 45
40 40 51
47 47 60
40 40 51
40 40 51
40 40 51
47 47 60
31 31 39
18 18 22
25 25 32
33 33 41
40 40 51
44 44 56
47 47 60
25 25 32
36 36 45
36 36 45
36 36 45
31 31 39
47 47 60
25 25 32
47 47 60
27 27 35
40 40 51
40 40 51
31 31 39
36 36 45
36 36 45
40 40 51
25 25 32
25 25 32
40 40 51
31 31 39
25 25 32
44 44 56
40 40 51
54 54 68
25 25 32
25 25 32
44 44 56
18 18 22
26 26 32
31 31 39
25 25 32
40 40 51
36 36 45
36 36 45
31 31 39
36 36 45
36 36 45
44 44 56
36 36 45
25 25 32
25 25 32
25 25 32
19 19 24
36 36 45
36 36 45
25 25 32
54 54 68
18 18 22
36 36 45
40 40 51
36 36 45
47 47 60
44 44 56
36 36 46
25 25 32
51 51 64
40 40 51
47 47 60
40 40 51
40 40 51
31 31 39
36 36 45
40 40 51
48 48 61
47 47 60
47 47 60
32 32 40
40 40 51
36 36 45
25 25 32
54 54 68
18 18 22
47 47 60
25 25 32
51 51 64
60 60 75
40 40 51
25 25 32
47 47 60
36 36 45
47 47 60
47 47 60
31 31 39
48 48 61
31 31 39
25 25 32
31 31 39
54 54 68
47 47 60
18 18 22
40 40 51
31 31 39
36 36 45
31 31 39
25 25 32
18 18 22
51 51 64
25 25 32
40 40 51
51 51 64
40 40 51
31 31 39
40 40 51
47 47 60
47 47 60
31 31 39
51 51 64
36 36 45
36 36 45
40 40 51
31 31 39
47 47 60
40 40 51
36 36 45
44 44 56
26 26 33
36 36 47
40 40 51
44 44 56
25 25 32
51 51 64
54 54 68
31 31 39
31 31 39
25 25 32
31 31 39
31 31 39
25 25 32
25 25 32
36 36 45
57 57 72
31 31 39
36 36 45
36 36 45
31 31 39
36 36 45
25 25 32
51 51 64
47 47 60
40 40 51
40 40 51
31 31 39
48 48 60
0 0 0
36 36 45
54 54 68
36 36 45
40 40 51
31 31 39
31 31 39
47 47 60
40 40 51
40 40 51
41 41 52
36 36 45
18 18 23
18 18 22
25 25 32
31 31 39
31 31 39
40 40 51
40 40 51
40 40 51
44 44 56
31 31 40
31 31 39
33 33 42
25 25 32
31 31 39
25 25 32
25 25 32
40 40 51
0 0 0
31 31 39
0 0 0
40 40 51
31 31 39
44 44 56
31 31 39
54 54 68
40 40 51
25 25 32
31 31 39
25 25 32
18 18 22
25 25 32
44 44 56
18 18 22
40 40 51
31 31 39
36 36 45
31 31 39
31 31 39
44 44 56
47 47 60
36 36 45
27 27 34
36 36 45
36 36 45
36 36 45
18 18 22
40 40 51
36 36 45
40 40 51
36 36 45
40 40 51
31 31 39
40 40 51
25 25 32
31 31 39
47 47 60
25 25 32
44 44 56
18 18 22
25 25 32
25 25 32
0 0 0
18 18 22
31 31 39
18 18 22
31 31 39
41 41 52
47 47 60
18 18 22
25 25 32
31 31 39
44 44 56
51 51 64
36 36 46
31 31 39
18 18 24
25 25 32
40 40 51
18 18 22
44 44 56
31 31 39
18 18 22
0 0 0
31 31 39
26 26 33
25 25 32
31 31 39
0 0 0
36 36 45
40 40 51
31 31 39
31 31 39
51 51 64
25 25 32
40 40 51
44 44 56
31 31 39
31 31 39
36 36 45
47 47 60
31 31 40
31 31 39
40 40 51
47 47 60
25 25 32
44 44 56
25 25 32
36 36 45
31 31 39
31 31 39
31 31 39
44 44 56
47 47 60
31 31 39
25 25 32
36 36 45
47 47 60
25 25 32
31 31 39
44 44 56
18 18 23
45 45 57
44 44 56
47 47 60
31 31 39
44 44 56
40 40 51
54 54 68
36 36 45
36 36 45
54 54 68
31 31 39
51 51 64
31 31 39
44 44 56
36 36 45
18 18 22
40 40 51
37 37 47
51 51 64
40 40 51
44 44 56
25 25 32
40 40 51
31 31 39
40 40 51
36 36 45
54 54 68
25 25 32
37 37 47
51 51 64
18 18 22
36 36 45
36 36 45
36 36 45
18 18 22
44 44 56
40 40 51
25 25 32
31 31 39
36 36 45
0 0 0
25 25 32
36 36 46
31 31 39
31 31 39
31 31 39
25 25 32
36 36 45
31 31 39
44 44 56
57 57 72
36 36 45
47 47 60
36 36 45
40 40 51
25 25 32
51 51 64
40 40 51
25 25 32
40 40 51
36 36 45
36 36 46
62 62 79
36 36 45
36 36 45
25 25 32
36 36 45
36 36 45
40 40 51
33 33 41
36 36 45
44 44 56
40 40 51
44 44 56
18 18 22
31 31 39
36 36 45
40 40 51
40 40 51
40 40 51
36 36 45
47 47 60
40 40 51
31 31 39
44 44 56
25 25 32
36 36 45
31 31 39
36 36 45
31 31 39
47 47 60
36 36 45
36 36 45
36 36 45
40 40 51
40 40 51
47 47 60
57 57 72
25 25 32
44 44 56
44 44 56
44 44 56
47 47 60
31 31 39
40 40 51
26 26 33
54 54 68
31 31 39
40 40 51
44 44 56
36 36 45
44 44 56
18 18 22
31 31 39
36 36 45
31 31 39
25 25 32
40 40 51
36 36 45
47 47 60
25 25 32
40 40 51
31 31 39
40 40 51
44 44 56
0 0 0
31 31 39
25 25 32
44 44 56
36 36 45
25 25 32
40 40 51
25 25 32
36 36 45
25 25 32
18 18 22
31 31 39
0 0 0
31 31 39
25 25 32
54 54 68
40 40 51
40 40 51
18 18 22
36 36 45
31 31 39
47 47 60
38 37 46
40 40 51
36 36 45
25 25 32
40 40 51
18 18 22
54 54 68
36 36 45
40 40 51
0 0 0
31 31 39
54 54 68
62 62 79
54 54 68
40 40 51
31 31 39
40 39 47
31 31 40
25 25 32
47 47 60
36 36 45
25 25 32
18 18 22
25 25 32
47 47 60
36 36 45
47 47 60
36 36 46
36 36 45
40 40 51
25 25 32
44 44 56
44 44 56
36 36 45
31 31 39
36 36 45
36 36 45
47 47 60
40 40 51
40 40 51
36 36 45
36 36 45
36 36 45
31 31 39
25 25 32
36 36 45
18 18 22
47 47 60
47 48 60
44 44 56
36 36 45
36 36 45
36 36 45
25 25 32
25 25 32
31 31 39
36 36 45
47 47 60
36 36 45
36 36 45
36 36 45
25 25 32
18 18 22
31 31 39
25 25 32
44 44 56
31 31 39
31 31 39
31 31 39
25 25 32
40 40 51
40 40 51
36 36 45
44 44 56
31 31 39
18 18 22
25 25 32
31 31 40
25 25 32
36 36 45
25 25 32
31 31 39
36 36 45
36 36 45
36 36 45
36 36 47
44 44 56
36 36 45
36 36 45
31 31 39
40 40 51
18 18 22
26 26 33
44 44 56
36 36 45
44 44 56
36 36 45
40 40 51
36 36 46
40 40 51
40 40 51
44 44 56
36 36 45
47 47 60
44 44 56
25 25 32
36 36 45
31 31 39
31 31 39
25 25 32
51 51 64
44 44 56
31 31 39
18 18 22
26 26 33
25 25 32
25 25 32
36 36 45
18 18 22
40 40 51
25 25 32
31 31 39
31 31 39
36 36 45
36 36 45
0 0 0
31 31 39
31 31 39
44 44 56
18 18 22
0 0 0
18 18 22
25 25 32
36 36 45
25 25 32
47 47 60
31 31 39
40 40 51
44 44 56
36 36 45
31 31 39
40 40 51
25 25 32
40 40 51
51 51 64
31 31 39
25 25 32
51 51 64
41 41 49
44 44 56
44 44 56
36 36 45
36 36 45
36 36 45
36 36 45
31 31 39
18 18 23
18 18 22
44 44 56
31 31 39
31 31 39
18 18 22
25 25 32
0 0 0
18 18 22
40 40 51
40 40 51
18 18 22
40 40 51
25 25 32
36 36 45
18 18 22
36 36 45
44 44 56
47 47 60
18 18 22
31 31 39
36 36 45
36 36 46
18 18 23
18 18 22
18 18 22
32 32 40
31 31 39
26 26 33
31 31 39
18 18 22
36 36 46
18 18 22
31 31 39
31 31 39
47 47 60
31 31 39
31 31 39
31 31 39
36 36 45
28 28 36
40 40 51
40 40 51
25 25 32
36 36 45
36 36 45
51 51 64
25 25 32
31 31 39
18 18 22
18 18 22
36 36 45
36 36 45
40 40 51
31 31 39
31 31 39
25 25 32
40 40 51
44 44 56
18 18 22
31 31 39
40 40 51
40 40 51
25 25 32
36 36 46
31 31 39
31 31 39
40 40 51
31 31 39
40 40 51
31 31 39
36 36 45
40 40 51
36 36 45
40 40 51
40 40 51
40 40 51
54 54 68
31 31 39
40 40 51
31 31 39
36 36 46
36 36 45
47 47 60
25 25 32
44 44 56
40 40 51
0 0 0
25 25 32
31 31 39
47 47 60
44 44 56
37 37 47
40 40 51
36 36 45
31 31 39
18 18 22
44 44 56
36 36 45
0 0 0
40 40 51
47 47 60
36 36 45
36 36 45
51 51 64
40 40 51
31 31 40
36 36 45
31 31 39
44 44 56
40 40 51
31 31 39
40 40 51
31 31 39
57 57 72
40 40 51
36 36 45
25 25 32
36 36 45
31 32 39
41 41 52
44 44 56
44 44 56
31 31 39
31 31 39
44 44 56
47 48 60
40 40 51
25 25 32
44 44 56
48 48 61
47 47 60
44 44 56
44 44 56
36 36 45
31 31 39
51 51 64
47 47 60
31 31 39
25 25 32
44 44 56
36 36 45
40 40 51
44 44 56
47 47 60
31 31 39
18 18 22
47 47 60
31 31 39
32 32 40
40 40 51
40 40 51
36 36 45
25 25 32
44 44 56
31 31 39
47 47 60
36 36 45
44 44 56
40 40 51
40 40 51
36 36 45
36 36 45
36 36 45
25 25 32
40 40 51
25 25 32
40 40 51
40 40 51
36 36 45
31 31 39
47 47 60
44 44 56
41 41 52
36 36 45
41 41 52
46 45 57
36 36 45
44 44 56
54 54 68
40 40 51
36 36 45
36 36 45
31 31 39
31 31 39
31 31 39
20 20 25
31 31 39
0 0 0
31 31 39
18 18 22
40 40 51
31 31 39
44 44 56
31 31 39
40 40 51
40 40 51
47 47 60
36 36 45
47 47 60
36 36 45
36 36 45
31 31 39
44 44 56
36 36 45
44 44 56
51 51 64
44 44 56
36 36 45
44 44 56
44 44 56
25 25 32
36 36 45
25 25 32
36 36 45
40 40 51
36 36 45
36 36 46
36 36 45
36 36 45
25 25 32
25 25 32
36 36 45
26 26 33
40 40 51
44 44 56
51 51 64
40 40 51
40 40 51
40 40 51
18 18 22
44 44 56
57 57 72
44 44 56
36 36 45
25 25 32
51 51 64
40 40 51
40 40 51
47 47 60
40 40 51
44 44 56
51 51 64
40 40 51
31 31 39
51 51 64
31 31 39
51 51 64
44 44 56
31 31 39
44 44 56
51 51 64
47 47 60
0 0 0
31 31 39
47 47 60
40 40 51
40 40 51
44 44 56
36 36 45
18 18 24
44 44 56
31 31 39
31 31 39
36 36 45
40 40 51
36 36 45
38 38 47
47 47 60
40 40 51
44 44 56
40 40 51
20 20 25
31 31 39
44 44 56
36 36 45
31 31 39
36 36 45
36 36 45
44 44 56
27 27 34
44 44 56
25 25 32
31 31 39
25 25 32
25 25 32
31 31 39
40 40 51
31 31 39
38 38 48
31 31 39
26 26 33
44 44 56
44 44 56
51 51 64
31 31 39
31 31 39
41 41 53
44 44 56
36 36 45
40 40 51
44 44 56
31 31 39
31 31 39
25 25 32
31 31 39
36 36 45
25 25 32
40 40 51
31 31 39
31 31 39
44 44 56
36 36 45
31 31 39
36 36 45
31 31 40
31 31 39
37 37 47
40 40 51
31 31 39
31 31 39
36 36 45
40 40 51
18 18 23
36 36 45
18 18 22
44 44 56
47 47 60
44 44 56
40 40 51
18 18 22
36 36 45
51 51 64
44 44 56
40 40 51
31 31 39
18 18 22
31 31 39
18 18 22
47 47 60
36 36 45
25 25 32
36 36 46
36 36 45
25 25 32
18 18 22
31 31 39
31 31 39
57 57 72
31 31 39
54 54 68
47 47 60
44 43 53
47 47 60
36 36 46
25 25 32
26 26 33
36 36 46
36 36 45
44 44 56
36 36 45
40 40 51
44 44 56
40 40 51
31 31 39
18 18 22
2 4 0
40 40 51
31 31 39
31 31 39
31 31 39
36 36 46
36 36 45
26 26 33
31 31 39
31 31 40
25 25 32
25 25 32
31 31 39
40 40 51
51 51 64
40 40 51
25 25 32
36 36 46
36 36 45
25 25 32
36 36 45
36 36 45
36 36 45
44 44 56
57 57 72
31 31 39
44 44 56
36 36 45
32 32 41
31 31 39
36 36 45
36 36 45
36 36 46
25 25 32
31 31 39
31 31 39
25 25 32
25 25 32
36 36 45
25 25 32
36 36 45
31 31 39
40 40 51
37 37 46
25 25 32
31 31 39
37 37 46
25 25 32
25 25 32
40 40 51
31 31 39
40 40 51
22 21 25
31 31 39
18 18 22
36 36 45
36 36 45
25 25 32
31 31 40
25 25 32
40 40 51
44 44 56
31 31 39
31 31 39
26 26 33
40 40 51
42 42 53
36 36 45
36 36 45
44 44 56
36 36 45
31 31 39
31 31 39
41 41 52
25 25 32
31 31 39
36 36 45
25 25 32
36 36 45
25 25 32
18 18 22
31 31 39
44 44 56
25 25 32
25 25 32
40 40 51
0 0 0
31 31 39
44 44 56
26 26 33
25 25 32
36 36 45
36 36 45
0 0 0
40 40 51
40 40 51
47 47 60
40 40 51
37 37 47
48 48 60
36 36 45
0 0 0
44 44 56
31 31 39
36 36 45
36 36 45
0 0 0
47 47 60
31 31 39
44 44 56
31 31 39
44 44 56
47 47 60
47 47 60
31 31 39
31 31 39
44 44 56
18 18 22
44 44 56
18 18 22
36 36 45
54 54 68
44 44 56
25 25 32
25 25 32
47 47 60
18 18 22
57 57 72
36 36 45
40 40 51
31 31 39
36 36 45
25 25 32
36 36 46
40 40 51
36 36 45
40 40 51
36 36 45
31 31 39
40 40 51
31 31 39
31 31 39
40 40 51
44 44 56
18 18 22
25 25 32
25 25 32
40 40 51
36 36 45
31 31 39
47 47 60
18 18 22
47 47 60
47 46 57
18 18 22
31 31 39
36 36 45
51 51 64
25 25 32
36 36 45
44 44 56
18 18 22
40 40 51
31 31 40
36 36 45
18 18 22
37 37 47
25 25 32
47 47 60
18 18 22
31 31 39
36 36 45
25 25 32
40 40 51
0 0 0
31 31 39
36 36 45
44 44 56
36 36 45
25 25 32
40 40 51
18 18 23
18 18 22
44 44 56
40 40 51
36 36 45
18 18 22
36 36 45
18 18 22
36 36 45
40 40 51
36 36 45
40 40 51
31 31 39
31 31 39
40 40 51
47 47 60
31 31 39
40 40 51
25 25 32
40 40 51
40 40 51
31 31 39
40 40 51
36 36 45
36 36 45
31 31 39
25 25 32
54 54 68
47 47 60
25 25 32
40 40 51
47 47 60
40 40 51
31 31 39
18 18 22
44 44 56
28 28 37
25 25 32
47 47 60
0 0 0
47 47 60
51 51 64
31 31 39
36 36 45
40 40 51
31 31 39
31 31 39
40 40 51
36 36 45
31 31 39
44 44 56
51 51 64
25 25 32
36 36 45
18 18 22
40 40 51
36 36 45
31 31 39
40 40 51
44 44 56
40 40 51
0 0 0
31 31 39
18 18 22
54 54 68
40 40 51
36 36 45
36 36 45
40 40 51
25 25 32
31 31 39
0 0 0
25 25 32
36 36 45
44 44 56
44 44 56
36 36 45
31 31 39
44 44 56
51 51 64
40 40 51
44 44 56
36 36 45
65 65 83
31 31 39
44 44 56
31 31 39
25 25 32
31 31 39
31 31 39
44 44 56
25 25 32
41 41 52
36 36 45
31 31 39
47 47 60
31 31 39
40 40 51
25 25 32
18 18 22
38 38 48
36 36 45
31 31 39
31 31 39
31 31 39
31 31 39
36 36 45
31 31 39
31 31 40
18 18 23
31 31 39
31 31 40
0 0 0
40 40 51
25 25 32
36 36 45
25 25 32
36 36 45
31 31 39
51 51 64
40 40 51
44 44 56
36 36 45
31 31 39
51 51 64
31 31 39
31 31 39
51 51 65
40 40 51
40 40 51
31 31 39
40 40 51
44 44 56
40 40 51
31 31 39
0 0 0
36 36 45
36 36 46
31 31 39
40 40 51
44 44 56
36 36 45
36 36 45
36 36 45
47 47 60
44 44 56
44 44 56
36 36 45
40 40 51
44 44 56
25 25 32
25 25 32
45 45 57
18 18 22
36 36 45
36 36 45
32 32 40
31 31 39
31 31 39
36 36 45
36 36 46
25 25 32
25 25 32
44 44 56
40 40 51
18 18 22
36 36 45
25 25 32
31 31 39
25 25 32
51 51 64
36 36 45
36 35 43
44 44 56
25 25 32
18 18 22
44 44 56
47 47 60
41 41 53
48 48 61
36 36 45
40 40 51
31 31 39
18 18 22
31 31 39
44 44 56
31 31 39
0 0 0
31 31 39
36 36 45
44 44 56
25 25 32
60 60 75
25 25 32
31 31 39
31 31 39
25 25 32
0 0 0
36 36 45
25 25 32
31 31 39
31 31 39
31 31 39
25 25 32
44 44 56
47 47 60
36 36 45
44 44 56
36 36 45
25 25 32
36 36 45
31 31 39
51 51 64
36 36 45
40 40 51
40 40 51
25 25 32
31 31 40
36 36 45
36 36 45
44 44 56
25 25 32
36 36 45
25 25 32
36 36 45
47 47 60
31 31 39
40 40 51
36 36 45
31 31 39
40 40 51
25 25 32
36 36 45
40 40 51
25 25 32
25 25 32
25 25 32
44 44 56
25 25 32
36 36 45
25 25 32
31 31 39
40 40 51
40 40 51
25 25 32
40 40 51
25 25 32
31 31 39
25 25 32
40 40 51
47 47 60
18 18 22
40 40 51
31 31 39
51 51 64
31 31 39
40 40 51
25 25 32
36 36 45
31 31 39
18 18 22
25 25 32
36 36 45
25 25 32
31 31 39
36 36 45
18 18 22
21 21 26
36 36 45
36 36 45
31 31 39
25 25 32
19 19 24
31 31 39
25 25 32
18 18 22
25 25 32
31 31 39
18 18 22
18 18 22
25 25 32
31 31 39
25 25 32
18 18 22
44 44 56
36 36 46
25 25 32
37 37 47
36 36 46
36 36 45
31 31 40
40 40 52
7 7 11
36 36 45
36 36 45
40 40 51
40 40 51
36 36 45
25 25 32
31 31 39
31 31 39
25 25 32
44 44 56
25 25 32
25 25 32
0 0 0
25 25 32
36 36 45
40 40 51
18 18 22
31 31 39
31 31 39
31 31 39
47 47 60
44 44 56
25 25 32
31 31 39
51 51 64
25 25 32
36 36 45
25 25 32
36 36 45
44 44 56
36 36 45
31 31 39
48 48 61
38 38 50
51 51 64
44 44 56
31 31 39
40 40 51
40 40 51
31 31 40
18 18 22
18 18 22
36 36 45
31 31 39
44 44 56
0 0 0
36 36 45
31 31 39
25 25 32
44 44 56
31 31 39
31 31 39
36 36 45
36 36 45
25 25 32
40 40 51
40 40 51
47 47 60
36 36 45
40 40 51
36 36 45
51 51 64
40 40 51
36 36 45
25 25 32
51 51 64
40 40 51
31 31 39
51 51 64
25 25 32
36 36 45
33 33 41
31 31 39
47 47 60
31 31 39
40 40 51
25 25 32
44 44 56
44 44 56
18 18 23
31 31 39
18 18 22
40 40 51
36 36 46
40 40 51
51 51 64
40 40 51
54 54 68
25 25 32
57 57 72
40 40 51
25 25 32
18 18 22
40 40 51
31 31 39
47 47 60
25 25 32
31 31 39
18 18 22
31 31 39
31 31 39
47 47 60
36 36 45
25 25 32
47 47 60
36 36 46
31 31 40
47 47 60
32 32 41
36 36 45
47 47 60
31 31 39
40 40 51
31 31 39
48 48 60
31 31 39
40 40 51
47 47 60
40 40 51
31 31 39
25 25 32
47 47 60
33 33 44
44 44 56
31 31 39
40 40 51
54 54 68
25 25 32
36 36 45
51 51 64
40 40 51
31 31 39
54 54 68
44 44 56
36 36 45
47 47 60
47 47 60
25 25 32
40 40 51
25 25 32
47 47 60
36 36 45
25 25 32
51 51 64
40 40 51
47 47 60
36 36 45
40 40 51
25 25 32
36 36 45
40 40 51
36 36 45
40 40 51
26 26 34
40 40 51
40 40 51
31 31 39
36 36 45
36 36 45
40 40 51
44 44 56
27 27 34
40 40 51
36 36 45
40 40 51
44 44 56
51 49 61
44 44 56
44 44 56
31 31 39
47 47 60
36 36 45
36 36 45
40 40 51
25 25 32
31 31 39
36 36 45
32 32 40
44 44 56
25 25 32
25 25 32
18 18 22
31 31 39
44 44 56
25 25 32
44 44 56
36 36 45
36 36 46
31 31 39
40 40 51
36 36 45
36 36 45
31 31 40
44 44 56
36 36 45
36 36 45
44 44 56
47 47 60
47 47 60
25 25 32
36 36 45
36 36 45
31 31 39
18 18 22
27 27 34
40 40 51
47 47 60
44 44 56
37 37 47
18 18 22
18 18 22
40 40 51
36 36 45
25 25 32
47 47 60
40 40 51
36 36 45
36 36 45
40 40 51
44 44 56
36 36 45
47 47 60
57 57 72
31 31 39
44 44 56
44 44 56
44 44 56
51 51 64
37 37 47
45 45 56
44 44 56
18 18 22
25 25 32
40 40 47
18 18 22
44 44 56
36 36 45
37 37 47
36 36 45
40 40 51
44 44 56
25 25 32
36 36 45
18 18 22
42 42 53
44 44 56
40 39 47
62 62 79
36 36 46
47 47 60
44 44 56
31 31 39
31 31 39
25 25 32
25 25 32
44 44 56
36 36 45
31 31 39
18 18 22
36 36 45
31 31 39
36 36 46
18 18 22
47 47 60
25 25 32
25 25 32
44 44 56
36 36 45
25 25 32
18 18 22
36 36 45
40 40 51
33 32 41
44 44 56
47 47 60
40 40 51
25 25 32
20 20 25
40 40 51
28 27 32
36 36 45
31 31 39
20 20 25
31 31 39
31 31 39
31 31 39
25 25 32
31 31 39
31 31 39
44 44 56
25 25 32
31 31 39
36 36 45
36 36 46
25 25 32
51 51 64
0 0 0
31 31 39
36 36 45
40 40 51
31 31 39
31 31 39
26 26 34
18 18 22
25 25 32
62 62 79
18 18 22
25 25 32
51 51 64
44 44 56
25 25 32
36 36 45
47 47 60
36 36 45
36 36 45
25 25 32
36 36 45
36 36 45
36 36 45
18 18 22
25 25 32
36 36 45
44 44 56
31 31 39
31 31 39
25 25 32
18 18 22
44 44 56
32 32 40
36 36 45
40 40 51
44 44 56
25 25 32
36 36 45
44 44 56
41 41 52
40 40 51
40 40 51
40 40 51
36 36 46
36 36 45
36 36 45
40 40 51
36 36 45
47 47 60
51 51 64
31 31 39
36 36 45
40 40 51
25 25 32
25 25 32
0 0 0
36 36 45
36 36 45
25 25 32
31 31 39
36 36 45
31 31 39
18 18 22
40 40 51
37 37 47
31 31 39
18 18 22
44 44 56
36 36 45
25 25 32
40 40 51
25 25 32
31 31 39
36 36 45
31 31 39
36 36 45
18 18 22
25 25 32
25 25 32
31 31 39
18 18 22
31 31 39
25 25 32
0 0 0
25 25 32
31 31 39
31 31 39
32 32 41
31 31 39
25 25 32
25 25 32
25 25 32
40 40 51
25 25 32
18 18 22
31 30 36
31 31 39
0 0 1
40 40 51
40 40 51
31 31 39
36 36 45
31 31 39
25 25 32
31 31 39
44 44 56
31 31 39
18 18 22
31 31 39
25 25 32
36 36 45
25 25 32
25 25 32
32 32 41
25 25 32
44 44 56
36 36 45
47 47 60
25 25 32
25 25 32
36 36 45
40 40 51
36 36 45
31 31 39
25 25 32
47 47 60
40 40 51
31 31 39
31 31 39
31 31 39
40 40 51
25 25 32
40 40 51
36 36 45
31 31 39
36 36 45
36 36 46
47 47 60
47 47 60
36 36 45
36 36 45
25 25 32
36 36 46
36 36 45
31 31 39
36 36 45
36 36 45
18 18 22
44 44 56
40 40 51
36 36 45
44 44 56
44 44 56
40 40 51
44 44 56
48 48 61
36 36 45
47 48 60
44 44 56
36 36 45
25 25 32
31 31 39
40 40 51
31 31 39
18 18 22
25 25 32
31 31 39
31 31 40
36 36 45
25 25 32
31 31 39
40 40 51
40 40 51
25 25 32
44 44 56
54 54 68
36 36 45
65 65 82
40 40 51
31 31 39
51 51 64
31 31 39
40 40 51
40 40 51
36 36 46
40 40 51
36 36 45
25 23 26
18 18 22
36 36 45
36 36 45
40 40 51
44 44 56
36 36 45
31 31 39
25 25 32
18 18 22
31 31 39
36 36 45
44 44 56
40 40 51
31 31 39
31 31 39
51 51 64
36 36 45
36 36 45
44 44 56
44 44 56
36 36 45
31 31 39
36 36 45
18 18 22
44 44 56
44 44 56
25 25 32
40 40 51
44 44 56
31 31 39
44 44 56
47 47 60
40 40 51
44 44 56
36 36 45
31 31 39
36 36 45
36 36 45
31 31 39
36 36 45
36 36 45
36 36 45
37 37 47
40 40 51
47 47 60
36 36 45
36 36 45
31 31 39
44 44 56
25 25 32
36 36 45
40 40 51
18 18 22
36 36 46
18 18 22
40 40 51
31 31 39
18 18 23
36 36 45
36 36 45
31 31 39
51 51 64
44 44 56
36 36 45
25 25 32
40 40 51
31 31 39
47 47 60
44 44 56
31 31 39
31 31 39
18 18 22
57 57 72
18 18 22
18 18 22
31 31 39
44 44 56
31 31 39
36 36 44
36 36 45
31 31 39
36 36 45
18 18 22
36 36 45
18 18 22
18 18 22
31 31 39
44 44 56
47 47 60
40 40 51
0 0 0
31 31 39
26 26 33
51 51 64
18 18 22
25 25 32
31 31 39
0 0 0
25 25 32
31 31 39
47 47 60
36 36 45
25 25 32
36 36 45
40 40 51
54 54 68
40 40 51
36 36 45
31 31 39
25 25 32
5 5 7
25 25 32
47 47 60
31 31 39
36 36 45
41 41 52
47 47 60
44 44 56
36 36 45
31 31 39
31 31 39
44 44 56
51 51 64
51 51 64
40 40 51
0 0 0
18 18 22
47 47 60
18 18 22
31 31 39
54 54 68
25 25 32
51 51 64
40 40 51
25 25 32
21 21 27
37 37 47
18 18 22
45 45 57
40 40 51
18 18 22
40 40 51
31 31 39
31 31 39
25 25 32
44 44 56
25 25 32
18 18 22
36 36 45
25 25 32
40 40 51
0 0 0
31 31 39
18 18 22
36 36 45
25 25 32
31 31 39
36 36 45
40 40 51
36 36 45
31 31 39
31 31 39
18 18 22
31 31 39
40 40 51
31 31 39
36 36 45
51 51 64
25 25 32
25 25 32
18 18 22
40 40 51
51 51 64
36 36 45
40 40 51
18 18 22
25 25 32
51 51 64
54 54 68
36 36 45
40 40 51
31 31 39
44 44 56
25 25 32
18 18 22
31 31 39
44 44 56
51 51 64
36 36 45
36 36 45
18 18 22
0 0 0
51 51 64
31 31 39
36 34 41
25 25 32
25 25 32
31 31 40
25 25 32
44 44 56
36 36 46
44 44 56
31 31 39
0 0 0
25 25 32
36 36 45
25 25 32
47 47 60
25 25 32
31 31 39
40 40 51
33 33 41
31 31 40
26 26 33
31 31 39
40 40 51
44 44 56
0 0 0
22 22 28
36 36 45
51 51 64
31 31 39
36 36 45
36 36 45
25 25 32
36 36 45
31 31 39
25 25 32
31 31 39
18 18 23
40 40 51
36 36 45
47 47 60
44 44 56
31 31 39
31 31 39
31 31 39
44 44 56
0 0 0
31 31 40
48 48 61
25 25 32
36 36 45
25 25 32
25 25 32
25 25 32
40 40 51
25 25 32
36 36 45
25 25 32
44 44 56
36 36 45
40 40 51
31 31 39
31 31 39
40 40 51
31 31 39
31 31 39
31 31 39
31 31 39
31 31 39
18 18 23
25 25 32
31 31 39
40 40 51
31 31 39
40 40 51
36 36 45
25 25 32
31 31 39
36 36 45
31 31 39
44 44 56
18 18 22
36 36 46
44 44 56
31 30 35
47 47 60
25 25 32
31 31 39
44 44 56
31 31 40
36 36 45
31 31 39
18 18 22
29 27 33
25 25 32
25 25 32
0 0 0
36 36 45
37 37 47
47 47 60
0 0 0
18 18 22
25 25 32
31 31 39
38 38 48
0 0 0
44 44 56
44 44 56
36 36 45
18 18 22
19 19 24
18 18 22
45 45 57
36 36 45
40 40 51
40 40 51
36 36 45
36 36 45
18 18 22
18 18 22
31 31 39
31 31 39
41 41 51
26 26 32
31 31 39
31 31 39
48 48 61
31 31 39
40 40 51
31 31 39
25 25 32
44 44 56
31 31 39
40 40 51
36 36 45
44 44 56
44 44 56
36 36 45
40 40 51
36 36 45
40 40 51
36 36 45
36 36 45
31 31 39
31 31 39
40 40 51
51 51 64
57 57 72
36 36 45
18 18 22
36 36 45
47 47 60
40 40 51
25 25 32
25 25 32
25 25 32
25 25 32
44 44 56
31 31 39
36 36 45
25 25 32
25 25 32
54 54 68
0 0 0
36 36 45
25 25 32
47 47 60
25 25 32
54 54 68
0 0 0
31 31 39
31 31 39
18 18 22
30 29 34
51 51 64
40 40 51
25 25 32
44 44 56
31 31 39
31 31 39
31 31 39
31 31 40
36 36 45
18 18 23
40 40 51
44 44 56
25 25 32
40 40 51
40 40 51
31 31 39
44 44 56
18 18 22
25 25 32
31 31 39
18 18 22
44 44 56
18 18 22
31 31 39
41 41 52
25 25 32
25 25 32
36 36 46
51 51 64
40 40 51
31 31 39
47 47 60
31 31 39
31 31 39
36 36 45
31 31 39
18 18 23
18 18 22
36 36 45
31 31 39
37 37 47
47 47 60
31 31 39
40 40 51
25 25 32
25 25 32
36 36 45
25 25 32
18 18 22
48 48 60
44 44 56
18 18 22
40 40 51
25 25 32
47 47 60
36 36 45
40 40 51
31 31 39
25 25 32
25 25 32
25 25 32
36 36 45
31 31 39
44 44 56
44 44 56
40 40 51
18 18 23
31 31 39
36 36 45
40 40 51
31 31 39
36 36 45
31 31 39
31 31 39
40 40 51
23 21 25
36 36 45
25 25 32
25 25 32
40 40 51
47 47 60
47 47 60
18 18 22
31 31 39
31 31 39
36 36 46
25 25 32
36 36 45
40 40 51
0 0 0
44 44 56
36 36 45
36 36 45
25 25 32
18 18 22
31 31 39
25 25 32
40 40 51
31 31 39
25 25 32
31 31 39
25 25 32
38 38 50
31 31 39
44 44 56
31 31 39
26 26 32
40 40 51
36 36 45
36 36 45
40 40 51
40 40 51
19 19 24
18 18 22
26 26 33
40 40 51
36 36 45
31 31 39
40 40 51
40 40 51
44 44 56
25 25 32
32 32 42
47 47 60
31 31 39
51 51 64
36 36 45
18 18 22
36 36 45
25 25 32
47 47 60
47 47 60
40 40 51
18 18 23
40 40 51
31 31 39
40 40 51
54 54 69
31 31 39
36 36 45
47 47 60
40 40 51
36 36 45
40 40 51
36 36 45
40 40 51
31 31 39
47 47 60
47 47 60
36 36 45
31 31 39
31 31 39
51 51 64
40 40 51
36 36 45
36 36 45
40 40 51
47 47 60
40 40 51
31 31 39
47 47 60
40 40 51
44 44 56
47 47 60
36 36 45
40 40 51
25 25 32
40 40 51
40 40 51
36 36 45
44 44 56
36 36 45
47 47 60
31 31 39
44 44 56
51 51 64
44 44 56
31 31 39
25 25 32
40 40 51
40 40 51
44 44 56
40 40 51
25 25 32
31 31 39
40 40 51
31 31 39
25 25 32
0 0 0
44 44 56
44 44 56
40 40 51
36 36 45
36 36 45
25 25 32
26 26 33
47 47 60
25 25 32
18 18 22
36 36 45
31 31 39
31 31 39
31 31 39
44 44 56
40 40 51
41 41 52
26 26 33
36 36 45
44 44 56
36 36 45
31 31 39
0 0 0
26 26 33
18 18 22
25 25 32
36 36 45
18 18 22
40 40 51
44 44 56
44 44 56
18 18 22
25 25 32
44 44 56
36 36 45
37 37 47
31 31 39
44 44 56
18 18 22
25 25 32
25 25 32
36 36 45
54 54 68
25 25 32
31 31 39
44 44 56
44 44 56
18 18 22
44 44 56
36 36 45
31 31 39
31 31 39
25 25 32
18 18 22
36 36 45
18 18 22
40 40 51
31 31 39
36 36 45
40 40 51
18 18 22
31 31 39
25 25 32
18 18 22
40 40 51
44 44 56
47 47 60
18 18 22
44 44 56
36 36 45
0 0 0
25 25 32
40 40 51
31 31 39
40 40 51
25 25 32
25 25 32
18 18 22
40 40 51
25 25 32
36 36 45
44 44 56
31 29 34
36 36 45
40 40 51
31 31 40
47 47 60
36 36 45
31 31 39
25 25 32
40 40 51
40 40 51
40 40 51
36 36 45
25 25 28
18 18 22
37 37 47
31 31 39
25 25 32
36 36 45
31 31 39
36 36 45
25 25 32
25 25 32
31 31 39
51 51 64
40 40 51
25 25 32
40 40 51
31 31 39
25 25 32
36 36 46
54 54 68
25 25 32
40 40 51
51 51 64
31 31 39
25 25 32
25 25 32
25 25 32
25 25 32
41 41 52
40 40 51
44 44 56
44 44 56
25 25 32
40 40 51
25 25 32
51 51 64
25 25 32
40 40 51
25 25 32
31 31 39
25 25 32
25 25 32
36 36 45
22 21 26
31 31 39
10 8 8
44 44 56
0 0 0
25 25 32
25 25 32
18 18 22
31 31 39
0 0 0
44 44 56
25 25 32
36 36 45
36 36 45
26 26 33
25 25 32
36 36 45
25 25 32
47 47 60
25 25 32
25 25 32
31 31 39
36 36 45
40 40 51
44 44 56
44 44 56
18 18 22
31 31 39
40 40 51
47 47 60
36 36 46
18 18 22
25 25 32
40 40 51
31 31 39
0 0 0
40 40 51
0 0 0
31 31 39
18 18 22
47 47 60
40 40 51
25 25 32
31 31 39
25 25 32
25 25 32
44 44 56
40 40 51
25 25 32
44 44 56
25 25 32
25 25 32
36 36 45
18 18 22
44 44 56
36 36 45
31 31 39
40 40 51
31 31 39
44 44 56
40 40 51
18 18 22
25 25 32
36 36 45
44 44 56
36 36 45
36 36 45
36 36 45
25 25 32
40 40 51
36 36 45
31 31 39
33 33 41
36 36 45
25 25 32
44 44 56
34 34 42
40 40 51
47 47 60
31 31 39
18 18 22
47 47 60
44 44 56
25 25 32
36 36 45
31 31 39
25 25 32
40 40 51
40 40 51
40 40 51
40 40 51
40 40 51
31 31 39
31 31 39
44 44 56
44 44 56
36 36 45
25 25 32
36 36 45
47 47 60
25 25 32
25 25 32
37 37 47
31 31 39
31 31 39
44 44 56
36 36 45
31 31 39
31 31 39
31 31 39
40 40 51
40 40 51
25 25 32
25 25 32
36 36 45
25 25 32
36 36 45
31 31 39
60 60 75
25 25 32
36 36 45
47 47 60
31 31 39
31 31 39
25 25 32
18 18 22
31 31 39
18 18 22
47 47 60
44 44 56
25 25 32
31 31 39
25 25 32
36 36 45
0 0 0
31 31 39
18 18 22
54 54 68
25 25 32
25 25 32
31 31 39
44 44 56
36 36 45
31 31 39
36 36 45
25 25 32
47 47 60
18 18 22
47 47 60
47 47 60
44 44 56
47 47 60
0 0 0
36 36 45
18 18 22
25 25 32
44 44 56
47 47 60
25 25 32
31 31 39
31 31 39
40 40 51
51 51 64
25 25 32
18 18 23
36 36 45
44 44 56
40 40 51
44 44 56
25 25 32
18 18 22
36 36 45
18 18 22
18 18 22
44 44 56
31 31 39
38 38 48
36 36 45
31 31 39
44 44 56
40 40 51
40 40 51
40 40 51
44 44 56
44 44 56
40 40 51
41 41 52
36 36 45
40 40 51
36 36 45
36 36 45
36 36 45
25 25 32
25 25 32
19 19 24
44 44 56
40 40 51
36 36 45
25 25 32
31 31 39
47 47 60
25 25 32
33 33 41
18 18 22
44 44 56
25 25 32
51 51 64
25 25 32
25 25 32
31 31 39
25 25 32
25 25 32
31 31 39
25 25 32
25 25 32
27 27 34
31 31 39
31 31 39
18 18 22
25 25 32
44 44 56
25 25 32
36 36 45
40 40 51
36 36 46
0 0 0
36 36 45
47 47 60
25 25 32
36 36 45
40 40 51
31 31 39
40 40 51
18 18 22
31 31 39
36 36 45
31 31 39
44 44 56
44 44 56
31 31 39
41 41 52
47 47 60
36 36 45
51 51 64
44 44 56
47 47 60
47 47 60
40 40 51
18 18 22
54 54 68
44 44 56
31 31 39
31 31 39
44 44 56
36 36 45
47 47 60
40 40 51
31 31 39
31 31 39
40 40 51
46 46 59
25 25 32
36 36 45
47 46 57
25 25 32
47 47 60
40 40 51
44 44 56
36 36 45
47 47 60
31 29 34
25 25 32
51 51 64
36 36 45
29 27 34
47 47 60
36 36 45
36 36 45
44 44 56
47 47 60
25 25 32
7 7 9
36 36 45
51 51 64
36 36 45
36 36 45
25 25 32
36 36 45
40 40 51
44 44 56
36 36 45
54 54 68
25 25 32
40 40 51
36 36 45
51 51 64
33 33 41
25 25 32
31 31 39
44 44 56
32 32 40
25 25 32
31 31 39
36 36 45
44 44 56
36 36 46
26 26 33
40 40 51
40 40 51
40 40 51
36 36 45
36 34 41
36 36 45
31 31 39
25 25 32
31 31 39
40 40 51
41 41 52
31 31 40
25 25 32
36 36 45
47 47 60
31 31 39
40 40 51
18 18 22
18 18 22
31 31 39
44 44 56
44 44 56
36 36 45
44 44 56
51 51 64
31 31 39
40 40 51
25 25 32
25 25 32
25 25 33
31 31 39
31 31 39
25 25 32
18 18 22
37 37 47
40 40 51
44 44 56
18 18 22
44 44 56
25 25 32
25 25 32
31 31 39
47 47 60
25 25 32
31 31 39
18 18 22
25 25 32
40 40 51
25 25 32
40 40 51
31 31 39
18 18 22
18 18 22
31 31 39
36 36 45
18 18 22
40 40 51
36 36 45
18 18 22
44 44 56
37 37 47
40 40 51
31 31 39
0 0 0
18 18 22
44 44 56
31 31 39
25 25 32
40 40 51
47 47 60
36 36 46
31 31 39
25 25 32
40 40 51
1 0 5
40 40 51
40 40 51
18 18 22
18 18 22
37 37 46
36 36 45
40 40 51
31 31 39
36 36 45
36 36 45
31 31 39
31 31 39
36 36 46
40 40 51
31 31 39
25 25 32
40 40 51
31 31 39
25 25 32
0 0 0
40 40 51
36 36 45
31 31 39
18 18 22
0 0 0
25 25 32
36 36 45
31 31 39
31 31 39
36 36 45
44 44 56
18 18 22
25 25 32
36 36 45
36 36 45
25 25 32
31 31 39
36 36 45
18 18 23
31 31 39
31 31 39
18 18 22
25 25 32
36 36 45
36 36 45
18 18 22
36 36 45
40 40 51
25 25 32
31 31 39
18 18 22
31 31 39
31 31 39
31 31 39
36 36 45
31 31 39
25 25 32
36 36 45
40 40 51
31 31 39
40 40 51
18 18 22
40 40 51
40 40 51
25 25 32
31 31 39
36 36 45
31 31 39
44 44 56
36 36 45
25 25 32
0 0 0
25 25 32
47 47 60
31 31 39
31 31 39
0 0 0
47 47 60
25 25 32
40 40 51
36 36 45
44 44 56
36 36 45
25 25 32
18 18 22
47 47 60
36 36 45
40 40 51
19 19 24
40 40 51
36 36 45
32 32 40
27 27 34
25 25 32
44 44 56
40 40 51
47 47 60
25 25 32
18 18 23
36 36 45
44 44 56
44 44 56
36 36 45
51 51 64
18 18 22
0 0 0
51 51 64
36 36 45
31 31 39
36 36 45
36 36 45
31 31 39
25 25 32
31 31 39
36 36 45
25 25 32
36 36 45
40 40 51
27 27 34
40 40 51
0 0 0
19 19 24
31 31 39
44 44 56
40 40 51
31 31 39
25 25 32
26 26 33
40 40 51
45 45 57
31 31 39
18 18 22
25 25 32
25 25 32
36 36 45
36 36 45
31 31 40
25 25 32
36 36 45
18 18 22
36 36 45
0 0 0
36 36 45
40 40 51
40 40 51
44 44 56
36 36 45
25 25 32
25 25 32
31 31 39
25 25 32
25 25 32
18 18 24
32 32 41
31 31 39
31 31 39
40 40 51
18 18 23
36 36 45
0 0 0
25 25 32
18 18 22
31 31 39
31 31 39
0 0 0
18 18 22
31 31 39
0 0 0
40 40 51
40 40 51
26 26 32
31 31 39
25 25 32
36 36 45
0 0 0
36 36 45
36 36 45
45 45 57
36 36 45
40 40 51
25 25 32
36 36 45
31 31 39
25 25 32
40 40 51
25 25 32
31 31 39
54 54 68
44 44 56
37 37 47
31 31 39
36 36 45
44 44 56
51 51 64
31 31 39
31 31 39
31 31 39
41 41 51
28 28 38
25 25 32
31 31 39
40 40 51
18 18 22
40 40 51
18 18 22
40 40 51
36 36 45
25 21 25
31 31 39
40 40 51
25 25 32
40 40 51
27 27 34
25 25 32
44 44 56
40 40 51
51 51 64
31 31 39
25 25 32
18 18 22
25 25 32
25 25 32
40 40 51
36 36 45
40 40 51
36 36 45
0 0 0
18 18 22
51 51 64
40 40 51
36 36 45
36 36 45
18 18 22
40 40 51
36 36 45
25 25 32
18 18 22
40 40 51
40 40 51
31 31 39
40 40 51
18 18 22
31 31 39
36 36 45
26 26 33
40 40 51
31 31 40
36 36 45
48 48 60
31 31 39
31 31 39
0 0 0
31 31 39
25 25 32
36 36 45
25 25 32
31 31 39
36 36 45
40 40 51
47 47 60
51 51 65
0 0 0
44 44 56
31 31 39
18 18 22
44 44 56
25 25 32
18 18 22
36 36 45
32 32 41
31 31 39
47 47 60
36 36 45
44 44 56
40 40 51
18 18 22
44 44 56
18 18 22
32 32 41
40 40 51
31 31 39
25 25 32
36 36 45
44 44 56
36 36 45
47 47 60
31 31 39
47 47 60
31 31 39
31 31 39
31 31 39
48 48 61
31 31 39
31 31 39
42 42 55
36 36 45
31 31 39
25 25 32
31 31 39
18 18 22
36 36 45
44 44 56
25 25 32
51 51 64
25 25 32
25 25 32
40 40 51
36 36 45
36 36 46
36 36 45
0 0 0
25 25 32
18 18 22
18 18 22
31 31 39
44 44 56
31 31 39
18 18 22
31 31 39
0 0 0
26 26 34
18 18 22
44 44 56
31 31 39
36 36 45
36 36 45
18 18 22
40 40 51
31 31 39
31 31 39
44 44 56
31 31 39
51 51 64
40 40 51
51 51 64
36 36 45
40 40 51
33 33 42
31 31 39
25 25 32
47 47 60
36 36 45
44 44 56
25 25 32
40 40 51
31 31 39
36 36 45
18 18 22
36 36 45
26 26 33
25 25 32
40 40 51
31 31 39
40 40 51
31 31 39
36 36 45
47 47 60
47 47 60
31 31 39
47 47 60
40 40 51
44 44 56
25 25 32
40 40 51
32 32 41
36 36 45
40 40 51
48 48 61
31 31 39
0 0 0
25 26 32
40 40 51
31 31 39
25 25 32
31 31 39
25 25 32
18 18 22
36 36 45
27 27 32
36 36 45
36 36 46
31 31 39
40 40 51
40 40 51
25 25 32
18 18 22
25 25 32
18 18 22
44 44 56
36 36 45
25 25 32
36 36 45
25 25 32
25 25 32
31 31 39
18 18 22
31 31 39
18 18 22
36 36 45
25 25 32
25 25 32
25 25 32
31 31 39
36 36 45
25 25 32
25 25 32
44 44 56
47 47 60
26 26 33
25 25 32
47 47 60
31 31 39
44 44 56
0 0 3
44 44 56
18 18 22
18 18 22
25 25 32
31 31 39
25 25 32
36 36 45
18 18 23
31 31 39
31 31 39
31 31 39
40 40 51
44 44 56
40 40 51
18 18 22
18 18 22
36 36 45
31 31 39
36 36 46
31 31 39
18 18 22
25 25 32
36 36 45
18 18 22
31 31 39
40 40 51
36 36 45
18 18 22
31 31 39
25 25 32
31 31 39
18 18 22
18 18 22
18 18 22
31 31 39
25 25 32
47 47 60
33 33 42
31 31 39
25 25 32
31 31 39
31 31 39
31 31 39
31 31 39
47 47 60
31 31 39
25 25 32
25 25 32
18 18 22
0 0 0
40 40 51
36 36 45
31 31 39
44 44 56
25 25 32
36 36 45
18 18 22
51 51 64
40 40 51
18 18 22
36 36 45
25 25 32
32 32 40
25 25 32
18 18 22
36 36 45
32 32 40
31 31 39
18 18 22
18 18 22
25 25 32
31 32 39
36 36 45
25 25 32
36 36 45
18 18 22
44 44 56
31 31 39
47 47 60
47 47 60
25 25 32
36 36 45
25 25 32
31 31 40
18 18 22
44 44 56
31 31 39
40 40 48
25 25 32
40 40 51
31 31 39
47 47 60
31 31 39
36 36 45
25 25 32
25 25 32
40 40 51
40 40 51
31 31 40
36 36 45
25 25 32
31 31 39
25 25 32
31 31 39
31 31 39
25 25 32
31 31 39
36 36 45
36 36 45
41 41 51
25 25 32
40 40 51
36 36 45
25 25 32
25 25 32
31 31 39
36 36 45
52 52 65
36 36 45
25 25 32
40 40 51
31 31 39
25 25 32
47 47 60
27 27 35
40 40 51
40 40 51
40 40 51
36 36 45
40 40 51
40 40 51
31 31 39
31 31 39
18 18 22
44 44 57
31 31 39
36 36 45
31 31 39
40 40 51
31 31 39
36 36 45
36 36 46
36 36 45
31 31 39
44 44 56
0 0 0
33 33 42
36 36 45
18 18 23
31 31 39
44 44 56
18 18 22
18 18 22
18 18 22
25 25 32
47 47 60
25 25 32
44 44 56
36 36 45
36 36 45
36 36 45
44 44 56
25 25 32
18 18 22
44 44 56
18 18 22
31 31 40
44 44 56
47 47 60
40 40 51
25 25 32
36 36 45
25 25 32
40 40 51
47 47 60
44 44 56
40 40 51
25 25 32
36 36 45
51 51 64
31 31 39
44 44 56
31 31 39
44 44 56
36 36 45
36 36 45
25 25 32
18 18 22
25 25 32
31 31 39
40 40 51
41 41 52
44 44 56
40 40 51
36 36 45
25 25 32
31 31 39
36 36 45
25 25 32
40 40 51
31 31 39
36 36 45
47 47 60
25 25 32
40 40 51
40 40 51
18 18 22
31 31 39
47 47 60
25 25 32
40 40 51
31 31 39
36 36 45
25 25 32
40 40 51
0 0 0
36 36 45
25 25 32
44 44 56
25 25 32
18 18 22
25 25 32
0 0 0
36 36 45
31 31 39
36 36 45
31 31 39
44 44 56
18 18 22
25 25 32
36 36 45
44 44 56
36 36 45
31 31 39
25 25 32
40 40 51
36 36 46
31 31 39
44 44 56
44 44 56
31 31 39
31 31 39
40 40 51
25 25 32
40 40 51
25 25 32
36 36 45
31 31 39
40 40 51
18 18 22
36 36 45
36 36 45
31 31 39
25 25 32
40 40 51
40 40 51
25 25 32
31 31 39
40 40 51
36 36 45
31 31 39
36 36 45
25 25 32
25 25 32
18 18 22
0 0 0
40 40 51
36 36 45
25 25 32
18 18 22
18 18 22
54 54 68
31 31 39
31 31 39
44 44 56
44 44 56
25 25 32
31 31 39
36 36 45
36 36 45
40 40 51
31 31 39
25 25 32
44 44 56
31 31 39
25 25 32
40 40 51
40 40 51
44 44 56
31 31 39
31 31 39
31 31 40
40 40 51
36 36 45
25 25 32
18 18 22
44 44 56
40 40 51
25 25 32
40 40 51
40 40 51
25 25 32
31 31 39
25 25 32
36 36 45
48 48 62
25 25 32
40 40 51
40 40 51
25 25 32
36 36 45
40 40 51
36 36 45
31 31 39
18 18 22
31 31 39
36 36 45
47 47 60
18 18 22
36 36 45
36 36 45
44 44 56
18 18 22
31 31 39
48 48 62
31 31 39
18 18 22
25 25 32
40 40 51
18 18 22
25 25 32
18 18 22
0 0 0
25 25 32
31 31 39
25 25 32
36 36 45
36 36 45
40 40 51
32 32 40
25 25 32
25 25 32
44 44 56
25 25 32
25 25 32
18 18 22
27 27 34
31 31 39
25 25 32
25 25 32
31 31 39
0 0 0
32 32 41
31 31 39
31 31 39
18 18 22
40 40 51
40 40 51
36 36 45
44 44 56
25 25 32
36 36 45
25 25 32
31 31 39
31 31 40
47 47 60
47 47 60
31 31 39
25 25 32
40 40 51
25 25 32
25 25 32
40 40 51
31 31 39
44 44 56
36 36 45
25 25 32
36 36 45
36 36 45
25 25 32
40 40 51
36 36 45
25 25 32
25 25 32
25 25 32
47 47 60
31 31 39
18 18 22
36 36 45
36 36 45
25 25 32
36 36 45
31 31 39
31 29 34
31 31 39
31 31 39
40 40 51
33 32 40
25 25 32
18 18 22
18 18 22
47 47 60
31 31 39
48 48 60
36 36 45
44 44 56
31 31 39
36 36 45
25 25 32
18 18 22
25 25 32
25 25 32
25 25 32
18 18 22
36 36 45
40 40 51
25 25 32
0 0 0
44 44 56
44 44 56
18 18 22
36 36 45
18 18 22
18 18 22
18 18 22
25 25 32
31 31 39
18 18 22
18 18 22
25 25 32
18 18 22
18 18 22
31 31 39
40 40 51
40 40 51
40 40 51
44 44 56
31 31 39
25 25 32
40 40 51
25 25 32
31 31 39
31 31 39
